(Generated with: DXF2GCODE, Version: PyQt4 Beta, Date: $Date:: 2013-09-15 02:41:17#$)
(Time: Wed Oct 30 21:39:47 2013)
(Created from file: C:/Users/davidbynoe/Dropbox/Science Center/testplot.dxf)
G21 (Unit in mm) G90 (Absolute distance mode) G64 P0.01 (Exact Path 0.001 tol.) G17 G40 (Cancel diameter comp.) G49 (Cancel length comp.)
G0 Z  15.000 

(*** LAYER: Default ***)
T1 M6
S6000

(* SHAPE Nr: 0 *)
G0 X  37.584 Y  97.297
M3 M8
G0 Z   3.000 
F150
G1 Z  -1.500
F400
G2 X 426.493 Y 486.206 I 194.454 J 194.454
G2 X  37.584 Y  97.297 I-194.454 J-194.454
F150
G1 Z  -3.000
F400
G2 X 426.493 Y 486.206 I 194.454 J 194.454
G2 X  37.584 Y  97.297 I-194.454 J-194.454
G1 Z   3.000
G0 Z  15.000 
M9 M5

(* SHAPE Nr: 1 *)
G0 X -42.962 Y  16.752
M3 M8
G0 Z   3.000 
F150
G1 Z  -1.500
F400
G1 X -42.962 Y 566.752
G1 X 507.038 Y 566.752
G1 X 507.038 Y  16.752
G1 X -42.962 Y  16.752
F150
G1 Z  -3.000
F400
G1 X -42.962 Y 566.752
G1 X 507.038 Y 566.752
G1 X 507.038 Y  16.752
G1 X -42.962 Y  16.752
G1 Z   3.000
G0 Z  15.000 
M9 M5

(* SHAPE Nr: 2 *)
G0 X 507.038 Y 566.752
M3 M8
G0 Z   3.000 
F150
G1 Z  -1.500
F400
G1 X -42.962 Y  16.752
F150
G1 Z  -3.000
F400
G1 X 507.038 Y 566.752
G1 Z   3.000
G0 Z  15.000 
M9 M5

(* SHAPE Nr: 3 *)
G0 X -42.962 Y 566.752
M3 M8
G0 Z   3.000 
F150
G1 Z  -1.500
F400
G1 X 507.038 Y  16.752
F150
G1 Z  -3.000
F400
G1 X -42.962 Y 566.752
G1 Z   3.000
G0 Z  15.000 
M9 M5

(* SHAPE Nr: 4 *)
G0 X 507.038 Y 291.752
M3 M8
G0 Z   3.000 
F150
G1 Z  -1.500
F400
G3 X 506.712 Y 298.991 I-272.441 J  -8.672
G3 X 504.922 Y 318.136 I-275.683 J -16.120
G3 X 501.047 Y 340.699 I-270.256 J -34.796
G3 X 492.708 Y 370.894 I-267.134 J -57.522
G3 X 487.748 Y 384.349 I-257.175 J -87.168
G3 X 470.300 Y 420.183 I-252.013 J-100.542
G3 X 441.293 Y 460.867 I-233.191 J-135.578
G3 X 412.864 Y 489.203 I-202.987 J-175.227
G3 X 376.556 Y 515.392 I-173.766 J-202.640
G3 X 341.087 Y 533.234 I-136.659 J-227.500
G3 X 299.041 Y 546.590 I-100.721 J-244.204
G3 X 259.974 Y 552.443 I -58.333 J-256.060
G3 X 216.543 Y 552.020 I -19.174 J-260.673
G3 X 177.796 Y 545.423 I  24.115 J-258.730
G3 X 137.311 Y 531.687 I  62.558 J-250.914
G3 X 102.737 Y 513.425 I 102.440 J-235.792
G3 X  69.100 Y 488.148 I 136.337 J-216.454
G3 X  42.097 Y 460.162 I 168.979 J-190.058
G3 X  18.407 Y 426.198 I 194.991 J-161.253
G3 X   1.582 Y 391.384 I 217.399 J-126.542
G3 X -10.141 Y 352.351 I 233.016 J -91.255
G3 X -14.822 Y 320.330 I 243.347 J -51.925
G3 X -15.594 Y 303.777 I 247.145 J -19.834
G3 X -15.596 Y 297.362 I 247.776 J  -3.279
G3 X -12.089 Y 258.897 I 246.969 J   3.126
G3 X  -1.892 Y 219.370 I 241.907 J  41.325
G3 X  13.834 Y 183.737 I 230.397 J  80.394
G3 X  34.670 Y 151.556 I 213.442 J 115.364
G3 X  60.325 Y 123.074 I 191.511 J 146.706
G3 X  89.833 Y  99.264 I 164.897 J 174.174
G3 X 122.669 Y  80.448 I 134.609 J 196.844
G3 X 157.781 Y  67.165 I 101.179 J 214.400
G3 X 194.340 Y  59.634 I  65.681 J 226.355
G3 X 231.501 Y  57.983 I  28.950 J 232.507
G3 X 268.038 Y  62.169 I  -8.162 J 232.770
G3 X 303.560 Y  72.109 I -44.433 J 227.228
G3 X 336.436 Y  87.239 I -79.473 J 215.976
G3 X 366.853 Y 107.609 I-111.679 J 199.649
G3 X 392.916 Y 131.818 I-141.221 J 178.174
G3 X 415.308 Y 160.466 I-166.284 J 153.045
G3 X 432.204 Y 191.025 I-187.488 J 123.614
G3 X 442.072 Y 216.820 I-203.236 J  92.532
G3 X 448.883 Y 244.819 I-212.133 J  66.432
G3 X 452.206 Y 281.457 I-217.701 J  38.216
G3 X 449.932 Y 314.581 I-219.499 J   1.567
G3 X 441.797 Y 349.780 I-215.981 J -31.376
G3 X 429.398 Y 380.287 I-206.405 J -66.114
G3 X 410.999 Y 410.665 I-192.870 J -96.056
G3 X 389.872 Y 435.571 I-173.255 J-125.552
G3 X 363.371 Y 458.293 I-151.219 J-149.558
G3 X 335.763 Y 475.214 I-123.843 J-171.073
G3 X 304.045 Y 488.300 I -95.646 J-186.844
G3 X 272.814 Y 495.692 I -63.479 J-198.522
G3 X 239.184 Y 498.180 I -32.046 J-204.627
G3 X 207.502 Y 495.480 I   1.573 J-205.647
G3 X 175.336 Y 487.485 I  33.042 J-201.650
G3 X 146.365 Y 475.152 I  64.744 J-192.275
G3 X 118.779 Y 457.816 I  93.103 J-178.767
G3 X  95.347 Y 437.268 I 119.823 J-160.272
G3 X  74.903 Y 412.611 I 142.299 J-138.793
G3 X  59.227 Y 386.065 I 161.567 J-113.310
G3 X  47.697 Y 356.757 I 176.037 J -86.174
G3 X  41.166 Y 326.987 I 186.199 J -56.451
G3 X  39.522 Y 308.878 I 191.514 J -26.513
G3 X  39.349 Y 298.672 I 192.637 J  -8.382
G3 X  41.063 Y 274.811 I 192.186 J   1.818
G3 X  47.127 Y 246.392 I 189.153 J  25.502
G3 X  57.952 Y 218.169 I 181.792 J  53.538
G3 X  72.779 Y 192.560 I 169.692 J  81.152
G3 X  91.613 Y 169.436 I 153.741 J 105.987
G3 X 113.397 Y 149.999 I 133.889 J 128.135
G3 X 138.118 Y 134.162 I 111.276 J 146.483
G3 X 164.496 Y 122.666 I  85.894 J 161.079
G3 X 192.492 Y 115.451 I  59.069 J 171.279
G3 X 220.705 Y 112.807 I  30.832 J 177.109
G3 X 249.125 Y 114.666 I   2.599 J 178.383
G3 X 276.308 Y 120.862 I -25.617 J 175.133
G3 X 302.343 Y 131.349 I -52.392 J 167.629
G3 X 325.828 Y 145.479 I -77.798 J 155.883
G3 X 346.983 Y 163.317 I-100.489 J 140.640
G3 X 364.561 Y 183.704 I-120.650 J 121.800
G3 X 378.887 Y 206.932 I-137.130 J 100.607
G3 X 389.025 Y 231.322 I-150.194 J  76.734
G3 X 395.295 Y 257.509 I-159.043 J  51.923
G3 X 397.269 Y 283.323 I-163.905 J  25.517
G3 X 395.075 Y 309.812 I-164.531 J  -0.295
G3 X 389.017 Y 334.428 I-160.923 J -26.550
G3 X 378.788 Y 358.599 I-153.594 J -50.747
G3 X 363.228 Y 382.799 I-142.034 J -74.222
G3 X 343.441 Y 403.926 I-125.209 J -97.438
G3 X 324.234 Y 418.526 I-104.398 J-117.413
G3 X 301.489 Y 430.666 I -84.502 J-130.946
G3 X 279.234 Y 438.317 I -61.160 J-141.703
G3 X 254.373 Y 442.643 I -38.584 J-148.119
G3 X 231.189 Y 442.950 I -13.589 J-150.954
G3 X 206.747 Y 439.365 I   9.514 J-149.979
G3 X 184.963 Y 432.513 I  33.620 J-144.943
G3 X 163.336 Y 421.701 I  54.923 J-136.891
G3 X 145.075 Y 408.589 I  75.780 J-124.812
G3 X 128.282 Y 391.923 I  93.203 J-110.705
G3 X 115.250 Y 374.051 I 108.876 J -93.082
G3 X 104.743 Y 353.426 I 120.795 J -74.522
G3 X  98.066 Y 332.725 I 129.945 J -53.341
G3 X  95.153 Y 316.158 I 135.431 J -32.356
G3 X  94.336 Y 305.036 I 137.466 J -15.688
G3 X  94.289 Y 297.725 I 137.704 J  -4.547
G3 X  95.724 Y 280.497 I 137.161 J   2.752
G3 X 100.200 Y 260.602 I 134.386 J  19.783
G3 X 108.219 Y 240.372 I 128.647 J  39.292
G3 X 118.810 Y 222.556 I 119.329 J  58.881
G3 X 132.476 Y 206.177 I 107.649 J  75.929
G3 X 147.814 Y 192.826 I  92.952 J  91.296
G3 X 165.516 Y 181.796 I  76.818 J 103.573
G3 X 183.888 Y 174.072 I  58.456 J 113.323
G3 X 203.698 Y 169.247 I  39.663 J 119.774
G3 X 223.153 Y 167.694 I  19.626 J 123.180
G3 X 243.020 Y 169.276 I   0.170 J 123.389
G3 X 261.574 Y 173.791 I -19.469 J 120.390
G3 X 279.531 Y 181.339 I -37.603 J 114.596
G3 X 295.376 Y 191.210 I -54.900 J 105.776
G3 X 309.731 Y 203.710 I -69.945 J  94.821
G3 X 321.408 Y 217.711 I -83.275 J  81.320
G3 X 330.904 Y 233.703 I -93.853 J  66.539
G3 X 337.444 Y 250.246 I-102.060 J  49.917
G3 X 341.359 Y 267.989 I-107.314 J  32.979
G3 X 342.361 Y 285.299 I-109.806 J  15.041
G3 X 340.561 Y 302.954 I-109.464 J  -2.241
G3 X 336.205 Y 319.266 I-106.249 J -19.635
G3 X 329.132 Y 335.087 I-100.629 J -35.501
G3 X 320.134 Y 348.825 I -92.290 J -50.627
G3 X 308.734 Y 361.325 I -82.235 J -63.548
G3 X 296.247 Y 371.258 I -69.848 J -74.989
G3 X 281.856 Y 379.353 I -56.616 J -83.819
G3 X 264.854 Y 385.367 I -41.593 J -90.538
G3 X 247.182 Y 388.183 I -24.194 J -94.993
G3 X 232.264 Y 388.022 I  -6.420 J -96.277
G3 X 216.689 Y 385.327 I   8.386 J -94.841
G3 X 203.092 Y 380.652 I  23.582 J -90.692
G3 X 189.587 Y 373.433 I  36.670 J -84.838
G3 X 178.460 Y 364.959 I  49.361 J -76.360
G3 X 168.240 Y 354.210 I  59.630 J -66.925
G3 X 160.565 Y 342.993 I  68.686 J -55.239
G3 X 154.448 Y 330.008 I  75.240 J -43.376
G3 X 150.800 Y 317.328 I  79.962 J -29.869
G3 X 149.385 Y 307.587 I  82.439 J -16.948
G3 X 149.088 Y 301.706 I  83.033 J  -7.137
G3 X 149.099 Y 298.606 I  82.832 J  -1.249
G3 X 150.022 Y 288.017 I  82.349 J   1.841
G3 X 152.665 Y 276.456 I  80.045 J  12.219
G3 X 157.623 Y 264.104 I  76.194 J  23.409
G3 X 163.791 Y 253.856 I  69.880 J  35.080
G3 X 172.104 Y 244.029 I  62.677 J  44.591
G3 X 180.885 Y 236.510 I  53.292 J  53.345
G3 X 191.474 Y 230.051 I  43.759 J  59.836
G3 X 201.806 Y 225.840 I  32.492 J  64.939
G3 X 213.436 Y 223.162 I  21.770 J  67.934
G3 X 224.168 Y 222.457 I   9.925 J  69.115
G3 X 235.582 Y 223.548 I  -0.792 J  68.538
G3 X 245.595 Y 226.173 I -11.937 J  65.962
G3 X 255.650 Y 230.631 I -21.530 J  62.123
G3 X 263.979 Y 236.072 I -30.861 J  56.343
G3 X 271.758 Y 243.173 I -38.403 J  49.880
G3 X 277.680 Y 250.657 I -45.078 J  41.757
G3 X 282.577 Y 259.454 I -49.927 J  33.551
G3 X 285.677 Y 268.050 I -53.455 J  24.136
G3 X 287.438 Y 277.494 I -55.303 J  15.195
G3 X 287.632 Y 286.223 I -55.571 J   5.602
G3 X 286.356 Y 295.280 I -54.465 J  -3.054
G3 X 283.818 Y 303.371 I -51.724 J -11.778
G3 X 280.272 Y 310.510 I -47.976 J -19.380
G3 X 275.892 Y 316.729 I -43.284 J -25.835
G3 X 270.045 Y 322.706 I -37.882 J -31.212
G3 X 264.006 Y 327.130 I -31.048 J -36.044
G3 X 257.008 Y 330.673 I -24.326 J -39.362
G3 X 250.262 Y 332.795 I -16.764 J -41.507
G3 X 242.946 Y 333.831 I  -9.726 J -42.358
G3 X 236.284 Y 333.670 I  -2.326 J -41.889
G3 X 229.470 Y 332.367 I   4.201 J -40.427
G3 X 223.603 Y 330.196 I  10.607 J -37.675
G3 X 219.369 Y 327.894 I  15.962 J -34.402
G3 X 215.138 Y 324.791 I  19.636 J -31.209
G3 X 210.837 Y 320.449 I  23.002 J -27.088
G3 X 207.655 Y 315.928 I  26.155 J -21.790
G3 X 205.211 Y 310.806 I  28.193 J -16.595
G3 X 203.817 Y 305.890 I  29.234 J -10.948
G3 X 203.324 Y 302.176 I  29.429 J  -5.795
G3 X 203.254 Y 300.352 I  29.085 J  -2.023
G3 X 203.260 Y 299.544 I  28.879 J  -0.197
G3 X 203.616 Y 295.624 I  28.356 J   0.599
G3 X 204.871 Y 290.776 I  26.561 J   4.288
G3 X 206.650 Y 286.902 I  23.868 J   8.616
G3 X 209.142 Y 283.303 I  20.949 J  11.845
G3 X 211.854 Y 280.574 I  17.294 J  14.472
G3 X 215.089 Y 278.312 I  13.738 J  16.204
G3 X 218.230 Y 276.874 I   9.758 J  17.157
G3 X 221.650 Y 276.015 I   6.182 J  17.372
G3 X 224.714 Y 275.832 I   2.539 J  16.758
G3 X 226.959 Y 276.063 I  -0.489 J  15.764
G3 X 228.844 Y 276.523 I  -2.574 J  14.625
G3 X 230.562 Y 277.192 I  -4.188 J  13.304
G3 X 232.101 Y 278.042 I  -5.529 J  11.829
G3 X 233.445 Y 279.044 I  -6.594 J  10.242
G3 X 234.579 Y 280.167 I  -7.379 J   8.589
G3 X 235.494 Y 281.377 I  -7.884 J   6.915
G3 X 236.186 Y 282.640 I  -8.119 J   5.264
G3 X 236.653 Y 283.925 I  -8.101 J   3.678
G3 X 236.902 Y 285.197 I  -7.854 J   2.194
G3 X 236.940 Y 286.425 I  -7.410 J   0.843
G3 X 236.780 Y 287.580 I  -6.804 J  -0.352
G3 X 236.440 Y 288.636 I  -6.075 J  -1.378
G3 X 235.940 Y 289.564 I  -5.258 J  -2.231
G3 X 235.007 Y 290.624 I  -4.354 J  -2.892
G3 X 233.818 Y 291.376 I  -3.088 J  -3.565
G3 X 232.320 Y 291.742 I  -1.787 J  -4.065
G3 X 232.038 Y 291.752 I  -0.282 J  -4.310
F150
G1 Z  -3.000
F400
G2 X 232.320 Y 291.742 I  -0.000 J  -4.319
G2 X 233.818 Y 291.376 I  -0.290 J  -4.431
G2 X 235.007 Y 290.624 I  -1.898 J  -4.318
G2 X 235.940 Y 289.564 I  -3.422 J  -3.951
G2 X 236.440 Y 288.636 I  -4.758 J  -3.160
G2 X 236.780 Y 287.580 I  -5.734 J  -2.433
G2 X 236.940 Y 286.425 I  -6.645 J  -1.507
G2 X 236.902 Y 285.197 I  -7.448 J  -0.385
G2 X 236.653 Y 283.925 I  -8.103 J   0.922
G2 X 236.186 Y 282.640 I  -8.569 J   2.394
G2 X 235.494 Y 281.377 I  -8.810 J   4.000
G2 X 234.579 Y 280.167 I  -8.799 J   5.705
G2 X 233.445 Y 279.044 I  -8.513 J   7.466
G2 X 232.101 Y 278.042 I  -7.938 J   9.240
G2 X 230.562 Y 277.192 I  -7.068 J  10.979
G2 X 228.844 Y 276.523 I  -5.906 J  12.636
G2 X 226.959 Y 276.063 I  -4.459 J  14.165
G2 X 224.714 Y 275.832 I  -2.734 J  15.533
G2 X 221.650 Y 276.015 I  -0.526 J  16.942
G2 X 218.230 Y 276.874 I   2.762 J  18.231
G2 X 215.089 Y 278.312 I   6.617 J  18.595
G2 X 211.854 Y 280.574 I  10.503 J  18.466
G2 X 209.142 Y 283.303 I  14.583 J  17.201
G2 X 206.650 Y 286.902 I  18.456 J  15.444
G2 X 204.871 Y 290.776 I  22.088 J  12.490
G2 X 203.616 Y 295.624 I  25.307 J   9.135
G2 X 203.260 Y 299.544 I  28.000 J   4.520
G2 X 203.254 Y 300.352 I  28.873 J   0.610
G2 X 203.324 Y 302.176 I  29.155 J  -0.199
G2 X 203.817 Y 305.890 I  29.922 J  -2.081
G2 X 205.211 Y 310.806 I  30.629 J  -6.031
G2 X 207.655 Y 315.928 I  30.637 J -11.473
G2 X 210.837 Y 320.449 I  29.338 J -17.269
G2 X 215.138 Y 324.791 I  27.303 J -22.746
G2 X 219.369 Y 327.894 I  23.867 J -28.106
G2 X 223.603 Y 330.196 I  20.197 J -32.099
G2 X 229.470 Y 332.367 I  16.474 J -35.504
G2 X 236.284 Y 333.670 I  11.015 J -39.124
G2 X 242.946 Y 333.831 I   4.336 J -41.729
G2 X 250.262 Y 332.795 I  -2.409 J -43.393
G2 X 257.008 Y 330.673 I -10.018 J -43.629
G2 X 264.006 Y 327.130 I -17.328 J -42.905
G2 X 270.045 Y 322.706 I -25.010 J -40.468
G2 X 275.892 Y 316.729 I -32.034 J -37.189
G2 X 280.272 Y 310.510 I -38.903 J -32.054
G2 X 283.818 Y 303.371 I -44.430 J -26.519
G2 X 286.356 Y 295.280 I -49.187 J -19.869
G2 X 287.632 Y 286.223 I -53.189 J -12.111
G2 X 287.438 Y 277.494 I -55.765 J  -3.127
G2 X 285.677 Y 268.050 I -57.063 J   5.752
G2 X 282.577 Y 259.454 I -56.555 J  15.539
G2 X 277.680 Y 250.657 I -54.823 J  24.754
G2 X 271.758 Y 243.173 I -51.001 J  34.273
G2 X 263.979 Y 236.072 I -46.182 J  42.779
G2 X 255.650 Y 230.631 I -39.190 J  50.902
G2 X 245.595 Y 226.173 I -31.585 J  57.664
G2 X 235.582 Y 223.548 I -21.951 J  63.337
G2 X 224.168 Y 222.457 I -12.206 J  67.447
G2 X 213.436 Y 223.162 I  -0.807 J  69.820
G2 X 201.806 Y 225.840 I  10.140 J  70.612
G2 X 191.474 Y 230.051 I  22.160 J  69.151
G2 X 180.885 Y 236.510 I  33.170 J  66.294
G2 X 172.104 Y 244.029 I  44.511 J  60.864
G2 X 163.791 Y 253.856 I  54.364 J  54.418
G2 X 157.623 Y 264.104 I  63.712 J  45.328
G2 X 152.665 Y 276.456 I  71.237 J  35.761
G2 X 150.022 Y 288.017 I  77.402 J  23.780
G2 X 149.099 Y 298.606 I  81.427 J  12.430
G2 X 149.088 Y 301.706 I  82.821 J   1.851
G2 X 149.385 Y 307.587 I  83.329 J  -1.256
G2 X 150.800 Y 317.328 I  83.854 J  -7.207
G2 X 154.448 Y 330.008 I  83.610 J -17.189
G2 X 160.565 Y 342.993 I  81.357 J -30.390
G2 X 168.240 Y 354.210 I  76.362 J -44.022
G2 X 178.460 Y 364.959 I  69.850 J -56.175
G2 X 189.587 Y 373.433 I  60.488 J -67.887
G2 X 203.092 Y 380.652 I  50.175 J -77.619
G2 X 216.689 Y 385.327 I  37.179 J -86.017
G2 X 232.264 Y 388.022 I  23.960 J -92.147
G2 X 247.182 Y 388.183 I   8.498 J -96.116
G2 X 264.854 Y 385.367 I  -6.522 J -97.809
G2 X 281.856 Y 379.353 I -24.591 J -96.553
G2 X 296.247 Y 371.258 I -42.225 J -91.913
G2 X 308.734 Y 361.325 I -57.361 J -84.922
G2 X 320.134 Y 348.825 I -70.835 J -76.049
G2 X 329.132 Y 335.087 I -83.293 J -64.365
G2 X 336.205 Y 319.266 I -93.555 J -51.321
G2 X 340.561 Y 302.954 I-101.893 J -35.947
G2 X 342.361 Y 285.299 I-107.664 J -19.896
G2 X 341.359 Y 267.989 I-110.808 J  -2.269
G2 X 337.444 Y 250.246 I-111.228 J  15.236
G2 X 330.904 Y 233.703 I-108.601 J  33.374
G2 X 321.408 Y 217.711 I-103.348 J  50.547
G2 X 309.731 Y 203.710 I -94.952 J  67.319
G2 X 295.376 Y 191.210 I -84.300 J  82.321
G2 X 279.531 Y 181.339 I -70.744 J  95.906
G2 X 261.574 Y 173.791 I -55.560 J 107.048
G2 X 243.020 Y 169.276 I -38.023 J 115.876
G2 X 223.153 Y 167.694 I -19.698 J 121.807
G2 X 203.698 Y 169.247 I   0.171 J 124.733
G2 X 183.888 Y 174.072 I  19.852 J 124.598
G2 X 165.516 Y 181.796 I  40.084 J 121.047
G2 X 147.814 Y 192.826 I  59.116 J 114.603
G2 X 132.476 Y 206.177 I  77.615 J 104.647
G2 X 118.810 Y 222.556 I  93.983 J  92.308
G2 X 108.219 Y 240.372 I 108.738 J  76.697
G2 X 100.200 Y 260.602 I 120.628 J  59.522
G2 X  95.724 Y 280.497 I 129.910 J  39.677
G2 X  94.289 Y 297.725 I 135.726 J  19.980
G2 X  94.336 Y 305.036 I 137.751 J   2.763
G2 X  95.153 Y 316.158 I 138.283 J  -4.566
G2 X  98.066 Y 332.725 I 138.345 J -15.788
G2 X 104.743 Y 353.426 I 136.622 J -32.640
G2 X 115.250 Y 374.051 I 131.302 J -53.898
G2 X 128.282 Y 391.923 I 121.909 J -75.210
G2 X 145.075 Y 408.589 I 109.996 J -94.039
G2 X 163.336 Y 421.701 I  94.041 J-111.701
G2 X 184.963 Y 432.513 I  76.549 J-126.079
G2 X 206.747 Y 439.365 I  55.404 J-138.091
G2 X 231.189 Y 442.950 I  33.956 J-146.393
G2 X 254.373 Y 442.643 I   9.595 J-151.260
G2 X 279.234 Y 438.317 I -13.723 J-152.446
G2 X 301.489 Y 430.666 I -38.905 J-149.354
G2 X 324.234 Y 418.526 I -61.757 J-143.086
G2 X 343.441 Y 403.926 I -85.190 J-132.012
G2 X 363.228 Y 382.799 I-105.422 J-118.565
G2 X 378.788 Y 358.599 I-126.474 J -98.422
G2 X 389.017 Y 334.428 I-143.365 J -74.918
G2 X 395.075 Y 309.812 I-154.864 J -51.167
G2 X 397.269 Y 283.323 I-162.337 J -26.783
G2 X 395.295 Y 257.509 I-165.880 J  -0.297
G2 X 389.025 Y 231.322 I-165.313 J  25.736
G2 X 378.887 Y 206.932 I-160.332 J  52.344
G2 X 364.561 Y 183.704 I-151.456 J  77.379
G2 X 346.983 Y 163.317 I-138.228 J 101.413
G2 X 325.828 Y 145.479 I-121.643 J 122.803
G2 X 302.343 Y 131.349 I-101.283 J 141.752
G2 X 276.308 Y 120.862 I -78.427 J 157.143
G2 X 249.125 Y 114.666 I -52.801 J 168.937
G2 X 220.705 Y 112.807 I -25.821 J 176.524
G2 X 192.492 Y 115.451 I   2.619 J 179.754
G2 X 164.496 Y 122.666 I  31.073 J 178.494
G2 X 138.118 Y 134.162 I  59.516 J 172.574
G2 X 113.397 Y 149.999 I  86.556 J 162.320
G2 X  91.613 Y 169.436 I 112.104 J 147.572
G2 X  72.779 Y 192.560 I 134.907 J 129.110
G2 X  57.952 Y 218.169 I 154.864 J 106.761
G2 X  47.127 Y 246.392 I 170.967 J  81.761
G2 X  41.063 Y 274.811 I 183.089 J  53.921
G2 X  39.349 Y 298.672 I 190.471 J  25.680
G2 X  39.522 Y 308.878 I 192.811 J   1.824
G2 X  41.166 Y 326.987 I 193.158 J  -8.404
G2 X  47.697 Y 356.757 I 192.730 J -26.681
G2 X  59.227 Y 386.065 I 187.567 J -56.866
G2 X  74.903 Y 412.611 I 177.243 J -86.765
G2 X  95.347 Y 437.268 I 162.744 J-114.136
G2 X 118.779 Y 457.816 I 143.254 J-139.724
G2 X 146.365 Y 475.152 I 120.689 J-161.431
G2 X 175.336 Y 487.485 I  93.715 J-179.941
G2 X 207.502 Y 495.480 I  65.209 J-193.655
G2 X 239.184 Y 498.180 I  33.254 J-202.947
G2 X 272.814 Y 495.692 I   1.584 J-207.115
G2 X 304.045 Y 488.300 I -32.248 J-205.914
G2 X 335.763 Y 475.214 I -63.929 J-199.930
G2 X 363.371 Y 458.293 I -96.235 J-187.994
G2 X 389.872 Y 435.571 I-124.717 J-172.280
G2 X 410.999 Y 410.665 I-152.129 J-150.458
G2 X 429.398 Y 380.287 I-174.471 J-126.433
G2 X 441.797 Y 349.780 I-194.006 J -96.621
G2 X 449.932 Y 314.581 I-207.846 J -66.575
G2 X 452.206 Y 281.457 I-217.225 J -31.557
G2 X 448.883 Y 244.819 I-221.024 J   1.578
G2 X 442.072 Y 216.820 I-218.944 J  38.434
G2 X 432.204 Y 191.025 I-213.104 J  66.737
G2 X 415.308 Y 160.466 I-204.384 J  93.055
G2 X 392.916 Y 131.818 I-188.675 J 124.397
G2 X 366.853 Y 107.609 I-167.284 J 153.966
G2 X 336.436 Y  87.239 I-142.096 J 179.278
G2 X 303.560 Y  72.109 I-112.349 J 200.846
G2 X 268.038 Y  62.169 I -79.956 J 217.288
G2 X 231.501 Y  57.983 I -44.698 J 228.584
G2 X 194.340 Y  59.634 I  -8.211 J 234.159
G2 X 157.781 Y  67.165 I  29.122 J 233.886
G2 X 122.669 Y  80.448 I  66.067 J 227.684
G2 X  89.833 Y  99.264 I 101.774 J 215.660
G2 X  60.325 Y 123.074 I 135.389 J 197.983
G2 X  34.670 Y 151.556 I 165.856 J 175.187
G2 X  13.834 Y 183.737 I 192.606 J 147.544
G2 X  -1.892 Y 219.370 I 214.671 J 116.027
G2 X -12.089 Y 258.897 I 231.710 J  80.852
G2 X -15.596 Y 297.362 I 243.462 J  41.591
G2 X -15.594 Y 303.777 I 247.778 J   3.137
G2 X -14.822 Y 320.330 I 247.918 J  -3.281
G2 X -10.141 Y 352.351 I 248.028 J -19.905
G2 X   1.582 Y 391.384 I 244.738 J -52.222
G2 X  18.407 Y 426.198 I 234.225 J -91.728
G2 X  42.097 Y 460.162 I 218.682 J-127.289
G2 X  69.100 Y 488.148 I 195.981 J-162.072
G2 X 102.737 Y 513.425 I 169.974 J-191.177
G2 X 137.311 Y 531.687 I 137.014 J-217.529
G2 X 177.796 Y 545.423 I 103.042 J-237.178
G2 X 216.543 Y 552.020 I  62.862 J-252.134
G2 X 259.974 Y 552.443 I  24.256 J-260.249
G2 X 299.041 Y 546.590 I -19.266 J-261.913
G2 X 341.087 Y 533.234 I -58.675 J-257.560
G2 X 376.556 Y 515.392 I-101.190 J-245.341
G2 X 412.864 Y 489.203 I-137.458 J-228.829
G2 X 441.293 Y 460.867 I-174.557 J-203.563
G2 X 470.300 Y 420.183 I-204.185 J-176.262
G2 X 487.748 Y 384.349 I-234.565 J-136.377
G2 X 492.708 Y 370.894 I-252.215 J-100.623
G2 X 501.047 Y 340.699 I-258.795 J -87.717
G2 X 504.922 Y 318.136 I-266.381 J -57.360
G2 X 506.712 Y 298.991 I-273.893 J -35.265
G2 X 507.038 Y 291.752 I-272.114 J -15.911
G1 Z   3.000
G0 Z  15.000 
M9 M5
G0 X   0.000 Y   0.000
M2 (Program end)