%
(Header)
(Generated by gcodetools from Inkscape.)
(Using default header. To add your own header create file "header" in the output dir.)
M3
(Header end.)
G21 (All units in mm)

(Start cutting path id: path11686)
(Change tool to Default tool)

G00 Z6.000000
G00 X122.411406 Y176.565289

G01 Z0.875000 F100.0(Penetrate)
G02 X122.309222 Y176.921023 Z0.875000 I0.583147 J0.360052 F400.000000
G02 X122.258131 Y193.133528 Z0.875000 I2574.270578 J16.218733
G02 X122.309143 Y209.346033 Z0.875000 I2574.322339 J0.006229
G02 X122.411325 Y209.701766 Z0.875000 I0.685332 J-0.004314
G02 X122.623100 Y209.827540 Z0.875000 I0.226179 J-0.139657
G02 X126.526552 Y209.925082 Z0.875000 I3.619809 J-66.705144
G02 X130.280554 Y209.600957 Z0.875000 I-0.097791 J-23.034022
G02 X130.759815 Y209.207094 Z0.875000 I-0.104404 J-0.615560
G02 X130.926588 Y208.515443 Z0.875000 I-2.638332 J-1.002094
G02 X130.866096 Y208.246762 Z0.875000 I-0.420321 J-0.046517
G03 X131.047495 Y207.858831 Z0.875000 I0.217852 J-0.134509
G03 X131.958091 Y208.089688 Z0.875000 I0.175407 J1.219437
G02 X134.925611 Y210.005079 Z0.875000 I15.913716 J-21.398668
G02 X136.230484 Y210.462126 Z0.875000 I1.983778 J-3.572472
G02 X140.462787 Y210.867710 Z0.875000 I4.952666 J-29.396437
G02 X141.278621 Y210.584138 Z0.875000 I0.029727 J-1.229832
G02 X141.600334 Y209.921255 Z0.875000 I-0.570010 J-0.686148
G02 X141.500490 Y202.079918 Z0.875000 I-101.004670 J-2.635214
G02 X141.321089 Y201.878097 Z0.875000 I-0.215754 J0.011141
G02 X140.137731 Y201.847299 Z0.875000 I-0.698592 J4.092555
G03 X136.179875 Y201.442469 Z0.875000 I-1.069296 J-9.095500
G03 X133.184724 Y199.536295 Z0.875000 I2.300194 J-6.920481
G03 X131.711388 Y197.157464 Z0.875000 I5.023779 J-4.757167
G03 X131.317729 Y194.436063 Z0.875000 I6.274281 J-2.296766
G02 X131.341865 Y193.698769 Z0.875000 I-11.903042 J-0.758704
G02 X131.334698 Y184.999271 Z0.875000 I-1660.849762 J-2.981351
G01 X131.304747 Y176.299083 Z0.875000
G01 X126.940265 Y176.299083 Z0.875000
G02 X122.646119 Y176.425179 Z0.875000 I-0.000000 J73.180727
G02 X122.411417 Y176.565289 Z0.875000 I0.017384 J0.295755
G01 X122.411406 Y176.565289 Z0.875000
G00 Z6.000000

(End cutting path id: path11686)


(Start cutting path id: path2986)
(Change tool to Default tool)

G00 Z6.000000
G00 X120.686157 Y171.547177

G01 Z0.875000 F100.0(Penetrate)
G01 X123.772110 Y171.547177 Z0.875000 F400.000000
G01 X123.516225 Y170.786596 Z0.875000
G01 X121.615363 Y170.786596 Z0.875000
G01 X121.615363 Y169.079121 Z0.875000
G01 X123.497358 Y169.079121 Z0.875000
G01 X123.497358 Y168.319720 Z0.875000
G01 X121.615363 Y168.319720 Z0.875000
G01 X121.615363 Y166.478996 Z0.875000
G01 X123.799232 Y166.478996 Z0.875000
G01 X123.799232 Y165.718416 Z0.875000
G01 X120.686157 Y165.718416 Z0.875000
G01 X120.686157 Y171.547177 Z0.875000
G01 X120.686157 Y171.547177 Z0.875000
G00 Z6.000000

(End cutting path id: path2986)


(Start cutting path id: path2982)
(Change tool to Default tool)

G00 Z6.000000
G00 X117.961155 Y171.546823

G01 Z0.875000 F100.0(Penetrate)
G01 X118.890361 Y171.546823 Z0.875000 F400.000000
G01 X118.890361 Y165.718062 Z0.875000
G01 X117.961155 Y165.718062 Z0.875000
G01 X117.961155 Y171.546823 Z0.875000
G01 X117.961155 Y171.546823 Z0.875000
G00 Z6.000000

(End cutting path id: path2982)


(Start cutting path id: path11720)
(Change tool to Default tool)

G00 Z6.000000
G00 X117.798360 Y168.589164

G01 Z0.875000 F100.0(Penetrate)
G02 X118.127896 Y171.374718 Z0.875000 I15.363381 J-0.405242 F400.000000
G02 X118.443898 Y171.630690 Z0.875000 I0.316002 J-0.067069
G02 X118.760652 Y171.374792 Z0.875000 I0.000000 J-0.323991
G02 X119.097740 Y168.589164 Z0.875000 I-15.040199 J-3.233215
G01 X119.186269 Y165.547634 Z0.875000
G01 X118.452199 Y165.547634 Z0.875000
G01 X117.718135 Y165.547634 Z0.875000
G01 X117.798360 Y168.589164 Z0.875000
G01 X117.798360 Y168.589164 Z0.875000
G00 Z6.000000

(End cutting path id: path11720)


(Start cutting path id: path11718)
(Change tool to Default tool)

G00 Z6.000000
G00 X120.563817 Y168.376964

G01 Z0.875000 F100.0(Penetrate)
G03 X120.531028 Y171.200970 Z0.875000 I-121.625718 J-0.000000 F400.000000
G03 X120.493152 Y171.418491 Z0.875000 I-0.742605 J-0.017247
G02 X120.562526 Y171.534711 Z0.875000 I0.084754 J0.028224
G02 X122.189085 Y171.714927 Z0.875000 I2.248561 J-12.864233
G02 X123.784766 Y171.619908 Z0.875000 I0.356023 J-7.467089
G02 X123.955687 Y171.417845 Z0.875000 I-0.033978 J-0.202062
G02 X123.596791 Y170.716389 Z0.875000 I-0.864940 J0.000000
G02 X122.485877 Y170.357494 Z0.875000 I-1.110914 J1.539899
G03 X121.886630 Y170.165304 Z0.875000 I-0.000000 J-1.030321
G03 X121.694438 Y169.791628 Z0.875000 I0.267171 J-0.373676
G03 X121.902171 Y169.433494 Z0.875000 I0.412581 J0.000000
G03 X122.683736 Y169.225762 Z0.875000 I0.781566 J1.366406
G02 X123.465298 Y169.018030 Z0.875000 I0.000000 J-1.574127
G02 X123.673031 Y168.659896 Z0.875000 I-0.204849 J-0.358135
G02 X123.465298 Y168.301761 Z0.875000 I-0.412581 J0.000000
G02 X122.683736 Y168.094030 Z0.875000 I-0.781562 J1.366396
G03 X121.961725 Y167.826742 Z0.875000 I-0.000000 J-1.108812
G03 X121.694438 Y167.245232 Z0.875000 I0.498924 J-0.581510
G03 X121.977259 Y166.679255 Z0.875000 I0.707723 J-0.000000
G03 X122.825063 Y166.396431 Z0.875000 I0.847803 J1.129291
G02 X123.782001 Y166.222747 Z0.875000 I-0.000000 J-2.723038
G02 X123.955687 Y165.972032 Z0.875000 I-0.094109 J-0.250714
G02 X123.769636 Y165.733686 Z0.875000 I-0.245696 J0.000000
G02 X122.259750 Y165.547634 Z0.875000 I-1.509885 J6.033636
G01 X120.563817 Y165.547634 Z0.875000
G01 X120.563817 Y168.376964 Z0.875000
G01 X120.563817 Y168.376964 Z0.875000
G00 Z6.000000

(End cutting path id: path11718)


(Start cutting path id: path11716)
(Change tool to Default tool)

G00 Z6.000000
G00 X125.147409 Y168.589164

G01 Z0.875000 F100.0(Penetrate)
G02 X125.476753 Y171.408923 Z0.875000 I15.804992 J-0.416887 F400.000000
G02 X125.800712 Y171.712852 Z0.875000 I0.378892 J-0.079243
G02 X126.276627 Y171.564050 Z0.875000 I0.082122 J-0.572811
G02 X127.779304 Y169.875254 Z0.875000 I-8.093237 J-8.714233
G01 X129.184817 Y167.955494 Z0.875000
G01 X129.326147 Y169.793092 Z0.875000
G02 X129.687251 Y171.393362 Z0.875000 I5.653193 J-0.434778
G02 X130.032785 Y171.630690 Z0.875000 I0.345534 J-0.132874
G02 X130.349351 Y171.374775 Z0.875000 I0.000000 J-0.323753
G02 X130.684553 Y168.589164 Z0.875000 I-15.038566 J-3.222614
G01 X130.771008 Y165.547634 Z0.875000
G01 X130.058051 Y165.547634 Z0.875000
G02 X129.457856 Y165.774282 Z0.875000 I0.000000 J0.908024
G02 X127.922342 Y167.428892 Z0.875000 I7.430204 J8.435192
G01 X126.499589 Y169.310150 Z0.875000
G01 X126.499589 Y167.428892 Z0.875000
G02 X126.207345 Y165.839873 Z0.875000 I-4.466110 J-0.000000
G02 X125.783387 Y165.547634 Z0.875000 I-0.423958 J0.161404
G01 X125.067184 Y165.547634 Z0.875000
G01 X125.147409 Y168.589164 Z0.875000
G01 X125.147409 Y168.589164 Z0.875000
G00 Z6.000000

(End cutting path id: path11716)


(Start cutting path id: path2990)
(Change tool to Default tool)

G00 Z6.000000
G00 X125.374282 Y171.547177

G01 Z0.875000 F100.0(Penetrate)
G01 X126.284621 Y171.547177 Z0.875000 F400.000000
G01 X128.839937 Y168.239535 Z0.875000
G02 X129.274676 Y167.659166 Z0.875000 I-16.977830 J-13.170680
G02 X129.556887 Y167.249011 Z0.875000 I-8.633322 J-6.242399
G01 X129.575754 Y167.249011 Z0.875000
G02 X129.562803 Y167.708978 Z0.875000 I37.152866 J1.276243
G02 X129.556887 Y168.247789 Z0.875000 I24.532559 J0.538811
G01 X129.556887 Y171.547177 Z0.875000
G01 X130.486093 Y171.547177 Z0.875000
G01 X130.486093 Y165.718416 Z0.875000
G01 X129.664194 Y165.718416 Z0.875000
G01 X127.009826 Y169.159307 Z0.875000
G02 X126.591135 Y169.716154 Z0.875000 I13.522077 J10.603026
G03 X126.292875 Y170.123888 Z0.875000 I-28.787559 J-20.745265
G01 X126.275187 Y170.123888 Z0.875000
G02 X126.293907 Y169.745166 Z0.875000 I-9.794578 J-0.673939
G02 X126.302309 Y169.186428 Z0.875000 I-18.573020 J-0.558737
G01 X126.302309 Y165.718416 Z0.875000
G01 X125.374282 Y165.718416 Z0.875000
G01 X125.374282 Y171.547177 Z0.875000
G01 X125.374282 Y171.547177 Z0.875000
G00 Z6.000000

(End cutting path id: path2990)


(Start cutting path id: path11714)
(Change tool to Default tool)

G00 Z6.000000
G00 X132.768073 Y166.042768

G01 Z0.875000 F100.0(Penetrate)
G02 X131.907495 Y167.432490 Z0.875000 I1.754558 J2.047815 F400.000000
G02 X131.919575 Y169.414505 Z0.875000 I3.845095 J0.967609
G02 X132.290724 Y170.225671 Z0.875000 I2.542814 J-0.672972
G02 X133.040915 Y171.055306 Z0.875000 I3.414339 J-2.333393
G02 X133.999264 Y171.574449 Z0.875000 I1.736829 J-2.062089
G02 X135.229491 Y171.715364 Z0.875000 I1.004808 J-3.331674
G02 X136.273531 Y171.386704 Z0.875000 I-0.149051 J-2.296093
G02 X136.533870 Y170.924362 Z0.875000 I-0.280373 J-0.462342
G02 X136.282109 Y170.492433 Z0.875000 I-0.496396 J0.000000
G02 X135.451562 Y170.311365 Z0.875000 I-0.707244 J1.248711
G03 X133.898356 Y169.828001 Z0.875000 I-0.184833 J-2.143232
G03 X133.283326 Y168.523900 Z0.875000 I1.075083 J-1.304102
G03 X134.316516 Y166.428123 Z0.875000 I2.642186 J0.000000
G03 X135.685901 Y166.679366 Z0.875000 I0.571229 J0.744047
G02 X136.273093 Y166.865007 Z0.875000 I0.401269 J-0.247754
G02 X136.675196 Y166.254967 Z0.875000 I-0.261702 J-0.610040
G02 X136.393554 Y165.829278 Z0.875000 I-0.462527 J0.000000
G02 X135.010575 Y165.547634 Z0.875000 I-1.382979 J3.254655
G02 X133.410501 Y165.722176 Z0.875000 I0.000000 J7.421426
G02 X132.768073 Y166.042768 Z0.875000 I0.318378 J1.441962
G01 X132.768073 Y166.042768 Z0.875000
G00 Z6.000000

(End cutting path id: path11714)


(Start cutting path id: path2994)
(Change tool to Default tool)

G00 Z6.000000
G00 X136.686890 Y166.072764

G01 Z0.875000 F100.0(Penetrate)
G02 X135.733982 Y165.717696 Z0.875000 I-1.681164 J3.055589 F400.000000
G02 X134.908664 Y165.630566 Z0.875000 I-0.825318 J3.865231
G02 X132.802357 Y166.553668 Z0.875000 I-0.000000 J2.864603
G02 X132.016098 Y168.566761 Z0.875000 I2.183976 J2.013093
G02 X132.841206 Y170.649174 Z0.875000 I3.040358 J-0.000000
G02 X135.041913 Y171.600830 Z0.875000 I2.200707 J-2.068741
G02 X135.998343 Y171.494247 Z0.875000 I0.000000 J-4.344588
G02 X136.535953 Y171.308390 Z0.875000 I-0.565803 J-2.507112
G01 X136.535953 Y170.441681 Z0.875000
G03 X135.877970 Y170.702667 Z0.875000 I-1.514171 J-2.857513
G03 X135.058421 Y170.813128 Z0.875000 I-0.819548 J-2.985045
G03 X133.552305 Y170.107246 Z0.875000 I0.000000 J-1.959717
G03 X133.007801 Y168.602137 Z0.875000 I1.807949 J-1.505109
G03 X133.598017 Y167.052362 Z0.875000 I2.329790 J-0.000000
G03 X135.014791 Y166.417089 Z0.875000 I1.416774 J1.262195
G03 X135.813824 Y166.539259 Z0.875000 I-0.000000 J2.674044
G03 X136.429825 Y166.806223 Z0.875000 I-0.952502 J3.042007
G01 X136.686890 Y166.072764 Z0.875000
G01 X136.686890 Y166.072764 Z0.875000
G00 Z6.000000

(End cutting path id: path2994)


(Start cutting path id: path11712)
(Change tool to Default tool)

G00 Z6.000000
G00 X137.866922 Y168.589164

G01 Z0.875000 F100.0(Penetrate)
G01 X137.947147 Y171.630690 Z0.875000 F400.000000
G01 X139.324511 Y171.718348 Z0.875000
G02 X141.021643 Y171.430967 Z0.875000 I0.238443 J-3.746776
G02 X141.199934 Y170.927558 Z0.875000 I-0.140416 J-0.333008
G02 X140.791469 Y170.530485 Z0.875000 I-0.827131 J0.442232
G02 X140.057121 Y170.357494 Z0.875000 I-0.734347 J1.472160
G03 X139.415453 Y170.161141 Z0.875000 I-0.000000 J-1.146640
G03 X139.219098 Y169.791628 Z0.875000 I0.249509 J-0.369513
G03 X139.416296 Y169.422959 Z0.875000 I0.443218 J0.000000
G03 X140.067066 Y169.225762 Z0.875000 I0.650770 J0.975202
G02 X140.717836 Y169.028565 Z0.875000 I-0.000000 J-1.172399
G02 X140.915035 Y168.659896 Z0.875000 I-0.246019 J-0.368669
G02 X140.717836 Y168.291227 Z0.875000 I-0.443218 J0.000000
G02 X140.067066 Y168.094030 Z0.875000 I-0.650770 J0.975202
G03 X139.467584 Y167.845545 Z0.875000 I0.000000 J-0.847383
G03 X139.219098 Y167.245232 Z0.875000 I0.600898 J-0.600313
G03 X139.486385 Y166.663718 Z0.875000 I0.766218 J-0.000000
G03 X140.208392 Y166.396431 Z0.875000 I0.722007 J0.841515
G02 X141.029084 Y166.227828 Z0.875000 I0.000000 J-2.081698
G02 X141.197691 Y165.972032 Z0.875000 I-0.109733 J-0.255795
G02 X141.011497 Y165.733828 Z0.875000 I-0.245469 J0.000000
G02 X139.492194 Y165.547634 Z0.875000 I-1.519303 J6.105498
G01 X137.786696 Y165.547634 Z0.875000
G01 X137.866922 Y168.589164 Z0.875000
G01 X137.866922 Y168.589164 Z0.875000
G00 Z6.000000

(End cutting path id: path11712)


(Start cutting path id: path2998)
(Change tool to Default tool)

G00 Z6.000000
G00 X138.066430 Y171.547177

G01 Z0.875000 F100.0(Penetrate)
G01 X141.153563 Y171.547177 Z0.875000 F400.000000
G01 X140.896498 Y170.786596 Z0.875000
G01 X138.995636 Y170.786596 Z0.875000
G01 X138.995636 Y169.079121 Z0.875000
G01 X140.879989 Y169.079121 Z0.875000
G01 X140.879989 Y168.319720 Z0.875000
G01 X138.995636 Y168.319720 Z0.875000
G01 X138.995636 Y166.478996 Z0.875000
G01 X141.179505 Y166.478996 Z0.875000
G01 X141.179505 Y165.718416 Z0.875000
G01 X138.066430 Y165.718416 Z0.875000
G01 X138.066430 Y171.547177 Z0.875000
G01 X138.066430 Y171.547177 Z0.875000
G00 Z6.000000

(End cutting path id: path2998)


(Start cutting path id: path11710)
(Change tool to Default tool)

G00 Z6.000000
G00 X145.192165 Y166.215227

G01 Z0.875000 F100.0(Penetrate)
G02 X144.616316 Y169.769762 Z0.875000 I2.348811 J2.204430 F400.000000
G02 X147.755399 Y171.767826 Z0.875000 I3.123105 J-1.441713
G02 X149.085511 Y171.383737 Z0.875000 I-0.011779 J-2.535942
G02 X149.351853 Y170.772283 Z0.875000 I-0.311414 J-0.499383
G02 X149.086251 Y170.463734 Z0.875000 I-0.402781 J0.078127
G02 X147.852360 Y170.240319 Z0.875000 I-1.301368 J3.668256
G03 X146.597239 Y169.971427 Z0.875000 I0.057792 J-3.333507
G03 X146.024432 Y169.457219 Z0.875000 I0.472154 J-1.102108
G03 X145.875530 Y167.966153 Z0.875000 I1.627164 J-0.915461
G03 X146.921711 Y166.688612 Z0.875000 I2.156638 J0.698945
G03 X147.686725 Y166.472491 Z0.875000 I0.830760 J1.478639
G03 X148.298476 Y166.635202 Z0.875000 I0.041689 J1.074629
G02 X148.855012 Y166.794602 Z0.875000 I0.555700 J-0.888937
G02 X149.145337 Y166.634496 Z0.875000 I-0.000274 J-0.343777
G02 X149.021152 Y166.080991 Z0.875000 I-0.339250 J-0.214569
G02 X147.524817 Y165.606223 Z0.875000 I-1.647086 J2.595753
G02 X145.940769 Y165.770135 Z0.875000 I-0.257594 J5.246682
G02 X145.192165 Y166.215012 Z0.875000 I0.396573 J1.519606
G01 X145.192165 Y166.215227 Z0.875000
G00 Z6.000000

(End cutting path id: path11710)


(Start cutting path id: path3002)
(Change tool to Default tool)

G00 Z6.000000
G00 X149.211592 Y166.072764

G01 Z0.875000 F100.0(Penetrate)
G02 X148.258684 Y165.717696 Z0.875000 I-1.681164 J3.055589 F400.000000
G02 X147.433366 Y165.630566 Z0.875000 I-0.825318 J3.865231
G02 X145.326610 Y166.554148 Z0.875000 I0.000000 J2.864619
G02 X144.540800 Y168.566761 Z0.875000 I2.184443 J2.012613
G02 X145.365433 Y170.648670 Z0.875000 I3.040361 J0.000000
G02 X147.566615 Y171.600830 Z0.875000 I2.201182 J-2.068240
G02 X148.521950 Y171.494274 Z0.875000 I0.000000 J-4.335847
G02 X149.060655 Y171.308390 Z0.875000 I-0.571330 J-2.529291
G01 X149.060655 Y170.441681 Z0.875000
G03 X148.402672 Y170.702667 Z0.875000 I-1.514171 J-2.857513
G03 X147.583123 Y170.813128 Z0.875000 I-0.819548 J-2.985045
G03 X146.077007 Y170.107246 Z0.875000 I-0.000000 J-1.959717
G03 X145.532503 Y168.602137 Z0.875000 I1.807949 J-1.505109
G03 X146.122719 Y167.052362 Z0.875000 I2.329790 J-0.000000
G03 X147.539493 Y166.417089 Z0.875000 I1.416774 J1.262195
G03 X148.338526 Y166.539259 Z0.875000 I-0.000000 J2.674044
G03 X148.954527 Y166.806223 Z0.875000 I-0.952502 J3.042007
G01 X149.211592 Y166.072764 Z0.875000
G01 X149.211592 Y166.072764 Z0.875000
G00 Z6.000000

(End cutting path id: path3002)


(Start cutting path id: path11708)
(Change tool to Default tool)

G00 Z6.000000
G00 X150.525329 Y168.659896

G01 Z0.875000 F100.0(Penetrate)
G01 X150.525329 Y171.772158 Z0.875000 F400.000000
G01 X152.063257 Y171.772158 Z0.875000
G02 X153.531392 Y171.647053 Z0.875000 I-0.000000 J-8.677037
G02 X153.783525 Y171.476833 Z0.875000 I-0.062581 J-0.364539
G02 X153.677365 Y170.802230 Z0.875000 I-0.446126 J-0.275449
G02 X152.469311 Y170.357494 Z0.875000 I-1.208054 J1.418374
G03 X151.846248 Y170.167199 Z0.875000 I-0.000000 J-1.115161
G03 X151.655954 Y169.809553 Z0.875000 I0.240939 J-0.357646
G03 X151.850238 Y169.438006 Z0.875000 I0.452411 J0.000000
G03 X152.572269 Y169.172954 Z0.875000 I0.868653 J1.250335
G02 X153.343674 Y168.925622 Z0.875000 I-0.183840 J-1.900014
G02 X153.582290 Y168.589164 Z0.875000 I-0.247663 J-0.428484
G02 X153.439791 Y168.289726 Z0.875000 I-0.276068 J-0.052248
G02 X152.665974 Y168.094030 Z0.875000 I-0.773817 J1.432055
G03 X151.925704 Y167.824280 Z0.875000 I0.000000 J-1.150630
G03 X151.655954 Y167.245232 Z0.875000 I0.486617 J-0.579048
G03 X151.938775 Y166.679255 Z0.875000 I0.707723 J-0.000000
G03 X152.786578 Y166.396431 Z0.875000 I0.847803 J1.129291
G02 X153.743514 Y166.222746 Z0.875000 I-0.000000 J-2.723016
G02 X153.917199 Y165.972032 Z0.875000 I-0.094110 J-0.250714
G02 X153.731148 Y165.733686 Z0.875000 I-0.245696 J0.000000
G02 X152.221266 Y165.547634 Z0.875000 I-1.509882 J6.033600
G01 X150.525329 Y165.547634 Z0.875000
G01 X150.525329 Y168.659896 Z0.875000
G01 X150.525329 Y168.659896 Z0.875000
G00 Z6.000000

(End cutting path id: path11708)


(Start cutting path id: path3006)
(Change tool to Default tool)

G00 Z6.000000
G00 X150.591014 Y171.547177

G01 Z0.875000 F100.0(Penetrate)
G01 X153.676967 Y171.547177 Z0.875000 F400.000000
G01 X153.421082 Y170.786596 Z0.875000
G01 X151.519040 Y170.786596 Z0.875000
G01 X151.519040 Y169.079121 Z0.875000
G01 X153.402215 Y169.079121 Z0.875000
G01 X153.402215 Y168.319720 Z0.875000
G01 X151.519040 Y168.319720 Z0.875000
G01 X151.519040 Y166.478996 Z0.875000
G01 X153.704089 Y166.478996 Z0.875000
G01 X153.704089 Y165.718416 Z0.875000
G01 X150.591014 Y165.718416 Z0.875000
G01 X150.591014 Y171.547177 Z0.875000
G01 X150.591014 Y171.547177 Z0.875000
G00 Z6.000000

(End cutting path id: path3006)


(Start cutting path id: path3010)
(Change tool to Default tool)

G00 Z6.000000
G00 X155.279140 Y171.547177

G01 Z0.875000 F100.0(Penetrate)
G01 X156.189478 Y171.547177 Z0.875000 F400.000000
G01 X158.744794 Y168.239535 Z0.875000
G02 X159.179534 Y167.659166 Z0.875000 I-16.977830 J-13.170680
G02 X159.461744 Y167.249011 Z0.875000 I-8.633322 J-6.242399
G01 X159.480611 Y167.249011 Z0.875000
G02 X159.467660 Y167.708978 Z0.875000 I37.152866 J1.276243
G02 X159.461744 Y168.247789 Z0.875000 I24.532559 J0.538811
G01 X159.461744 Y171.547177 Z0.875000
G01 X160.390950 Y171.547177 Z0.875000
G01 X160.390950 Y165.718416 Z0.875000
G01 X159.569051 Y165.718416 Z0.875000
G01 X156.914683 Y169.159307 Z0.875000
G02 X156.495992 Y169.716154 Z0.875000 I13.522077 J10.603026
G03 X156.197732 Y170.123888 Z0.875000 I-28.787559 J-20.745265
G01 X156.180045 Y170.123888 Z0.875000
G02 X156.198764 Y169.745166 Z0.875000 I-9.794578 J-0.673939
G02 X156.207166 Y169.186428 Z0.875000 I-18.573020 J-0.558737
G01 X156.207166 Y165.718416 Z0.875000
G01 X155.279140 Y165.718416 Z0.875000
G01 X155.279140 Y171.547177 Z0.875000
G01 X155.279140 Y171.547177 Z0.875000
G00 Z6.000000

(End cutting path id: path3010)


(Start cutting path id: path11706)
(Change tool to Default tool)

G00 Z6.000000
G00 X155.047824 Y168.501731

G01 Z0.875000 F100.0(Penetrate)
G02 X155.178784 Y171.382852 Z0.875000 I31.757853 J0.000000 F400.000000
G02 X155.333009 Y171.632257 Z0.875000 I0.326937 J-0.029783
G02 X156.028031 Y171.600413 Z0.875000 I0.324228 J-0.524096
G02 X157.874382 Y169.717940 Z0.875000 I-5.325712 J-7.070216
G01 X159.146333 Y167.959466 Z0.875000
G01 X159.287659 Y169.795078 Z0.875000
G02 X159.648702 Y171.393410 Z0.875000 I5.641191 J-0.434331
G02 X159.994301 Y171.630690 Z0.875000 I0.345599 J-0.133043
G02 X160.310110 Y171.374548 Z0.875000 I0.000000 J-0.322758
G02 X160.640040 Y168.569426 Z0.875000 I-15.237210 J-3.214117
G01 X160.720466 Y165.508161 Z0.875000
G01 X159.956617 Y165.598631 Z0.875000
G02 X159.306515 Y165.888840 Z0.875000 I0.140774 J1.188610
G02 X157.826933 Y167.473426 Z0.875000 I7.333813 J8.330888
G01 X156.461101 Y169.257748 Z0.875000
G01 X156.461101 Y167.402691 Z0.875000
G02 X156.172802 Y165.835942 Z0.875000 I-4.401360 J-0.000000
G02 X155.754462 Y165.547634 Z0.875000 I-0.418339 J0.159354
G01 X155.047824 Y165.547634 Z0.875000
G01 X155.047824 Y168.501731 Z0.875000
G01 X155.047824 Y168.501731 Z0.875000
G00 Z6.000000

(End cutting path id: path11706)


(Start cutting path id: path11704)
(Change tool to Default tool)

G00 Z6.000000
G00 X162.962185 Y167.952562

G01 Z0.875000 F100.0(Penetrate)
G03 X162.670643 Y170.065947 Z0.875000 I-7.805730 J-0.000000 F400.000000
G03 X162.285787 Y170.357494 Z0.875000 I-0.384857 J-0.108242
G02 X161.455698 Y170.774123 Z0.875000 I-0.000000 J1.035248
G02 X161.423344 Y171.514757 Z0.875000 I0.528855 J0.394126
G02 X163.471804 Y172.679884 Z0.875000 I2.089313 J-1.290005
G02 X166.155674 Y171.593490 Z0.875000 I0.061668 J-3.706021
G02 X166.179598 Y170.859396 Z0.875000 I-0.380197 J-0.379827
G02 X165.072160 Y170.357494 Z0.875000 I-1.107438 J0.970820
G03 X164.674372 Y170.058587 Z0.875000 I0.000000 J-0.414143
G03 X164.375466 Y167.952562 Z0.875000 I7.269844 J-2.106025
G02 X164.072974 Y165.850116 Z0.875000 I-7.457685 J0.000000
G02 X163.668824 Y165.547634 Z0.875000 I-0.404150 J0.118753
G02 X163.264672 Y165.850119 Z0.875000 I0.000000 J0.421237
G02 X162.962185 Y167.952562 Z0.875000 I7.155306 J2.102443
G01 X162.962185 Y167.952562 Z0.875000
G00 Z6.000000

(End cutting path id: path11704)


(Start cutting path id: path3014)
(Change tool to Default tool)

G00 Z6.000000
G00 X163.292005 Y170.786950

G01 Z0.875000 F100.0(Penetrate)
G01 X161.602219 Y170.786950 Z0.875000 F400.000000
G01 X161.602219 Y171.547530 Z0.875000
G01 X166.059576 Y171.547530 Z0.875000
G01 X165.813124 Y170.786950 Z0.875000
G01 X164.221211 Y170.786950 Z0.875000
G01 X164.221211 Y165.718769 Z0.875000
G01 X163.292005 Y165.718769 Z0.875000
G01 X163.292005 Y170.786950 Z0.875000
G01 X163.292005 Y170.786950 Z0.875000
G00 Z6.000000

(End cutting path id: path3014)


(Start cutting path id: path3018)
(Change tool to Default tool)

G00 Z6.000000
G00 X167.157171 Y171.547412

G01 Z0.875000 F100.0(Penetrate)
G01 X168.617014 Y171.547412 Z0.875000 F400.000000
G02 X169.422333 Y171.457994 Z0.875000 I-0.000000 J-3.671142
G02 X169.881111 Y171.282094 Z0.875000 I-0.373072 J-1.659271
G02 X170.501025 Y170.669066 Z0.875000 I-0.642787 J-1.269960
G02 X170.686501 Y169.910690 Z0.875000 I-1.457687 J-0.758377
G02 X170.342416 Y168.939208 Z0.875000 I-1.543471 J-0.000000
G02 X169.536786 Y168.389528 Z0.875000 I-1.319632 J1.068878
G01 X169.536786 Y168.371840 Z0.875000
G02 X169.756785 Y168.180679 Z0.875000 I-0.327489 J-0.599065
G02 X170.252558 Y167.434380 Z0.875000 I-6.661438 J-4.963075
G01 X171.252515 Y165.718652 Z0.875000
G01 X170.181806 Y165.718652 Z0.875000
G01 X169.289155 Y167.266935 Z0.875000
G03 X168.822798 Y167.939551 Z0.875000 I-3.793051 J-2.131926
G03 X168.634702 Y168.053458 Z0.875000 I-0.262605 J-0.221387
G01 X168.086376 Y168.053458 Z0.875000
G01 X168.086376 Y165.718652 Z0.875000
G01 X167.157171 Y165.718652 Z0.875000
G01 X167.157171 Y171.547412 Z0.875000
G01 X167.157171 Y171.547412 Z0.875000
G00 Z6.000000

(End cutting path id: path3018)


(Start cutting path id: path11702)
(Change tool to Default tool)

G00 Z6.000000
G00 X168.213265 Y171.767501

G01 Z0.875000 F100.0(Penetrate)
G03 X167.979734 Y171.752322 Z0.875000 I0.123093 J-3.697820 F400.000000
G03 X167.737015 Y171.723404 Z0.875000 I0.534413 J-5.518568
G03 X167.350256 Y171.373085 Z0.875000 I0.065206 J-0.460643
G03 X166.978543 Y168.592501 Z0.875000 I12.816256 J-3.128438
G01 X166.899168 Y165.549793 Z0.875000
G01 X167.613543 Y165.549793 Z0.875000
G03 X168.075720 Y165.805638 Z0.875000 I-0.000000 J0.545378
G03 X168.336737 Y166.713959 Z0.875000 I-1.449941 J0.908321
G02 X168.509507 Y167.502937 Z0.875000 I1.887872 J0.000000
G02 X168.724793 Y167.551807 Z0.875000 I0.126387 J-0.058140
G02 X169.054072 Y167.178300 Z0.875000 I-1.030194 J-1.240104
G02 X169.465626 Y166.387640 Z0.875000 I-4.296927 J-2.739078
G03 X169.962481 Y165.768469 Z0.875000 I1.309543 J0.541910
G03 X170.656251 Y165.549793 Z0.875000 I0.693770 J0.991183
G01 X171.494098 Y165.549793 Z0.875000
G01 X170.753265 Y166.863890 Z0.875000
G02 X170.298221 Y168.148542 Z0.875000 I3.541167 J1.977256
G02 X170.444584 Y168.654237 Z0.875000 I0.592180 J0.102634
G03 X170.791932 Y169.491406 Z0.875000 I-1.002951 J0.906774
G03 X170.550418 Y170.762084 Z0.875000 I-2.724546 J0.140445
G03 X169.823058 Y171.469502 Z0.875000 I-1.269856 J-0.578013
G03 X168.213265 Y171.767501 Z0.875000 I-1.482937 J-3.513778
G01 X168.213265 Y171.767501 Z0.875000
G00 Z6.000000

(End cutting path id: path11702)


(Start cutting path id: path11702)
(Change tool to Default tool)

G00 Z6.000000
G00 X168.918820 Y170.356390

G01 Z0.875000 F100.0(Penetrate)
G02 X169.292934 Y170.173153 Z0.875000 I-0.000000 J-0.473532 F400.000000
G02 X169.412709 Y169.721390 Z0.875000 I-0.473272 J-0.367237
G02 X168.833113 Y169.175665 Z0.875000 I-0.631459 J0.090005
G02 X168.336737 Y169.633195 Z0.875000 I-0.037325 J0.457530
G02 X168.525487 Y170.168211 Z0.875000 I0.852630 J0.000000
G02 X168.918820 Y170.356390 Z0.875000 I0.393333 J-0.316984
G01 X168.918820 Y170.356390 Z0.875000
G00 Z6.000000

(End cutting path id: path11702)


(Start cutting path id: path3018)
(Change tool to Default tool)

G00 Z6.000000
G00 X168.581638 Y168.823472

G01 Z0.875000 F100.0(Penetrate)
G03 X168.988961 Y168.871155 Z0.875000 I-0.000000 J1.763585 F400.000000
G03 X169.279722 Y168.982663 Z0.875000 I-0.270907 J1.141234
G03 X169.582625 Y169.291022 Z0.875000 I-0.437940 J0.733143
G03 X169.721920 Y169.813996 Z0.875000 I-0.912089 J0.522974
G03 X169.621134 Y170.268394 Z0.875000 I-1.074732 J0.000000
G03 X169.342219 Y170.584010 Z0.875000 I-0.673717 J-0.314325
G03 X169.092944 Y170.712752 Z0.875000 I-0.469925 J-0.604189
G03 X168.589893 Y170.786832 Z0.875000 I-0.503051 J-1.670985
G01 X168.086376 Y170.786832 Z0.875000
G01 X168.086376 Y168.823472 Z0.875000
G01 X168.581638 Y168.823472 Z0.875000
G01 X168.581638 Y168.823472 Z0.875000
G00 Z6.000000

(End cutting path id: path3018)


(Start cutting path id: path11698)
(Change tool to Default tool)

G00 Z6.000000
G00 X172.350928 Y168.589164

G01 Z0.875000 F100.0(Penetrate)
G01 X172.431154 Y171.630690 Z0.875000 F400.000000
G01 X173.808518 Y171.718348 Z0.875000
G02 X175.505650 Y171.430967 Z0.875000 I0.238443 J-3.746776
G02 X175.683941 Y170.927558 Z0.875000 I-0.140416 J-0.333008
G02 X175.275476 Y170.530485 Z0.875000 I-0.827131 J0.442232
G02 X174.541128 Y170.357494 Z0.875000 I-0.734347 J1.472160
G03 X173.899459 Y170.161141 Z0.875000 I-0.000000 J-1.146640
G03 X173.703104 Y169.791628 Z0.875000 I0.249509 J-0.369513
G03 X173.900303 Y169.422959 Z0.875000 I0.443218 J0.000000
G03 X174.551073 Y169.225762 Z0.875000 I0.650770 J0.975202
G02 X175.201843 Y169.028565 Z0.875000 I-0.000000 J-1.172399
G02 X175.399041 Y168.659896 Z0.875000 I-0.246019 J-0.368669
G02 X175.201843 Y168.291227 Z0.875000 I-0.443218 J0.000000
G02 X174.551073 Y168.094030 Z0.875000 I-0.650770 J0.975202
G03 X173.951591 Y167.845545 Z0.875000 I0.000000 J-0.847383
G03 X173.703104 Y167.245232 Z0.875000 I0.600898 J-0.600313
G03 X173.970392 Y166.663719 Z0.875000 I0.766216 J-0.000000
G03 X174.692403 Y166.396431 Z0.875000 I0.722010 J0.841521
G02 X175.513091 Y166.227828 Z0.875000 I0.000000 J-2.081685
G02 X175.681697 Y165.972032 Z0.875000 I-0.109733 J-0.255796
G02 X175.495504 Y165.733828 Z0.875000 I-0.245469 J0.000000
G02 X173.976200 Y165.547634 Z0.875000 I-1.519303 J6.105498
G01 X172.270703 Y165.547634 Z0.875000
G01 X172.350928 Y168.589164 Z0.875000
G01 X172.350928 Y168.589164 Z0.875000
G00 Z6.000000

(End cutting path id: path11698)


(Start cutting path id: path3022)
(Change tool to Default tool)

G00 Z6.000000
G00 X172.570855 Y171.547177

G01 Z0.875000 F100.0(Penetrate)
G01 X175.656808 Y171.547177 Z0.875000 F400.000000
G01 X175.400923 Y170.786596 Z0.875000
G01 X173.500061 Y170.786596 Z0.875000
G01 X173.500061 Y169.079121 Z0.875000
G01 X175.383235 Y169.079121 Z0.875000
G01 X175.383235 Y168.319720 Z0.875000
G01 X173.500061 Y168.319720 Z0.875000
G01 X173.500061 Y166.478996 Z0.875000
G01 X175.683930 Y166.478996 Z0.875000
G01 X175.683930 Y165.718416 Z0.875000
G01 X172.570855 Y165.718416 Z0.875000
G01 X172.570855 Y171.547177 Z0.875000
G01 X172.570855 Y171.547177 Z0.875000
G00 Z6.000000

(End cutting path id: path3022)


(Start cutting path id: path11688)
(Change tool to Default tool)

G00 Z6.000000
G00 X179.638876 Y176.839101

G01 Z0.875000 F100.0(Penetrate)
G01 X178.649582 Y177.681753 Z0.875000 F400.000000
G01 X179.419061 Y179.098530 Z0.875000
G01 X180.188536 Y180.515307 Z0.875000
G01 X178.571092 Y180.599924 Z0.875000
G01 X176.953648 Y180.684545 Z0.875000
G01 X176.953648 Y182.240676 Z0.875000
G02 X177.475389 Y183.336272 Z0.875000 I1.411184 J0.000000
G02 X179.007665 Y183.908197 Z0.875000 I1.615724 J-1.990212
G01 X179.931058 Y183.938289 Z0.875000
G01 X179.216238 Y185.350299 Z0.875000
G01 X178.501415 Y186.762317 Z0.875000
G01 X179.824423 Y187.586586 Z0.875000
G02 X181.159938 Y188.279961 Z0.875000 I5.086288 J-8.163874
G02 X181.474358 Y188.285283 Z0.875000 I0.163803 J-0.386811
G02 X181.726949 Y188.081687 Z0.875000 I-0.189681 J-0.493813
G02 X182.301576 Y187.024657 Z0.875000 I-6.082547 J-3.991325
G03 X182.882128 Y186.069822 Z0.875000 I3.909772 J1.723286
G03 X183.128297 Y185.996941 Z0.875000 I0.175724 J0.141357
G03 X183.391547 Y186.181432 Z0.875000 I-0.173478 J0.527597
G03 X184.084458 Y187.214010 Z0.875000 I-6.535163 J5.134199
G02 X185.073759 Y187.874925 Z0.875000 I1.152220 J-0.653837
G02 X186.595640 Y187.525188 Z0.875000 I0.280653 J-2.264845
G02 X187.348973 Y186.524507 Z0.875000 I-0.992153 J-1.530814
G02 X187.162688 Y185.658161 Z0.875000 I-0.873657 J-0.265344
G03 X186.830338 Y185.179160 Z0.875000 I1.965505 J-1.718543
G03 X186.578329 Y184.574887 Z0.875000 I2.898007 J-1.563284
G03 X186.772513 Y184.170744 Z0.875000 I0.316875 J-0.096469
G03 X188.189215 Y183.932510 Z0.875000 I1.259519 J3.158498
G01 X189.249175 Y183.981560 Z0.875000
G01 X189.249175 Y182.262326 Z0.875000
G01 X189.249175 Y180.543092 Z0.875000
G01 X187.678262 Y180.543092 Z0.875000
G01 X186.107350 Y180.543092 Z0.875000
G01 X186.886897 Y179.154953 Z0.875000
G02 X187.388724 Y177.791906 Z0.875000 I-4.001301 J-2.247041
G02 X187.256523 Y177.272062 Z0.875000 I-0.614121 J-0.120556
G02 X185.691087 Y176.096673 Z0.875000 I-3.238922 J2.683590
G02 X184.710202 Y176.167829 Z0.875000 I-0.422370 J0.973966
G02 X184.487444 Y176.384897 Z0.875000 I0.377497 J0.610224
G02 X183.863838 Y177.460022 Z0.875000 I9.585350 J6.278216
G03 X183.103608 Y177.845453 Z0.875000 I-0.644305 J-0.328378
G03 X182.244398 Y177.197019 Z0.875000 I0.184890 J-1.138456
G02 X181.155128 Y176.395704 Z0.875000 I-1.281990 J0.601668
G02 X179.638876 Y176.839116 Z0.875000 I-0.263017 J1.914738
G01 X179.638876 Y176.839101 Z0.875000
G00 Z6.000000

(End cutting path id: path11688)


(Start cutting path id: path11690)
(Change tool to Default tool)

G00 Z6.000000
G00 X147.514780 Y176.227420

G01 Z0.875000 F100.0(Penetrate)
G01 X143.797592 Y176.315117 Z0.875000 F400.000000
G01 X143.612349 Y179.773031 Z0.875000
G02 X143.512348 Y183.233033 Z0.875000 I70.184280 J3.759907
G02 X143.513684 Y202.894778 Z0.875000 I2267.809085 J9.676796
G01 X143.600263 Y222.558615 Z0.875000
G01 X148.122757 Y222.558615 Z0.875000
G01 X152.645248 Y222.558615 Z0.875000
G01 X152.671354 Y213.221829 Z0.875000
G03 X152.711899 Y203.885185 Z0.875000 I3018.644566 J8.440101
G03 X152.742015 Y201.222534 Z0.875000 I245.582125 J1.446248
G01 X152.786564 Y198.560024 Z0.875000
G01 X153.846524 Y199.775742 Z0.875000
G02 X154.913007 Y200.985617 Z0.875000 I111.861026 J-97.528570
G02 X155.613122 Y201.758047 Z0.875000 I46.298246 J-41.260306
G03 X156.315261 Y202.528722 Z0.875000 I-65.716410 J60.577427
G03 X159.527255 Y206.104900 Z0.875000 I-1411.475748 J1270.966926
G02 X162.762972 Y209.636708 Z0.875000 I160.143028 J-143.469227
G02 X162.919122 Y209.725335 Z0.875000 I0.220450 J-0.206532
G02 X169.097497 Y210.411726 Z0.875000 I6.381326 J-29.290175
G02 X174.798233 Y209.805779 Z0.875000 I0.172611 J-25.495268
G02 X174.912615 Y209.458430 Z0.875000 I-0.046131 J-0.207699
G02 X167.141089 Y201.004630 Z0.875000 I-158.267042 J137.694857
G03 X163.368491 Y196.942323 Z0.875000 I89.147070 J-86.572342
G03 X163.244827 Y196.616812 Z0.875000 I0.366578 J-0.325511
G03 X163.334838 Y196.268496 Z0.875000 I0.718946 J0.000000
G03 X164.446113 Y194.447715 Z0.875000 I22.111271 J12.245636
G02 X165.638839 Y192.648841 Z0.875000 I-190.613603 J-127.679291
G02 X165.930059 Y192.186611 Z0.875000 I-12.296070 J-8.069778
G03 X166.220645 Y191.723964 Z0.875000 I13.596609 J8.217376
G03 X167.343336 Y190.020121 Z0.875000 I185.703913 J121.141695
G02 X168.444261 Y188.303833 Z0.875000 I-50.296781 J-33.474469
G02 X168.888041 Y187.520144 Z0.875000 I-10.024785 J-6.194225
G03 X169.350429 Y186.752883 Z0.875000 I6.095405 J3.150426
G03 X169.877339 Y186.097701 Z0.875000 I4.961385 J3.450576
G02 X170.416014 Y185.461024 Z0.875000 I-6.845644 J-6.338122
G02 X170.459313 Y185.343949 Z0.875000 I-0.165426 J-0.127726
G03 X170.496913 Y185.221409 Z0.875000 I0.262359 J0.013465
G03 X171.652354 Y183.372408 Z0.875000 I64.972136 J39.315572
G02 X175.772096 Y176.755452 Z0.875000 I-204.580823 J-131.963748
G02 X175.773190 Y176.511283 Z0.875000 I-0.204802 J-0.123005
G02 X175.589604 Y176.401763 Z0.875000 I-0.191787 J0.112859
G02 X170.019141 Y176.299083 Z0.875000 I-5.570463 J151.049777
G01 X164.389969 Y176.299083 Z0.875000
G01 X163.920739 Y177.218616 Z0.875000
G03 X163.420425 Y178.119413 Z0.875000 I-13.060463 J-6.664608
G03 X162.861051 Y178.977908 Z0.875000 I-12.418222 J-7.479918
G02 X162.317823 Y179.837122 Z0.875000 I8.482967 J5.964591
G02 X162.220932 Y180.109641 Z0.875000 I0.730597 J0.413239
G03 X160.188555 Y185.580863 Z0.875000 I-15.457567 J-2.628880
G03 X156.624769 Y189.384825 Z0.875000 I-10.708405 J-6.460928
G03 X156.341371 Y189.376931 Z0.875000 I-0.136352 J-0.195907
G03 X154.553162 Y187.764615 Z0.875000 I10.605523 J-13.560312
G01 X152.786564 Y185.932111 Z0.875000
G01 X152.786564 Y181.250062 Z0.875000
G01 X152.786564 Y176.568013 Z0.875000
G01 X152.061521 Y176.292081 Z0.875000
G02 X151.347386 Y176.058401 Z0.875000 I-2.819653 J7.408939
G02 X151.284218 Y176.077934 Z0.875000 I-0.016304 J0.059181
G03 X151.217887 Y176.110307 Z0.875000 I-0.069963 J-0.059211
G03 X147.514766 Y176.227420 Z0.875000 I-9.147106 J-230.626533
G01 X147.514780 Y176.227420 Z0.875000
G00 Z6.000000

(End cutting path id: path11690)


(Start cutting path id: path2980)
(Change tool to Default tool)

G00 Z6.000000
G00 X116.581497 Y166.072764

G01 Z0.875000 F100.0(Penetrate)
G02 X115.628589 Y165.717696 Z0.875000 I-1.681164 J3.055589 F400.000000
G02 X114.803271 Y165.630566 Z0.875000 I-0.825318 J3.865231
G02 X112.697246 Y166.554265 Z0.875000 I-0.000000 J2.862708
G02 X111.911885 Y168.566761 Z0.875000 I2.185842 J2.012497
G02 X112.736544 Y170.649055 Z0.875000 I3.041262 J-0.000000
G02 X114.936520 Y171.600830 Z0.875000 I2.199975 J-2.066675
G02 X115.893596 Y171.494081 Z0.875000 I0.000000 J-4.343812
G02 X116.430560 Y171.308390 Z0.875000 I-0.566115 J-2.506243
G01 X116.430560 Y170.441681 Z0.875000
G03 X115.773232 Y170.702789 Z0.875000 I-1.507625 J-2.837428
G03 X114.954208 Y170.813128 Z0.875000 I-0.819025 J-2.984575
G03 X113.446918 Y170.106855 Z0.875000 I-0.000000 J-1.961526
G03 X112.902409 Y168.602137 Z0.875000 I1.806843 J-1.504718
G03 X113.492621 Y167.052753 Z0.875000 I2.328774 J-0.000000
G03 X114.910578 Y166.417089 Z0.875000 I1.417957 J1.263665
G03 X115.709610 Y166.539259 Z0.875000 I0.000000 J2.674044
G03 X116.325612 Y166.806223 Z0.875000 I-0.952502 J3.042007
G01 X116.581497 Y166.072764 Z0.875000
G01 X116.581497 Y166.072764 Z0.875000
G00 Z6.000000

(End cutting path id: path2980)


(Start cutting path id: path11722)
(Change tool to Default tool)

G00 Z6.000000
G00 X112.652938 Y166.053782

G01 Z0.875000 F100.0(Penetrate)
G02 X112.196250 Y166.690595 Z0.875000 I0.933347 J1.151506 F400.000000
G02 X111.864814 Y168.182270 Z0.875000 I5.285276 J1.956997
G02 X112.042659 Y169.665567 Z0.875000 I3.710596 J0.307416
G02 X112.728030 Y170.775666 Z0.875000 I2.694206 J-0.896770
G02 X113.817097 Y171.545188 Z0.875000 I2.775906 J-2.773193
G02 X114.811772 Y171.767826 Z0.875000 I0.985550 J-2.069861
G02 X116.280201 Y171.369819 Z0.875000 I-0.011774 J-2.951298
G02 X116.561017 Y170.753738 Z0.875000 I-0.293141 J-0.505657
G02 X116.294593 Y170.442886 Z0.875000 I-0.405607 J0.078038
G02 X115.320738 Y170.309844 Z0.875000 I-0.802236 J2.241514
G03 X113.755335 Y169.810152 Z0.875000 I-0.159222 J-2.203043
G03 X113.144103 Y168.512953 Z0.875000 I1.070887 J-1.297199
G03 X114.204003 Y166.407769 Z0.875000 I2.620620 J0.000000
G03 X115.617340 Y166.679366 Z0.875000 I0.581926 J0.784933
G02 X116.223723 Y166.886119 Z0.875000 I0.428686 J-0.264684
G02 X116.555630 Y166.325699 Z0.875000 I-0.183664 J-0.487270
G02 X116.249498 Y165.924815 Z0.875000 I-0.510374 J0.072413
G02 X114.887041 Y165.605651 Z0.875000 I-1.571935 J3.642696
G02 X113.371676 Y165.715812 Z0.875000 I-0.320725 J6.065864
G02 X112.652938 Y166.053782 Z0.875000 I0.326451 J1.627473
G01 X112.652938 Y166.053782 Z0.875000
G00 Z6.000000

(End cutting path id: path11722)


(Start cutting path id: path2976)
(Change tool to Default tool)

G00 Z6.000000
G00 X107.329651 Y166.824501

G01 Z0.875000 F100.0(Penetrate)
G03 X107.842331 Y166.560535 Z0.875000 I1.424287 J2.136431 F400.000000
G03 X108.620869 Y166.417678 Z0.875000 I0.778538 J2.050007
G03 X109.322453 Y166.601260 Z0.875000 I-0.000000 J1.432395
G03 X109.665636 Y167.187693 Z0.875000 I-0.329458 J0.586433
G03 X108.622071 Y168.354372 Z0.875000 I-1.173941 J0.000000
G02 X107.126829 Y170.026015 Z0.875000 I0.186807 J1.671643
G02 X107.560985 Y171.038439 Z0.875000 I1.397532 J-0.000000
G02 X108.966374 Y171.600240 Z0.875000 I1.405388 J-1.476941
G02 X109.846866 Y171.494344 Z0.875000 I-0.000000 J-3.713462
G02 X110.337777 Y171.307800 Z0.875000 I-0.504374 J-2.066528
G01 X110.337777 Y170.468213 Z0.875000
G03 X109.665706 Y170.725791 Z0.875000 I-1.542869 J-3.020083
G03 X108.992316 Y170.813717 Z0.875000 I-0.673390 J-2.534625
G03 X108.426439 Y170.658074 Z0.875000 I-0.000000 J-1.106513
G03 X108.117353 Y170.114455 Z0.875000 I0.323516 J-0.543620
G03 X109.093269 Y169.015696 Z0.875000 I1.106490 J0.000000
G02 X110.646726 Y167.266699 Z0.875000 I-0.207847 J-1.748998
G02 X110.089267 Y166.127168 Z0.875000 I-1.443416 J0.000000
G02 X108.639737 Y165.629976 Z0.875000 I-1.449530 J1.864410
G02 X107.635091 Y165.780953 Z0.875000 I0.000000 J3.418095
G02 X106.958204 Y166.116984 Z0.875000 I0.686592 J2.232806
G01 X107.329651 Y166.824501 Z0.875000
G01 X107.329651 Y166.824501 Z0.875000
G00 Z6.000000

(End cutting path id: path2976)


(Start cutting path id: path11724)
(Change tool to Default tool)

G00 Z6.000000
G00 X106.870772 Y165.805034

G01 Z0.875000 F100.0(Penetrate)
G02 X106.795243 Y166.605847 Z0.875000 I0.772241 J0.476803 F400.000000
G02 X107.313071 Y166.962297 Z0.875000 I0.517828 J-0.197909
G02 X107.555086 Y166.912670 Z0.875000 I0.000000 J-0.614919
G02 X108.126227 Y166.614162 Z0.875000 I-1.646689 J-3.846293
G03 X108.656886 Y166.496083 Z0.875000 I0.432370 J0.691658
G03 X109.155774 Y166.739134 Z0.875000 I-0.102420 J0.843765
G03 X109.220234 Y167.160447 Z0.875000 I-0.254821 J0.254575
G03 X108.587731 Y167.826860 Z0.875000 I-1.483688 J-0.774825
G02 X107.366538 Y168.978030 Z0.875000 I1.934459 J3.275451
G02 X106.996336 Y170.190905 Z0.875000 I1.801745 J1.212875
G02 X107.587915 Y171.291775 Z0.875000 I1.320095 J0.000000
G02 X109.308244 Y171.720846 Z0.875000 I1.466309 J-2.215757
G02 X110.044093 Y171.423789 Z0.875000 I-0.133587 J-1.390834
G02 X110.330993 Y170.907870 Z0.875000 I-0.481144 J-0.605293
G02 X110.128025 Y170.472264 Z0.875000 I-0.455236 J-0.052974
G02 X109.412360 Y170.302221 Z0.875000 I-0.591035 J0.896462
G03 X108.503793 Y170.313595 Z0.875000 I-0.508869 J-4.354535
G03 X108.409617 Y170.210403 Z0.875000 I0.009447 J-0.103192
G03 X108.478875 Y170.031521 Z0.875000 I0.265644 J0.000000
G03 X109.670995 Y168.825599 Z0.875000 I15.346772 J13.978936
G02 X110.605326 Y167.187181 Z0.875000 I-2.160355 J-2.317590
G02 X110.312772 Y165.901300 Z0.875000 I-1.512876 J-0.332022
G02 X108.442601 Y164.956828 Z0.875000 I-1.938978 J1.515594
G02 X106.870772 Y165.805034 Z0.875000 I-0.050005 J1.787832
G01 X106.870772 Y165.805034 Z0.875000
G00 Z6.000000

(End cutting path id: path11724)


(Start cutting path id: path11726)
(Change tool to Default tool)

G00 Z6.000000
G00 X97.075022 Y166.325699

G01 Z0.875000 F100.0(Penetrate)
G02 X95.519400 Y170.714572 Z0.875000 I90.470666 J34.537173 F400.000000
G02 X95.407452 Y171.415873 Z0.875000 I2.140691 J0.701302
G02 X95.559346 Y171.639181 Z0.875000 I0.240096 J0.000000
G02 X96.177983 Y171.720218 Z0.875000 I0.470746 J-1.191821
G02 X96.739251 Y171.381327 Z0.875000 I-0.091250 J-0.785356
G02 X97.497555 Y169.791628 Z0.875000 I-4.708866 J-3.221891
G01 X98.046601 Y167.952562 Z0.875000
G01 X98.418517 Y168.801363 Z0.875000
G03 X98.677109 Y169.670037 Z0.875000 I-3.365703 J1.474752
G03 X98.725500 Y170.637078 Z0.875000 I-4.136414 J0.691718
G02 X98.912584 Y171.389177 Z0.875000 I1.269523 J0.083526
G02 X99.337143 Y171.627342 Z0.875000 I0.427047 J-0.263768
G02 X99.843710 Y171.384490 Z0.875000 I0.003212 J-0.643051
G02 X100.614678 Y170.020524 Z0.875000 I-3.915550 J-3.113101
G03 X101.432517 Y168.382260 Z0.875000 I8.122553 J3.031595
G03 X101.625877 Y168.438785 Z0.875000 I0.088418 J0.056525
G02 X101.678341 Y168.869592 Z0.875000 I1.795008 J0.000000
G02 X102.090235 Y170.317059 Z0.875000 I20.955738 J-5.180865
G02 X102.699918 Y171.521118 Z0.875000 I4.117298 J-1.328432
G02 X103.072248 Y171.677193 Z0.875000 I0.313870 J-0.226614
G02 X103.565779 Y171.550475 Z0.875000 I-0.386325 J-2.529067
G02 X103.764007 Y171.423846 Z0.875000 I-0.187531 J-0.512033
G02 X103.819926 Y171.221371 Z0.875000 I-0.150749 J-0.150593
G02 X103.004543 Y168.398600 Z0.875000 I-40.434595 J10.150752
G02 X101.853184 Y165.848124 Z0.875000 I-12.382677 J4.054785
G02 X101.327857 Y165.547634 Z0.875000 I-0.525326 J0.308950
G02 X100.764143 Y165.788605 Z0.875000 I0.000000 J0.779846
G02 X100.245994 Y166.679366 Z0.875000 I1.592772 J1.522586
G03 X99.835831 Y167.715170 Z0.875000 I-6.197504 J-1.855005
G03 X99.680685 Y167.811098 Z0.875000 I-0.155146 J-0.077496
G03 X99.525534 Y167.715168 Z0.875000 I0.000000 J-0.173430
G03 X99.115373 Y166.679366 Z0.875000 I5.786981 J-2.890663
G02 X98.603671 Y165.779940 Z0.875000 I-2.207931 J0.660867
G02 X98.074339 Y165.547634 Z0.875000 I-0.529331 J0.486910
G02 X97.506361 Y165.742674 Z0.875000 I-0.000000 J0.924527
G02 X97.075022 Y166.325699 Z0.875000 I0.828371 J1.063923
G01 X97.075022 Y166.325699 Z0.875000
G00 Z6.000000

(End cutting path id: path11726)


(Start cutting path id: path2972)
(Change tool to Default tool)

G00 Z6.000000
G00 X95.468010 Y171.547177

G01 Z0.875000 F100.0(Penetrate)
G01 X96.821726 Y171.547177 Z0.875000 F400.000000
G01 X97.874747 Y168.239535 Z0.875000
G02 X97.993830 Y167.834489 Z0.875000 I-9.323870 J-2.961229
G02 X98.112945 Y167.381081 Z0.875000 I-30.339596 J-8.212852
G01 X98.138887 Y167.381081 Z0.875000
G02 X98.267595 Y167.827083 Z0.875000 I11.023269 J-2.939538
G02 X98.404206 Y168.239535 Z0.875000 I11.184356 J-3.475596
G01 X99.165966 Y170.513023 Z0.875000
G01 X98.794519 Y171.547177 Z0.875000
G01 X99.997298 Y171.547177 Z0.875000
G01 X101.102204 Y168.327974 Z0.875000
G02 X101.268577 Y167.848667 Z0.875000 I-16.939162 J-6.148288
G02 X101.402899 Y167.390514 Z0.875000 I-6.507098 J-2.156531
G01 X101.430020 Y167.390514 Z0.875000
G02 X101.538201 Y167.841434 Z0.875000 I13.479149 J-2.995366
G02 X101.669397 Y168.310286 Z0.875000 I11.448881 J-2.950880
G01 X102.641054 Y171.547177 Z0.875000
G01 X103.870954 Y171.547177 Z0.875000
G01 X101.898161 Y165.674785 Z0.875000
G01 X100.864007 Y165.674785 Z0.875000
G01 X100.005553 Y168.054401 Z0.875000
G03 X99.841847 Y168.513563 Z0.875000 I-117.547662 J-41.650746
G02 X99.713112 Y168.929364 Z0.875000 I4.637218 J1.663539
G01 X99.696604 Y168.929364 Z0.875000
G02 X99.567442 Y168.503847 Z0.875000 I-11.498757 J3.257981
G02 X99.421851 Y168.062655 Z0.875000 I-40.658274 J13.172382
G01 X98.563397 Y165.674785 Z0.875000
G01 X97.555186 Y165.674785 Z0.875000
G01 X95.468010 Y171.547177 Z0.875000
G01 X95.468010 Y171.547177 Z0.875000
G00 Z6.000000

(End cutting path id: path2972)


(Start cutting path id: path2968)
(Change tool to Default tool)

G00 Z6.000000
G00 X91.213475 Y171.547177

G01 Z0.875000 F100.0(Penetrate)
G01 X94.583614 Y171.547177 Z0.875000 F400.000000
G01 X94.274665 Y170.566086 Z0.875000
G01 X92.425687 Y170.566086 Z0.875000
G01 X92.425687 Y169.176995 Z0.875000
G01 X94.274665 Y169.176995 Z0.875000
G01 X94.274665 Y168.204159 Z0.875000
G01 X92.425687 Y168.204159 Z0.875000
G01 X92.425687 Y166.700685 Z0.875000
G01 X94.574181 Y166.700685 Z0.875000
G01 X94.574181 Y165.718416 Z0.875000
G01 X91.213475 Y165.718416 Z0.875000
G01 X91.213475 Y171.547177 Z0.875000
G01 X91.213475 Y171.547177 Z0.875000
G00 Z6.000000

(End cutting path id: path2968)


(Start cutting path id: path11728)
(Change tool to Default tool)

G00 Z6.000000
G00 X90.946059 Y168.589164

G01 Z0.875000 F100.0(Penetrate)
G01 X91.026287 Y171.630690 Z0.875000 F400.000000
G01 X92.808694 Y171.672008 Z0.875000
G02 X94.292978 Y171.448542 Z0.875000 I0.101265 J-4.368502
G02 X94.504627 Y171.106141 Z0.875000 I-0.099461 J-0.298094
G02 X94.242854 Y170.682378 Z0.875000 I-0.615868 J0.087707
G02 X93.499524 Y170.410301 Z0.875000 I-0.894248 J1.291694
G03 X92.771048 Y170.148953 Z0.875000 I0.151306 J-1.567690
G03 X92.580891 Y169.791628 Z0.875000 I0.240648 J-0.357325
G03 X92.771049 Y169.434301 Z0.875000 I0.430806 J0.000000
G03 X93.499524 Y169.172954 Z0.875000 I0.879782 J1.306348
G02 X94.219501 Y168.903889 Z0.875000 I-0.142843 J-1.480031
G02 X94.418154 Y168.518428 Z0.875000 I-0.274643 J-0.385461
G02 X94.294612 Y168.064357 Z0.875000 I-0.896225 J-0.000000
G02 X94.064837 Y167.917196 Z0.875000 I-0.259788 J0.152666
G02 X93.711163 Y167.886193 Z0.875000 I-1.441411 J14.410191
G02 X93.125481 Y167.846464 Z0.875000 I-2.958825 J39.282400
G03 X92.818286 Y167.338442 Z0.875000 I0.021728 J-0.360028
G03 X93.571339 Y166.855529 Z0.875000 I0.746859 J0.336038
G02 X94.512038 Y166.544762 Z0.875000 I0.011698 J-1.543734
G02 X94.837811 Y165.901300 Z0.875000 I-0.492375 J-0.653478
G02 X94.678838 Y165.709013 Z0.875000 I-0.192814 J-0.002450
G02 X92.853987 Y165.547634 Z0.875000 I-1.824851 J10.236889
G01 X90.865834 Y165.547634 Z0.875000
G01 X90.946059 Y168.589164 Z0.875000
G01 X90.946059 Y168.589164 Z0.875000
G00 Z6.000000

(End cutting path id: path11728)


(Start cutting path id: path11730)
(Change tool to Default tool)

G00 Z6.000000
G00 X83.879666 Y168.589164

G01 Z0.875000 F100.0(Penetrate)
G02 X84.218194 Y171.400631 Z0.875000 I15.165986 J-0.400019 F400.000000
G02 X84.556907 Y171.715992 Z0.875000 I0.396028 J-0.085776
G02 X85.064388 Y171.573825 Z0.875000 I0.092430 J-0.646900
G02 X86.535497 Y170.088963 Z0.875000 I-6.528768 J-7.939470
G01 X87.917073 Y168.376633 Z0.875000
G01 X88.058400 Y170.003661 Z0.875000
G02 X88.443704 Y171.364603 Z0.875000 I3.745230 J-0.325320
G02 X88.874964 Y171.630690 Z0.875000 I0.431260 J-0.216438
G02 X89.248242 Y171.330766 Z0.875000 I0.000000 J-0.382248
G02 X89.530150 Y168.659896 Z0.875000 I-11.742540 J-2.589728
G02 X89.205599 Y165.959940 Z0.875000 I-12.070606 J0.081474
G02 X88.805996 Y165.601672 Z0.875000 I-0.457544 J0.108345
G02 X88.210190 Y165.769697 Z0.875000 I-0.098308 J0.791764
G02 X86.878859 Y167.138764 Z0.875000 I4.734323 J5.935680
G01 X85.655824 Y168.763277 Z0.875000
G01 X85.571059 Y167.155454 Z0.875000
G02 X85.187802 Y165.862268 Z0.875000 I-2.886976 J0.152217
G02 X84.642862 Y165.547634 Z0.875000 I-0.544941 J0.314595
G01 X83.799437 Y165.547634 Z0.875000
G01 X83.879666 Y168.589164 Z0.875000
G01 X83.879666 Y168.589164 Z0.875000
G00 Z6.000000

(End cutting path id: path11730)


(Start cutting path id: path2964)
(Change tool to Default tool)

G00 Z6.000000
G00 X84.084533 Y171.547177

G01 Z0.875000 F100.0(Penetrate)
G01 X85.295567 Y171.547177 Z0.875000 F400.000000
G01 X87.702304 Y168.477732 Z0.875000
G02 X88.024759 Y168.054895 Z0.875000 I-20.181163 J-15.724489
G02 X88.286005 Y167.681775 Z0.875000 I-6.027956 J-4.498605
G01 X88.303693 Y167.681775 Z0.875000
G02 X88.290674 Y168.185868 Z0.875000 I45.473275 J1.426613
G02 X88.286005 Y168.646357 Z0.875000 I22.705130 J0.460489
G01 X88.286005 Y171.547177 Z0.875000
G01 X89.498218 Y171.547177 Z0.875000
G01 X89.498218 Y165.718416 Z0.875000
G01 X88.392133 Y165.718416 Z0.875000
G01 X85.888702 Y168.911676 Z0.875000
G02 X85.580872 Y169.326441 Z0.875000 I41.127911 J30.845933
G03 X85.287312 Y169.717066 Z0.875000 I-17.880191 J-13.131540
G01 X85.269624 Y169.717066 Z0.875000
G02 X85.293437 Y169.349760 Z0.875000 I-3.251742 J-0.395239
G02 X85.295567 Y168.850358 Z0.875000 I-58.560938 J-0.499403
G01 X85.295567 Y165.718416 Z0.875000
G01 X84.084533 Y165.718416 Z0.875000
G01 X84.084533 Y171.547177 Z0.875000
G01 X84.084533 Y171.547177 Z0.875000
G00 Z6.000000

(End cutting path id: path2964)


(Start cutting path id: path2960)
(Change tool to Default tool)

G00 Z6.000000
G00 X77.185063 Y171.547177

G01 Z0.875000 F100.0(Penetrate)
G01 X80.272196 Y171.547177 Z0.875000 F400.000000
G01 X80.015131 Y170.786596 Z0.875000
G01 X78.114269 Y170.786596 Z0.875000
G01 X78.114269 Y169.079121 Z0.875000
G01 X79.997444 Y169.079121 Z0.875000
G01 X79.997444 Y168.319720 Z0.875000
G01 X78.114269 Y168.319720 Z0.875000
G01 X78.114269 Y166.478996 Z0.875000
G01 X80.298138 Y166.478996 Z0.875000
G01 X80.298138 Y165.718416 Z0.875000
G01 X77.185063 Y165.718416 Z0.875000
G01 X77.185063 Y171.547177 Z0.875000
G01 X77.185063 Y171.547177 Z0.875000
G00 Z6.000000

(End cutting path id: path2960)


(Start cutting path id: path11732)
(Change tool to Default tool)

G00 Z6.000000
G00 X77.034824 Y168.376964

G01 Z0.875000 F100.0(Penetrate)
G03 X77.002035 Y171.200970 Z0.875000 I-121.625718 J-0.000000 F400.000000
G03 X76.964159 Y171.418491 Z0.875000 I-0.742605 J-0.017247
G02 X77.033533 Y171.534711 Z0.875000 I0.084754 J0.028224
G02 X78.660096 Y171.714927 Z0.875000 I2.248563 J-12.864255
G02 X80.255773 Y171.619908 Z0.875000 I0.356023 J-7.467060
G02 X80.426695 Y171.417845 Z0.875000 I-0.033978 J-0.202063
G02 X80.067799 Y170.716389 Z0.875000 I-0.864940 J0.000000
G02 X78.956885 Y170.357494 Z0.875000 I-1.110914 J1.539899
G03 X78.357637 Y170.165304 Z0.875000 I-0.000000 J-1.030321
G03 X78.165445 Y169.791628 Z0.875000 I0.267171 J-0.373676
G03 X78.373178 Y169.433494 Z0.875000 I0.412581 J0.000000
G03 X79.154744 Y169.225762 Z0.875000 I0.781566 J1.366406
G02 X79.936306 Y169.018030 Z0.875000 I-0.000000 J-1.574127
G02 X80.144038 Y168.659896 Z0.875000 I-0.204849 J-0.358135
G02 X79.936306 Y168.301761 Z0.875000 I-0.412581 J0.000000
G02 X79.154744 Y168.094030 Z0.875000 I-0.781562 J1.366396
G03 X78.432733 Y167.826742 Z0.875000 I0.000000 J-1.108812
G03 X78.165445 Y167.245232 Z0.875000 I0.498924 J-0.581510
G03 X78.448267 Y166.679255 Z0.875000 I0.707723 J-0.000000
G03 X79.296070 Y166.396431 Z0.875000 I0.847803 J1.129291
G02 X80.253009 Y166.222747 Z0.875000 I-0.000000 J-2.723038
G02 X80.426695 Y165.972032 Z0.875000 I-0.094109 J-0.250714
G02 X80.240643 Y165.733686 Z0.875000 I-0.245696 J0.000000
G02 X78.730758 Y165.547634 Z0.875000 I-1.509885 J6.033636
G01 X77.034824 Y165.547634 Z0.875000
G01 X77.034824 Y168.376964 Z0.875000
G01 X77.034824 Y168.376964 Z0.875000
G00 Z6.000000

(End cutting path id: path11732)


(Start cutting path id: path11734)
(Change tool to Default tool)

G00 Z6.000000
G00 X70.312185 Y168.589164

G01 Z0.875000 F100.0(Penetrate)
G02 X70.665470 Y171.387324 Z0.875000 I14.231009 J-0.375371 F400.000000
G02 X71.028388 Y171.721104 Z0.875000 I0.424158 J-0.096996
G02 X71.414862 Y171.524038 Z0.875000 I0.053083 J-0.373395
G02 X71.664365 Y170.518636 Z0.875000 I-1.900945 J-1.005402
G01 X71.664365 Y169.225762 Z0.875000
G01 X72.920063 Y169.225762 Z0.875000
G01 X74.175762 Y169.225762 Z0.875000
G01 X74.262679 Y170.428226 Z0.875000
G02 X74.551070 Y171.414127 Z0.875000 I2.429804 J-0.175624
G02 X74.914905 Y171.630690 Z0.875000 I0.363835 J-0.197348
G02 X75.226964 Y171.377436 Z0.875000 I-0.000000 J-0.318887
G02 X75.480217 Y168.942827 Z0.875000 I-11.575746 J-2.434609
G02 X75.151298 Y165.876552 Z0.875000 I-14.456803 J0.000000
G02 X74.743335 Y165.547634 Z0.875000 I-0.407963 J0.088543
G02 X74.421870 Y165.761235 Z0.875000 I-0.000000 J0.348700
G02 X74.208266 Y166.820833 Z0.875000 I2.521313 J1.059598
G01 X74.208266 Y168.094030 Z0.875000
G01 X72.936316 Y168.094030 Z0.875000
G01 X71.664365 Y168.094030 Z0.875000
G01 X71.664365 Y166.820833 Z0.875000
G02 X71.400071 Y165.811926 Z0.875000 I-2.057833 J0.000000
G02 X70.948162 Y165.547634 Z0.875000 I-0.451908 J0.254209
G01 X70.231960 Y165.547634 Z0.875000
G01 X70.312185 Y168.589164 Z0.875000
G01 X70.312185 Y168.589164 Z0.875000
G00 Z6.000000

(End cutting path id: path11734)


(Start cutting path id: path2956)
(Change tool to Default tool)

G00 Z6.000000
G00 X70.577798 Y171.547177

G01 Z0.875000 F100.0(Penetrate)
G01 X71.507004 Y171.547177 Z0.875000 F400.000000
G01 X71.507004 Y169.088555 Z0.875000
G01 X74.460887 Y169.088555 Z0.875000
G01 X74.460887 Y171.547177 Z0.875000
G01 X75.388914 Y171.547177 Z0.875000
G01 X75.388914 Y165.718416 Z0.875000
G01 X74.460887 Y165.718416 Z0.875000
G01 X74.460887 Y168.302032 Z0.875000
G01 X71.507004 Y168.302032 Z0.875000
G01 X71.507004 Y165.718416 Z0.875000
G01 X70.577798 Y165.718416 Z0.875000
G01 X70.577798 Y171.547177 Z0.875000
G01 X70.577798 Y171.547177 Z0.875000
G00 Z6.000000

(End cutting path id: path2956)


(Start cutting path id: path2952)
(Change tool to Default tool)

G00 Z6.000000
G00 X66.712397 Y170.786950

G01 Z0.875000 F100.0(Penetrate)
G01 X65.022610 Y170.786950 Z0.875000 F400.000000
G01 X65.022610 Y171.547530 Z0.875000
G01 X69.481147 Y171.547530 Z0.875000
G01 X69.233516 Y170.786950 Z0.875000
G01 X67.641602 Y170.786950 Z0.875000
G01 X67.641602 Y165.718769 Z0.875000
G01 X66.712397 Y165.718769 Z0.875000
G01 X66.712397 Y170.786950 Z0.875000
G01 X66.712397 Y170.786950 Z0.875000
G00 Z6.000000

(End cutting path id: path2952)


(Start cutting path id: path11736)
(Change tool to Default tool)

G00 Z6.000000
G00 X66.576558 Y167.934637

G01 Z0.875000 F100.0(Penetrate)
G01 X66.576558 Y170.321641 Z0.875000 F400.000000
G01 X65.657928 Y170.410301 Z0.875000
G02 X64.937951 Y170.679364 Z0.875000 I0.142834 J1.480021
G02 X64.739298 Y171.064824 Z0.875000 I0.274641 J0.385460
G02 X64.985831 Y171.393192 Z0.875000 I0.341951 J0.000000
G02 X66.973729 Y171.714115 Z0.875000 I2.294727 J-7.896972
G02 X69.162930 Y171.682356 Z0.875000 I0.788477 J-21.117452
G02 X69.456237 Y171.549227 Z0.875000 I-0.030324 J-0.456475
G02 X69.499825 Y170.832916 Z0.875000 I-0.383176 J-0.382798
G02 X68.524907 Y170.357494 Z0.875000 I-0.974918 J0.761891
G01 X67.707182 Y170.357494 Z0.875000
G01 X67.707182 Y167.952562 Z0.875000
G02 X67.457301 Y165.797516 Z0.875000 I-9.417812 J-0.000000
G02 X67.141870 Y165.547634 Z0.875000 I-0.315431 J0.074146
G02 X66.826200 Y165.797275 Z0.875000 I0.000000 J0.324402
G02 X66.576558 Y167.934637 Z0.875000 I9.024897 J2.137362
G01 X66.576558 Y167.934637 Z0.875000
G00 Z6.000000

(End cutting path id: path11736)


(Start cutting path id: path11740)
(Change tool to Default tool)

G00 Z6.000000
G00 X69.232639 Y202.071112

G01 Z0.875000 F100.0(Penetrate)
G02 X72.605910 Y201.124458 Z0.875000 I-0.172063 J-7.096539 F400.000000
G02 X75.750209 Y198.084723 Z0.875000 I-4.492867 J-7.793515
G02 X77.143285 Y193.598270 Z0.875000 I-7.884383 J-4.907665
G02 X76.164723 Y188.833126 Z0.875000 I-9.902093 J-0.449572
G02 X73.962146 Y185.876101 Z0.875000 I-8.799488 J4.255586
G02 X71.269931 Y184.352848 Z0.875000 I-4.659314 J5.094174
G02 X65.975263 Y184.753666 Z0.875000 I-2.122081 J7.138824
G02 X61.974236 Y188.727293 Z0.875000 I3.582265 J7.608088
G02 X61.335896 Y190.647675 Z0.875000 I7.260050 J3.479545
G02 X61.074653 Y193.278126 Z0.875000 I13.540927 J2.673014
G02 X61.326749 Y195.895539 Z0.875000 I13.289061 J0.040911
G02 X61.903681 Y197.476182 Z0.875000 I5.351159 J-1.057552
G02 X65.416287 Y201.082548 Z0.875000 I8.338179 J-4.607574
G02 X69.232639 Y202.071112 Z0.875000 I3.642073 J-6.199422
G01 X69.232639 Y202.071112 Z0.875000
G00 Z6.000000

(End cutting path id: path11740)


(Start cutting path id: path11740)
(Change tool to Default tool)

G00 Z6.000000
G00 X70.246875 Y210.652432

G01 Z0.875000 F100.0(Penetrate)
G03 X67.329384 Y210.402140 Z0.875000 I0.127686 J-18.617146 F400.000000
G03 X65.307986 Y209.832223 Z0.875000 I1.557475 J-9.393840
G03 X63.365142 Y208.954333 Z0.875000 I10.253674 J-25.281022
G03 X62.106528 Y208.227085 Z0.875000 I5.376984 J-10.758418
G02 X60.885652 Y207.453066 Z0.875000 I-20.576588 J31.106053
G02 X60.783611 Y207.424515 Z0.875000 I-0.102040 J0.168067
G02 X60.722095 Y207.477012 Z0.875000 I0.000000 J0.062292
G02 X60.589584 Y208.623960 Z0.875000 I13.302830 J2.118053
G01 X60.501389 Y209.823404 Z0.875000
G01 X56.682570 Y209.911598 Z0.875000
G03 X52.872242 Y209.923999 Z0.875000 I-2.247759 J-105.266441
G03 X52.299306 Y209.849862 Z0.875000 I0.037737 J-2.542574
G03 X52.012836 Y209.492486 Z0.875000 I0.090570 J-0.366104
G03 X51.796598 Y188.127571 Z0.875000 I819.985722 J-18.982770
G03 X51.862386 Y166.538899 Z0.875000 I75635.173223 J219.704911
G03 X51.867153 Y166.043682 Z0.875000 I38.473642 J0.122734
G03 X52.104985 Y165.781962 Z0.875000 I0.267660 J0.004308
G03 X56.259236 Y165.549793 Z0.875000 I4.154252 J37.050272
G03 X60.619129 Y165.584517 Z0.875000 I0.000000 J273.722832
G03 X60.677778 Y165.620348 Z0.875000 I-0.001078 J0.067679
G03 X60.697889 Y165.695705 Z0.875000 I-0.151555 J0.080807
G03 X60.889445 Y172.279029 Z0.875000 I-1242.021063 J39.433768
G01 X61.065834 Y178.867154 Z0.875000
G01 X62.203542 Y178.029307 Z0.875000
G03 X66.675027 Y175.981519 Z0.875000 I7.145876 J9.697718
G03 X72.266528 Y175.736251 Z0.875000 I3.469516 J15.237574
G03 X81.248602 Y180.404372 Z0.875000 I-2.042957 J14.906315
G03 X86.104237 Y190.632293 Z0.875000 I-13.806355 J12.821022
G03 X86.306871 Y194.934893 Z0.875000 I-23.472818 J3.261540
G03 X85.804375 Y197.370348 Z0.875000 I-7.819803 J-0.343853
G02 X85.579891 Y198.135095 Z0.875000 I4.812826 J1.828084
G02 X85.513334 Y198.772640 Z0.875000 I3.020221 J0.637545
G03 X85.356710 Y199.496549 Z0.875000 I-1.751250 J-0.000000
G03 X83.370209 Y203.491043 Z0.875000 I-57.477536 J-26.092943
G03 X81.764867 Y205.650721 Z0.875000 I-8.335682 J-4.519631
G03 X78.819375 Y208.077154 Z0.875000 I-13.548533 J-13.445807
G03 X77.307954 Y208.962289 Z0.875000 I-8.228602 J-12.317852
G03 X75.291598 Y209.867501 Z0.875000 I-10.301297 J-20.247767
G03 X73.175466 Y210.437787 Z0.875000 I-3.638382 J-9.289515
G03 X70.246875 Y210.652432 Z0.875000 I-2.802662 J-18.153185
G01 X70.246875 Y210.652432 Z0.875000
G00 Z6.000000

(End cutting path id: path11740)


(Start cutting path id: path2940)
(Change tool to Default tool)

G00 Z6.000000
G00 X71.937764 Y213.707172

G01 Z0.875000 F100.0(Penetrate)
G01 X71.937764 Y226.291541 Z0.875000 F400.000000
G01 X74.247807 Y226.291541 Z0.875000
G01 X74.247807 Y215.656381 Z0.875000
G01 X78.753511 Y215.656381 Z0.875000
G01 X78.753511 Y213.707172 Z0.875000
G01 X71.937764 Y213.707172 Z0.875000
G01 X71.937764 Y213.707172 Z0.875000
G00 Z6.000000

(End cutting path id: path2940)


(Start cutting path id: path2912)
(Change tool to Default tool)

G00 Z6.000000
G00 X71.937764 Y213.707195

G01 Z0.875000 F100.0(Penetrate)
G01 X71.937764 Y226.291564 Z0.875000 F400.000000
G01 X74.247807 Y226.291564 Z0.875000
G01 X74.247807 Y215.656404 Z0.875000
G01 X78.753511 Y215.656404 Z0.875000
G01 X78.753511 Y213.707195 Z0.875000
G01 X71.937764 Y213.707195 Z0.875000
G01 X71.937764 Y213.707195 Z0.875000
G00 Z6.000000

(End cutting path id: path2912)


(Start cutting path id: path2908)
(Change tool to Default tool)

G00 Z6.000000
G00 X62.673657 Y213.707195

G01 Z0.875000 F100.0(Penetrate)
G01 X62.673657 Y226.291564 Z0.875000 F400.000000
G01 X69.681613 Y226.291564 Z0.875000
G01 X69.050744 Y224.361221 Z0.875000
G01 X64.986059 Y224.361221 Z0.875000
G01 X64.986059 Y221.097210 Z0.875000
G01 X69.050744 Y221.097210 Z0.875000
G01 X69.050744 Y219.169226 Z0.875000
G01 X64.986059 Y219.169226 Z0.875000
G01 X64.986059 Y215.636358 Z0.875000
G01 X69.681613 Y215.636358 Z0.875000
G01 X69.681613 Y213.707195 Z0.875000
G01 X62.673657 Y213.707195 Z0.875000
G01 X62.673657 Y213.707195 Z0.875000
G00 Z6.000000

(End cutting path id: path2908)


(Start cutting path id: path2936)
(Change tool to Default tool)

G00 Z6.000000
G00 X62.673654 Y213.707172

G01 Z0.875000 F100.0(Penetrate)
G01 X62.673654 Y226.291541 Z0.875000 F400.000000
G01 X69.681610 Y226.291541 Z0.875000
G01 X69.050740 Y224.361198 Z0.875000
G01 X64.986055 Y224.361198 Z0.875000
G01 X64.986055 Y221.097187 Z0.875000
G01 X69.050740 Y221.097187 Z0.875000
G01 X69.050740 Y219.169203 Z0.875000
G01 X64.986055 Y219.169203 Z0.875000
G01 X64.986055 Y215.636335 Z0.875000
G01 X69.681610 Y215.636335 Z0.875000
G01 X69.681610 Y213.707172 Z0.875000
G01 X62.673654 Y213.707172 Z0.875000
G01 X62.673654 Y213.707172 Z0.875000
G00 Z6.000000

(End cutting path id: path2936)


(Start cutting path id: path2932)
(Change tool to Default tool)

G00 Z6.000000
G00 X60.805101 Y224.360727

G01 Z0.875000 F100.0(Penetrate)
G01 X57.367748 Y224.360727 Z0.875000 F400.000000
G01 X57.367748 Y213.706700 Z0.875000
G01 X55.038838 Y213.706700 Z0.875000
G01 X55.038838 Y224.360727 Z0.875000
G01 X51.391588 Y224.360727 Z0.875000
G01 X51.391588 Y226.292248 Z0.875000
G01 X61.358144 Y226.292248 Z0.875000
G01 X60.805101 Y224.360727 Z0.875000
G01 X60.805101 Y224.360727 Z0.875000
G00 Z6.000000

(End cutting path id: path2932)


(Start cutting path id: path2904)
(Change tool to Default tool)

G00 Z6.000000
G00 X60.805103 Y224.360752

G01 Z0.875000 F100.0(Penetrate)
G01 X57.367749 Y224.360752 Z0.875000 F400.000000
G01 X57.367749 Y213.706725 Z0.875000
G01 X55.038839 Y213.706725 Z0.875000
G01 X55.038839 Y224.360752 Z0.875000
G01 X51.391589 Y224.360752 Z0.875000
G01 X51.391589 Y226.292273 Z0.875000
G01 X61.358145 Y226.292273 Z0.875000
G01 X60.805103 Y224.360752 Z0.875000
G01 X60.805103 Y224.360752 Z0.875000
G00 Z6.000000

(End cutting path id: path2904)


(Start cutting path id: path2900)
(Change tool to Default tool)

G00 Z6.000000
G00 X51.391591 Y224.361105

G01 Z0.875000 F100.0(Penetrate)
G01 X51.391591 Y226.291447 Z0.875000 F400.000000
G01 X51.391591 Y224.361105 Z0.875000
G01 X51.391591 Y224.361105 Z0.875000
G00 Z6.000000

(End cutting path id: path2900)


(Start cutting path id: path2944)
(Change tool to Default tool)

G00 Z6.000000
G00 X89.188443 Y214.911601

G01 Z0.875000 F100.0(Penetrate)
G02 X87.730768 Y213.978352 Z0.875000 I-2.842660 J2.835028 F400.000000
G02 X85.142625 Y213.517793 Z0.875000 I-2.588142 J7.041843
G02 X82.639495 Y213.908462 Z0.875000 I-0.000000 J8.214476
G02 X81.226519 Y214.758306 Z0.875000 I1.093352 J3.417390
G02 X80.288528 Y216.287779 Z0.875000 I2.443149 J2.550688
G02 X79.987185 Y218.327729 Z0.875000 I6.754074 J2.039950
G01 X79.987185 Y226.292012 Z0.875000
G01 X82.298407 Y226.292012 Z0.875000
G01 X82.298407 Y218.481025 Z0.875000
G03 X82.508579 Y217.183249 Z0.875000 I4.111855 J0.000000
G03 X83.041300 Y216.265317 Z0.875000 I2.476685 J0.823793
G03 X83.874360 Y215.712859 Z0.875000 I1.555662 J1.441485
G03 X85.180359 Y215.483511 Z0.875000 I1.305999 J3.603769
G03 X86.665926 Y215.742936 Z0.875000 I-0.000000 J4.383166
G03 X87.471535 Y216.265317 Z0.875000 I-0.715249 J1.985440
G03 X87.960609 Y217.126532 Z0.875000 I-1.605684 J1.481326
G03 X88.140139 Y218.365463 Z0.875000 I-4.185154 J1.238932
G01 X88.140139 Y226.292012 Z0.875000
G01 X90.450182 Y226.292012 Z0.875000
G01 X90.450182 Y218.443290 Z0.875000
G02 X90.110391 Y216.389666 Z0.875000 I-6.375727 J-0.000000
G02 X89.188443 Y214.911601 Z0.875000 I-3.620786 J1.231911
G00 Z6.000000

(End cutting path id: path2944)


(Start cutting path id: path2924)
(Change tool to Default tool)

G00 Z6.000000
G00 X89.188443 Y214.911601

G01 Z0.875000 F100.0(Penetrate)
G02 X87.730768 Y213.978352 Z0.875000 I-2.842660 J2.835028 F400.000000
G02 X85.142625 Y213.517793 Z0.875000 I-2.588142 J7.041843
G02 X82.639495 Y213.908462 Z0.875000 I-0.000000 J8.214476
G02 X81.226519 Y214.758306 Z0.875000 I1.093352 J3.417390
G02 X80.288528 Y216.287779 Z0.875000 I2.443149 J2.550688
G02 X79.987185 Y218.327729 Z0.875000 I6.754074 J2.039950
G01 X79.987185 Y226.292012 Z0.875000
G01 X82.298407 Y226.292012 Z0.875000
G01 X82.298407 Y218.481025 Z0.875000
G03 X82.508579 Y217.183249 Z0.875000 I4.111855 J0.000000
G03 X83.041300 Y216.265317 Z0.875000 I2.476685 J0.823793
G03 X83.874360 Y215.712859 Z0.875000 I1.555662 J1.441485
G03 X85.180359 Y215.483511 Z0.875000 I1.305999 J3.603769
G03 X86.665926 Y215.742936 Z0.875000 I-0.000000 J4.383166
G03 X87.471535 Y216.265317 Z0.875000 I-0.715249 J1.985440
G03 X87.960609 Y217.126532 Z0.875000 I-1.605684 J1.481326
G03 X88.140139 Y218.365463 Z0.875000 I-4.185154 J1.238932
G01 X88.140139 Y226.292012 Z0.875000
G01 X90.450182 Y226.292012 Z0.875000
G01 X90.450182 Y218.443290 Z0.875000
G02 X90.110391 Y216.389666 Z0.875000 I-6.375727 J-0.000000
G02 X89.188443 Y214.911601 Z0.875000 I-3.620786 J1.231911
G00 Z6.000000

(End cutting path id: path2924)


(Start cutting path id: path2948)
(Change tool to Default tool)

G00 Z6.000000
G00 X96.289909 Y213.517203

G01 Z0.875000 F100.0(Penetrate)
G02 X93.742314 Y213.976221 Z0.875000 I0.000000 J7.299208 F400.000000
G02 X92.415075 Y214.663381 Z0.875000 I2.157151 J5.791864
G01 X93.350176 Y216.362601 Z0.875000
G03 X94.462683 Y215.753286 Z0.875000 I3.439507 J4.959684
G03 X96.193215 Y215.406274 Z0.875000 I1.730533 J4.141526
G03 X97.572357 Y215.727907 Z0.875000 I-0.000000 J3.117646
G03 X98.275674 Y216.859042 Z0.875000 I-0.557936 J1.131135
G03 X96.827884 Y218.753164 Z0.875000 I-1.962922 J0.000000
G02 X93.694501 Y220.696142 Z0.875000 I1.694545 J6.230787
G02 X93.133495 Y221.595324 Z0.875000 I2.279842 J2.047007
G02 X92.870244 Y222.949584 Z0.875000 I3.351769 J1.354260
G02 X93.815033 Y225.146289 Z0.875000 I3.026144 J-0.000000
G02 X96.978559 Y226.406984 Z0.875000 I3.163526 J-3.338850
G02 X98.972528 Y226.144107 Z0.875000 I0.000000 J-7.693756
G02 X100.071588 Y225.698288 Z0.875000 I-1.250685 J-4.660899
G01 X100.031495 Y223.637055 Z0.875000
G03 X98.555664 Y224.279647 Z0.875000 I-4.204467 J-7.640276
G03 X97.092941 Y224.514376 Z0.875000 I-1.462723 J-4.440146
G03 X95.779560 Y224.137610 Z0.875000 I0.000000 J-2.477565
G03 X95.279339 Y223.234949 Z0.875000 I0.564327 J-0.902661
G03 X97.306556 Y220.957627 Z0.875000 I2.292750 J0.000000
G02 X100.717787 Y217.125540 Z0.875000 I-0.446818 J-3.832087
G02 X99.463831 Y214.590389 Z0.875000 I-3.189665 J0.000000
G02 X96.289909 Y213.517203 Z0.875000 I-3.173922 J4.156807
G00 Z6.000000

(End cutting path id: path2948)


(Start cutting path id: path2928)
(Change tool to Default tool)

G00 Z6.000000
G00 X96.289909 Y213.517203

G01 Z0.875000 F100.0(Penetrate)
G02 X93.742314 Y213.976221 Z0.875000 I0.000000 J7.299208 F400.000000
G02 X92.415075 Y214.663381 Z0.875000 I2.157151 J5.791864
G01 X93.350176 Y216.362601 Z0.875000
G03 X94.462683 Y215.753286 Z0.875000 I3.439507 J4.959684
G03 X96.193215 Y215.406274 Z0.875000 I1.730533 J4.141526
G03 X97.572357 Y215.727907 Z0.875000 I-0.000000 J3.117646
G03 X98.275674 Y216.859042 Z0.875000 I-0.557936 J1.131135
G03 X96.827884 Y218.753164 Z0.875000 I-1.962922 J0.000000
G02 X93.694501 Y220.696142 Z0.875000 I1.694545 J6.230787
G02 X93.133495 Y221.595324 Z0.875000 I2.279842 J2.047007
G02 X92.870244 Y222.949584 Z0.875000 I3.351769 J1.354260
G02 X93.815033 Y225.146289 Z0.875000 I3.026144 J-0.000000
G02 X96.978559 Y226.406984 Z0.875000 I3.163526 J-3.338850
G02 X98.972528 Y226.144107 Z0.875000 I0.000000 J-7.693756
G02 X100.071588 Y225.698288 Z0.875000 I-1.250685 J-4.660899
G01 X100.031495 Y223.637055 Z0.875000
G03 X98.555664 Y224.279647 Z0.875000 I-4.204467 J-7.640276
G03 X97.092941 Y224.514376 Z0.875000 I-1.462723 J-4.440146
G03 X95.779560 Y224.137610 Z0.875000 I0.000000 J-2.477565
G03 X95.279339 Y223.234949 Z0.875000 I0.564327 J-0.902661
G03 X97.306556 Y220.957627 Z0.875000 I2.292750 J0.000000
G02 X100.717787 Y217.125540 Z0.875000 I-0.446818 J-3.832087
G02 X99.463831 Y214.590389 Z0.875000 I-3.189665 J0.000000
G02 X96.289909 Y213.517203 Z0.875000 I-3.173922 J4.156807
G00 Z6.000000

(End cutting path id: path2928)


(Start cutting path id: path11694)
(Change tool to Default tool)

G00 Z6.000000
G00 X104.413403 Y210.714168

G01 Z0.875000 F100.0(Penetrate)
G03 X100.220795 Y210.515350 Z0.875000 I0.345240 J-51.586036 F400.000000
G03 X98.372084 Y210.123265 Z0.875000 I0.689121 J-7.803702
G03 X92.291007 Y206.817838 Z0.875000 I6.705102 J-19.582008
G03 X89.226320 Y202.935418 Z0.875000 I6.515218 J-8.293759
G03 X88.413221 Y200.916069 Z0.875000 I20.291792 J-9.343944
G03 X88.256181 Y200.148473 Z0.875000 I2.806645 J-0.974065
G01 X88.203264 Y199.354723 Z0.875000
G01 X92.639445 Y199.284168 Z0.875000
G01 X97.084445 Y199.204793 Z0.875000
G01 X97.772362 Y200.289584 Z0.875000
G02 X98.995283 Y201.573875 Z0.875000 I3.807686 J-2.401349
G02 X101.450070 Y202.864862 Z0.875000 I6.264798 J-8.933035
G02 X103.139781 Y203.283103 Z0.875000 I2.670186 J-7.165290
G02 X104.845556 Y203.305835 Z0.875000 I0.951067 J-7.356070
G02 X108.683207 Y202.273571 Z0.875000 I-1.262471 J-12.343256
G02 X109.819723 Y201.065696 Z0.875000 I-0.891733 J-1.977674
G02 X109.674989 Y199.823671 Z0.875000 I-1.268864 J-0.481584
G02 X107.994098 Y198.375765 Z0.875000 I-3.508445 J2.373358
G02 X106.114887 Y197.769718 Z0.875000 I-3.185171 J6.659952
G02 X99.465695 Y196.841182 Z0.875000 I-15.196105 J84.546906
G03 X96.437937 Y196.351229 Z0.875000 I2.512444 J-25.126414
G03 X93.071598 Y195.403612 Z0.875000 I7.214856 J-32.083400
G03 X89.058576 Y193.286352 Z0.875000 I4.642833 J-13.661694
G03 X88.344376 Y191.858196 Z0.875000 I1.070812 J-1.428157
G02 X88.270682 Y191.650173 Z0.875000 I-0.330451 J0.000000
G02 X88.115070 Y191.575973 Z0.875000 I-0.155612 J0.126076
G03 X87.376698 Y190.971269 Z0.875000 I0.000000 J-0.753146
G03 X87.012639 Y186.063821 Z0.875000 I19.449296 J-3.910071
G03 X87.851315 Y182.553649 Z0.875000 I9.837739 J0.495226
G03 X89.905417 Y179.555070 Z0.875000 I9.181015 J4.086383
G03 X92.710197 Y177.443208 Z0.875000 I8.738179 J8.686782
G03 X96.114306 Y176.141945 Z0.875000 I6.410836 J11.667567
G03 X97.825539 Y175.897095 Z0.875000 I2.280620 J9.836775
G03 X101.485348 Y175.842084 Z0.875000 I2.494100 J44.160722
G03 X105.113967 Y176.161998 Z0.875000 I-0.779972 J29.585561
G03 X106.926945 Y176.662293 Z0.875000 I-1.172699 J7.784756
G03 X108.643362 Y177.464289 Z0.875000 I-7.468595 J18.221867
G03 X109.431667 Y177.976390 Z0.875000 I-2.415433 J4.581000
G02 X110.321605 Y178.197817 Z0.875000 I0.690815 J-0.877366
G02 X110.807501 Y177.729445 Z0.875000 I-0.108514 J-0.598797
G03 X111.078262 Y176.955615 Z0.875000 I3.328657 J0.730403
G03 X111.371945 Y176.582918 Z0.875000 I1.020206 J0.501858
G03 X111.769731 Y176.424865 Z0.875000 I0.441412 J0.531344
G03 X115.519873 Y176.260082 Z0.875000 I6.146918 J97.136799
G03 X119.279995 Y176.240790 Z0.875000 I2.374745 J96.407138
G03 X119.609306 Y176.380070 Z0.875000 I-0.006826 J0.475087
G03 X119.683625 Y176.620180 Z0.875000 I-0.190789 J0.190609
G03 X118.956667 Y179.837293 Z0.875000 I-43.077391 J-8.043327
G02 X118.874522 Y180.412383 Z0.875000 I2.384568 J0.634021
G02 X118.692084 Y191.011529 Z0.875000 I793.859038 J18.965465
G03 X117.902833 Y202.538782 Z0.875000 I-99.956360 J-1.053190
G03 X116.857640 Y205.466598 Z0.875000 I-7.172007 J-0.909848
G03 X115.948857 Y206.676618 Z0.875000 I-7.589785 J-4.754009
G03 X114.864445 Y207.706737 Z0.875000 I-6.785628 J-6.057426
G03 X111.988248 Y209.418071 Z0.875000 I-7.479762 J-9.298409
G03 X108.161667 Y210.511321 Z0.875000 I-6.533800 J-15.626034
G03 X106.684215 Y210.666455 Z0.875000 I-2.124662 J-13.121660
G03 X104.413403 Y210.714168 Z0.875000 I-1.996406 J-40.954060
G01 X104.413403 Y210.714168 Z0.875000
G00 Z6.000000

(End cutting path id: path11694)


(Start cutting path id: path11694)
(Change tool to Default tool)

G00 Z6.000000
G00 X110.040209 Y191.452501

G01 Z0.875000 F100.0(Penetrate)
G02 X110.088639 Y191.444488 Z0.875000 I-0.014644 J-0.238866 F400.000000
G02 X110.110765 Y191.434862 Z0.875000 I-0.022212 J-0.081297
G02 X110.349787 Y190.981226 Z0.875000 I-0.265977 J-0.429934
G02 X109.952015 Y187.977640 Z0.875000 I-17.873516 J0.838905
G02 X109.052409 Y186.323703 Z0.875000 I-3.307080 J0.727154
G02 X106.724098 Y184.714446 Z0.875000 I-5.436988 J5.377406
G02 X105.399949 Y184.324725 Z0.875000 I-2.125188 J4.776340
G02 X102.190903 Y184.017709 Z0.875000 I-4.227770 J27.265723
G02 X98.033050 Y184.585024 Z0.875000 I-0.451235 J12.213012
G02 X96.458264 Y185.843334 Z0.875000 I0.854115 J2.683516
G02 X96.935925 Y187.789159 Z0.875000 I1.239454 J0.727280
G02 X103.328612 Y190.138404 Z0.875000 I8.802131 J-14.079661
G03 X107.122013 Y190.777092 Z0.875000 I-13.176813 J89.846363
G03 X108.532084 Y191.126182 Z0.875000 I-2.482585 J13.050255
G02 X109.677940 Y191.424996 Z0.875000 I4.103598 J-13.389591
G02 X110.040209 Y191.452501 Z0.875000 I0.280873 J-1.299878
G01 X110.040209 Y191.452501 Z0.875000
G00 Z6.000000

(End cutting path id: path11694)


(Start cutting path id: path11696)
(Change tool to Default tool)

G00 Z6.000000
G00 X27.941750 Y175.735373

G01 Z0.875000 F100.0(Penetrate)
G02 X20.415985 Y178.293620 Z0.875000 I3.173645 J21.684765 F400.000000
G02 X15.535654 Y182.675369 Z0.875000 I7.284689 J13.022281
G02 X13.671997 Y186.382935 Z0.875000 I11.184993 J7.944464
G02 X13.210171 Y189.837305 Z0.875000 I9.204152 J2.988590
G01 X13.295942 Y191.617241 Z0.875000
G01 X16.899804 Y191.606764 Z0.875000
G02 X20.503645 Y191.593478 Z0.875000 I-6.654546 J-2293.817874
G02 X21.351632 Y191.586867 Z0.875000 I-0.570582 J-127.584061
G02 X21.913018 Y191.294022 Z0.875000 I-0.007787 J-0.699440
G02 X22.199600 Y190.399830 Z0.875000 I-1.251738 J-0.894192
G03 X22.751092 Y188.187976 Z0.875000 I4.711256 J0.000000
G03 X24.376369 Y186.306048 Z0.875000 I4.949652 J2.631858
G03 X25.222006 Y185.746411 Z0.875000 I5.994227 J8.138826
G03 X26.735904 Y184.909447 Z0.875000 I14.982887 J25.313354
G03 X28.340221 Y184.375086 Z0.875000 I2.522143 J4.896752
G03 X31.527241 Y184.099741 Z0.875000 I3.284626 J19.436347
G03 X36.559979 Y184.761400 Z0.875000 I0.092834 J18.764819
G03 X39.234527 Y186.202889 Z0.875000 I-1.769735 J6.485508
G03 X40.849097 Y189.419276 Z0.875000 I-3.180956 J3.610221
G03 X39.730758 Y192.245232 Z0.875000 I-3.419934 J0.280863
G03 X38.599701 Y193.089278 Z0.875000 I-5.036964 J-5.569880
G03 X37.570622 Y193.560691 Z0.875000 I-2.512528 J-4.125845
G02 X36.493727 Y193.953602 Z0.875000 I4.670519 J14.473225
G02 X36.191063 Y194.123819 Z0.875000 I0.527270 J1.291734
G03 X35.884333 Y194.278540 Z0.875000 I-0.604295 J-0.816597
G03 X34.777783 Y194.556783 Z0.875000 I-3.282570 J-10.715048
G02 X33.648088 Y194.784841 Z0.875000 I29.525693 J149.168983
G02 X33.364504 Y194.847666 Z0.875000 I1.947908 J9.464022
G03 X33.080509 Y194.908425 Z0.875000 I-1.505041 J-6.340684
G03 X30.537946 Y195.386816 Z0.875000 I-96.854842 J-507.769782
G02 X23.509187 Y197.200634 Z0.875000 I9.595141 J51.707869
G02 X19.760773 Y198.977600 Z0.875000 I5.428887 J16.293961
G02 X15.719887 Y203.189023 Z0.875000 I6.498686 J10.279867
G02 X14.124604 Y208.766401 Z0.875000 I10.411869 J5.994917
G02 X15.296875 Y214.373363 Z0.875000 I11.999369 J0.417268
G02 X18.949058 Y218.831507 Z0.875000 I10.959488 J-5.253152
G02 X21.509453 Y220.438631 Z0.875000 I10.762585 J-14.303330
G02 X24.178190 Y221.527241 Z0.875000 I7.456135 J-14.463270
G02 X29.521391 Y222.503983 Z0.875000 I6.797331 J-22.081145
G02 X35.767077 Y222.258087 Z0.875000 I1.925566 J-30.533380
G02 X38.364704 Y221.626459 Z0.875000 I-1.952004 J-13.685104
G02 X41.580894 Y220.231749 Z0.875000 I-7.823331 J-22.446138
G02 X44.630391 Y217.966868 Z0.875000 I-5.683150 J-10.837348
G02 X47.157446 Y214.550997 Z0.875000 I-10.926573 J-10.726151
G02 X47.855201 Y213.058937 Z0.875000 I-12.006992 J-6.524194
G02 X48.358736 Y211.518074 Z0.875000 I-12.305364 J-4.873946
G02 X48.900101 Y207.827220 Z0.875000 I-16.604276 J-4.320604
G02 X48.509188 Y207.421686 Z0.875000 I-0.390913 J-0.014358
G03 X48.249145 Y207.419617 Z0.875000 I0.000000 J-16.347218
G03 X44.064312 Y207.350954 Z0.875000 I66.842129 J-4201.395283
G01 X39.879492 Y207.280222 Z0.875000
G01 X39.559036 Y208.723168 Z0.875000
G03 X38.265995 Y211.512380 Z0.875000 I-7.015773 J-1.558093
G03 X37.088682 Y211.975109 Z0.875000 I-0.968870 J-0.736007
G02 X37.000225 Y212.032401 Z0.875000 I-0.013293 J0.076408
G02 X37.028004 Y212.213689 Z0.875000 I0.227634 J0.057892
G03 X36.995388 Y212.437519 Z0.875000 I-0.149766 J0.092468
G03 X35.989052 Y213.140231 Z0.875000 I-3.449413 J-3.867884
G03 X34.718400 Y213.550005 Z0.875000 I-1.768224 J-3.308074
G03 X31.183724 Y213.783345 Z0.875000 I-3.502855 J-26.173228
G03 X27.654340 Y213.623261 Z0.875000 I0.045707 J-39.993985
G03 X27.240676 Y213.429678 Z0.875000 I0.059829 J-0.666614
G02 X26.859401 Y213.158234 Z0.875000 I-0.994819 J0.993841
G02 X26.520269 Y213.080347 Z0.875000 I-0.339132 J0.699378
G03 X25.214032 Y212.649390 Z0.875000 I-0.000000 J-2.195092
G03 X23.763240 Y211.038932 Z0.875000 I3.243801 J-4.380905
G03 X23.016578 Y208.964621 Z0.875000 I5.089642 J-3.003588
G03 X23.367487 Y208.553418 Z0.875000 I0.350909 J-0.055873
G02 X23.499666 Y208.471656 Z0.875000 I-0.000000 J-0.147723
G02 X23.492083 Y208.303740 Z0.875000 I-0.154596 J-0.077148
G03 X23.600438 Y207.575680 Z0.875000 I0.485599 J-0.299823
G03 X26.349321 Y205.786734 Z0.875000 I7.489471 J8.501841
G03 X28.324897 Y205.043055 Z0.875000 I6.167868 J13.389005
G03 X32.233880 Y204.041147 Z0.875000 I15.320647 J51.647601
G02 X40.384355 Y201.971348 Z0.875000 I-25.275086 J-116.610883
G02 X43.372349 Y200.790702 Z0.875000 I-4.879071 J-16.719364
G02 X48.381828 Y196.162657 Z0.875000 I-5.628966 J-11.118093
G02 X50.150402 Y189.680156 Z0.875000 I-10.326694 J-6.299861
G02 X49.065378 Y184.483088 Z0.875000 I-14.001724 J0.211430
G02 X46.192398 Y180.227560 Z0.875000 I-12.081176 J5.058647
G02 X44.466803 Y178.663306 Z0.875000 I-18.921020 J19.138666
G02 X44.187745 Y178.562530 Z0.875000 I-0.279058 J0.335980
G03 X43.896049 Y178.487928 Z0.875000 I-0.000000 J-0.607573
G03 X43.378141 Y178.119431 Z0.875000 I1.300014 J-2.375311
G02 X41.607532 Y177.110408 Z0.875000 I-3.161955 J3.490500
G02 X36.049733 Y175.853334 Z0.875000 I-10.877487 J35.177103
G02 X31.587457 Y175.496637 Z0.875000 I-4.961962 J33.984175
G02 X27.941750 Y175.735355 Z0.875000 I-0.332845 J22.874781
G01 X27.941750 Y175.735373 Z0.875000
G00 Z6.000000

(End cutting path id: path11696)


(Footer)
M5
G00 X0.0000 Y0.0000
M2
(Using default footer. To add your own footer create file "footer" in the output dir.)
(end)
%