%
(Header)
(Generated by gcodetools from Inkscape.)
(Using default header. To add your own header create file "header" in the output dir.)
M3
(Header end.)
G21 (All units in mm)

(Start cutting path id: path11969)
(Change tool to Default tool)

G00 Z15.000000
G00 X48.927897 Y-11.864571

G01 Z10.000000 F100.0(Penetrate)
G02 X48.850706 Y-11.679659 Z10.000000 I0.186673 J0.186494 F400.000000
G02 X48.774622 Y13.712439 Z10.000000 I4237.113202 J25.392098
G01 X48.774622 Y39.136027 Z10.000000
G01 X53.675086 Y39.049971 Z10.000000
G01 X58.575544 Y38.963911 Z10.000000
G01 X58.535482 Y25.605068 Z10.000000
G03 X58.610701 Y12.361169 Z10.000000 I762.886213 J-2.289336
G03 X58.727305 Y12.246227 Z10.000000 I0.116604 J0.001675
G03 X58.919628 Y12.325054 Z10.000000 I0.000000 J0.274031
G03 X59.599527 Y13.105569 Z10.000000 I-4.770139 J4.841602
G02 X61.078894 Y14.926443 Z10.000000 I22.456467 J-16.733345
G02 X67.407678 Y21.933339 Z10.000000 I339.768686 J-300.524971
G03 X68.688449 Y23.353442 Z10.000000 I-63.083567 J58.181825
G03 X69.275742 Y24.051618 Z10.000000 I-14.646047 J12.916079
G02 X70.000739 Y24.437752 Z10.000000 I0.812335 J-0.651538
G02 X76.701178 Y24.676592 Z10.000000 I5.818796 J-69.134088
G01 X83.555491 Y24.589484 Z10.000000
G01 X79.666903 Y20.539631 Z10.000000
G03 X70.309250 Y10.582022 Z10.000000 I458.902427 J-440.628826
G03 X70.192692 Y10.238516 Z10.000000 I0.329988 J-0.303499
G03 X70.306797 Y9.890703 Z10.000000 I0.808075 J0.072476
G03 X73.436174 Y4.883018 Z10.000000 I180.533763 J109.336580
G03 X76.863009 Y-0.412726 Z10.000000 I1471.760312 J948.608204
G03 X82.285467 Y-8.738597 Z10.000000 I3643.028635 J2366.696375
G02 X83.964394 Y-11.468711 Z10.000000 I-49.585009 J-32.374395
G02 X84.051126 Y-11.791955 Z10.000000 I-0.558987 J-0.323244
G02 X83.881514 Y-11.969038 Z10.000000 I-0.177247 J0.000000
G02 X77.919976 Y-12.056285 Z10.000000 I-4.513597 J104.693495
G01 X71.788825 Y-11.971555 Z10.000000
G01 X70.583711 Y-9.987130 Z10.000000
G02 X69.404013 Y-7.995596 Z10.000000 I90.087317 J54.708954
G02 X69.378598 Y-7.900781 Z10.000000 I0.164147 J0.094814
G03 X69.352798 Y-7.806133 Z10.000000 I-0.186511 J0.000000
G03 X67.857914 Y-5.318674 Z10.000000 I-140.630075 J-82.821285
G02 X66.354986 Y-2.829321 Z10.000000 I180.785835 J110.846421
G02 X66.218961 Y-2.561468 Z10.000000 I1.945563 J1.156492
G03 X63.608668 Y2.431217 Z10.000000 I-33.144014 J-14.149767
G03 X62.812803 Y2.871602 Z10.000000 I-0.795864 J-0.498950
G03 X62.612428 Y2.788252 Z10.000000 I0.000000 J-0.282526
G03 X60.629546 Y0.675190 Z10.000000 I35.722187 J-35.508341
G01 X58.684189 Y-1.521218 Z10.000000
G01 X58.585869 Y-6.746390 Z10.000000
G01 X58.487543 Y-11.971555 Z10.000000
G01 X53.784359 Y-11.994767 Z10.000000
G02 X49.111757 Y-11.943676 Z10.000000 I-0.726819 J147.221647
G02 X48.927897 Y-11.864561 Z10.000000 I0.007240 J0.270023
G01 X48.927897 Y-11.864571 Z10.000000
G00 Z15.000000

(End cutting path id: path11969)


(Start cutting path id: path2998)
(Change tool to Default tool)

G00 Z15.000000
G00 X42.506646 Y-17.376054

G01 Z10.000000 F100.0(Penetrate)
G01 X45.916254 Y-17.376054 Z10.000000 F400.000000
G01 X45.632337 Y-18.216083 Z10.000000
G01 X43.532915 Y-18.216083 Z10.000000
G01 X43.532915 Y-20.101917 Z10.000000
G01 X45.614104 Y-20.101917 Z10.000000
G01 X45.614104 Y-20.940644 Z10.000000
G01 X43.532915 Y-20.940644 Z10.000000
G01 X43.532915 Y-22.973645 Z10.000000
G01 X45.944906 Y-22.973645 Z10.000000
G01 X45.944906 Y-23.813675 Z10.000000
G01 X42.506646 Y-23.813675 Z10.000000
G01 X42.506646 Y-17.376054 Z10.000000
G01 X42.506646 Y-17.376054 Z10.000000
G00 Z15.000000

(End cutting path id: path2998)


(Start cutting path id: path2994)
(Change tool to Default tool)

G00 Z15.000000
G00 X40.983003 Y-23.422312

G01 Z10.000000 F100.0(Penetrate)
G02 X39.930556 Y-23.814469 Z10.000000 I-1.856775 J3.374769 F400.000000
G02 X39.019027 Y-23.910701 Z10.000000 I-0.911529 J4.268985
G02 X36.692700 Y-22.891173 Z10.000000 I0.000000 J3.163834
G02 X35.824310 Y-20.667797 Z10.000000 I2.412109 J2.223377
G02 X36.735606 Y-18.367860 Z10.000000 I3.357947 J-0.000000
G02 X39.166195 Y-17.316795 Z10.000000 I2.430588 J-2.284837
G02 X40.222531 Y-17.434512 Z10.000000 I-0.000000 J-4.798415
G02 X40.816299 Y-17.639784 Z10.000000 I-0.624906 J-2.769000
G01 X40.816299 Y-18.597026 Z10.000000
G03 X40.089585 Y-18.308778 Z10.000000 I-1.672338 J-3.156003
G03 X39.184428 Y-18.186779 Z10.000000 I-0.905157 J-3.296857
G03 X37.520986 Y-18.966396 Z10.000000 I0.000000 J-2.164425
G03 X36.919604 Y-20.628726 Z10.000000 I1.996803 J-1.662330
G03 X37.571473 Y-22.340387 Z10.000000 I2.573155 J-0.000000
G03 X39.136240 Y-23.042020 Z10.000000 I1.564767 J1.394041
G03 X40.018738 Y-22.907087 Z10.000000 I0.000000 J2.953369
G03 X40.699086 Y-22.612237 Z10.000000 I-1.051998 J3.359769
G01 X40.983003 Y-23.422312 Z10.000000
G01 X40.983003 Y-23.422312 Z10.000000
G00 Z15.000000

(End cutting path id: path2994)


(Start cutting path id: path3002)
(Change tool to Default tool)

G00 Z15.000000
G00 X54.816008 Y-23.422312

G01 Z10.000000 F100.0(Penetrate)
G02 X53.763562 Y-23.814469 Z10.000000 I-1.856775 J3.374769 F400.000000
G02 X52.852033 Y-23.910701 Z10.000000 I-0.911529 J4.268985
G02 X50.525210 Y-22.890644 Z10.000000 I-0.000000 J3.163851
G02 X49.657316 Y-20.667797 Z10.000000 I2.412625 J2.222847
G02 X50.568088 Y-18.368416 Z10.000000 I3.357951 J-0.000000
G02 X52.999200 Y-17.316795 Z10.000000 I2.431113 J-2.284284
G02 X54.054328 Y-17.434482 Z10.000000 I-0.000000 J-4.788761
G02 X54.649305 Y-17.639784 Z10.000000 I-0.631010 J-2.793495
G01 X54.649305 Y-18.597026 Z10.000000
G03 X53.922591 Y-18.308778 Z10.000000 I-1.672338 J-3.156003
G03 X53.017434 Y-18.186779 Z10.000000 I-0.905157 J-3.296857
G03 X51.353991 Y-18.966396 Z10.000000 I-0.000000 J-2.164425
G03 X50.752610 Y-20.628726 Z10.000000 I1.996803 J-1.662330
G03 X51.404479 Y-22.340387 Z10.000000 I2.573155 J-0.000000
G03 X52.969246 Y-23.042020 Z10.000000 I1.564767 J1.394041
G03 X53.851744 Y-22.907087 Z10.000000 I0.000000 J2.953369
G03 X54.532091 Y-22.612237 Z10.000000 I-1.051998 J3.359769
G01 X54.816008 Y-23.422312 Z10.000000
G01 X54.816008 Y-23.422312 Z10.000000
G00 Z15.000000

(End cutting path id: path3002)


(Start cutting path id: path3006)
(Change tool to Default tool)

G00 Z15.000000
G00 X56.339525 Y-17.376054

G01 Z10.000000 F100.0(Penetrate)
G01 X59.747831 Y-17.376054 Z10.000000 F400.000000
G01 X59.465216 Y-18.216083 Z10.000000
G01 X57.364491 Y-18.216083 Z10.000000
G01 X57.364491 Y-20.101917 Z10.000000
G01 X59.444378 Y-20.101917 Z10.000000
G01 X59.444378 Y-20.940644 Z10.000000
G01 X57.364491 Y-20.940644 Z10.000000
G01 X57.364491 Y-22.973645 Z10.000000
G01 X59.777785 Y-22.973645 Z10.000000
G01 X59.777785 Y-23.813675 Z10.000000
G01 X56.339525 Y-23.813675 Z10.000000
G01 X56.339525 Y-17.376054 Z10.000000
G01 X56.339525 Y-17.376054 Z10.000000
G00 Z15.000000

(End cutting path id: path3006)


(Start cutting path id: path3010)
(Change tool to Default tool)

G00 Z15.000000
G00 X61.517361 Y-17.376054

G01 Z10.000000 F100.0(Penetrate)
G01 X62.522792 Y-17.376054 Z10.000000 F400.000000
G01 X65.345030 Y-21.029205 Z10.000000
G02 X65.825182 Y-21.670198 Z10.000000 I-18.751299 J-14.546463
G02 X66.136872 Y-22.123197 Z10.000000 I-9.535141 J-6.894467
G01 X66.157710 Y-22.123197 Z10.000000
G02 X66.143406 Y-21.615182 Z10.000000 I41.033778 J1.409557
G02 X66.136872 Y-21.020089 Z10.000000 I27.095179 J0.595094
G01 X66.136872 Y-17.376054 Z10.000000
G01 X67.163141 Y-17.376054 Z10.000000
G01 X67.163141 Y-23.813675 Z10.000000
G01 X66.255388 Y-23.813675 Z10.000000
G01 X63.323750 Y-20.013356 Z10.000000
G02 X62.861323 Y-19.398341 Z10.000000 I14.934566 J11.710596
G03 X62.531908 Y-18.948016 Z10.000000 I-31.794648 J-22.912273
G01 X62.512373 Y-18.948016 Z10.000000
G02 X62.533047 Y-19.366299 Z10.000000 I-10.817699 J-0.744337
G02 X62.542327 Y-19.983401 Z10.000000 I-20.513119 J-0.617102
G01 X62.542327 Y-23.813675 Z10.000000
G01 X61.517361 Y-23.813675 Z10.000000
G01 X61.517361 Y-17.376054 Z10.000000
G01 X61.517361 Y-17.376054 Z10.000000
G00 Z15.000000

(End cutting path id: path3010)


(Start cutting path id: path3014)
(Change tool to Default tool)

G00 Z15.000000
G00 X70.367236 Y-18.215689

G01 Z10.000000 F100.0(Penetrate)
G01 X68.500938 Y-18.215689 Z10.000000 F400.000000
G01 X68.500938 Y-17.375660 Z10.000000
G01 X73.423902 Y-17.375660 Z10.000000
G01 X73.151706 Y-18.215689 Z10.000000
G01 X71.393505 Y-18.215689 Z10.000000
G01 X71.393505 Y-23.813281 Z10.000000
G01 X70.367236 Y-23.813281 Z10.000000
G01 X70.367236 Y-18.215689 Z10.000000
G01 X70.367236 Y-18.215689 Z10.000000
G00 Z15.000000

(End cutting path id: path3014)


(Start cutting path id: path3018)
(Change tool to Default tool)

G00 Z15.000000
G00 X74.636148 Y-17.375793

G01 Z10.000000 F100.0(Penetrate)
G01 X76.248484 Y-17.375793 Z10.000000 F400.000000
G02 X77.137924 Y-17.474552 Z10.000000 I0.000000 J-4.054622
G02 X77.644626 Y-17.668827 Z10.000000 I-0.412043 J-1.832595
G02 X78.329294 Y-18.345889 Z10.000000 I-0.709932 J-1.402618
G02 X78.534145 Y-19.183485 Z10.000000 I-1.609954 J-0.837595
G02 X78.154118 Y-20.256445 Z10.000000 I-1.704699 J0.000000
G02 X77.264333 Y-20.863544 Z10.000000 I-1.457478 J1.180531
G01 X77.264333 Y-20.883079 Z10.000000
G02 X77.507313 Y-21.094209 Z10.000000 I-0.361697 J-0.661642
G02 X78.054873 Y-21.918464 Z10.000000 I-7.357278 J-5.481507
G01 X79.159284 Y-23.813415 Z10.000000
G01 X77.976730 Y-23.813415 Z10.000000
G01 X76.990835 Y-22.103401 Z10.000000
G03 X76.475763 Y-21.360525 Z10.000000 I-4.189266 J-2.354622
G03 X76.268019 Y-21.234719 Z10.000000 I-0.290036 J-0.244513
G01 X75.662417 Y-21.234719 Z10.000000
G01 X75.662417 Y-23.813415 Z10.000000
G01 X74.636148 Y-23.813415 Z10.000000
G01 X74.636148 Y-17.375793 Z10.000000
G01 X74.636148 Y-17.375793 Z10.000000
G00 Z15.000000

(End cutting path id: path3018)


(Start cutting path id: path3018)
(Change tool to Default tool)

G00 Z15.000000
G00 X76.209413 Y-20.384271

G01 Z10.000000 F100.0(Penetrate)
G03 X76.659283 Y-20.331607 Z10.000000 I-0.000000 J1.947805 F400.000000
G03 X76.980416 Y-20.208451 Z10.000000 I-0.299205 J1.260445
G03 X77.314960 Y-19.867882 Z10.000000 I-0.483686 J0.809726
G03 X77.468806 Y-19.290279 Z10.000000 I-1.007364 J0.577603
G03 X77.357492 Y-18.788416 Z10.000000 I-1.186996 J-0.000000
G03 X77.049442 Y-18.439831 Z10.000000 I-0.744092 J-0.347159
G03 X76.774128 Y-18.297641 Z10.000000 I-0.519012 J-0.667301
G03 X76.218529 Y-18.215823 Z10.000000 I-0.555598 J-1.845533
G01 X75.662417 Y-18.215823 Z10.000000
G01 X75.662417 Y-20.384271 Z10.000000
G01 X76.209413 Y-20.384271 Z10.000000
G01 X76.209413 Y-20.384271 Z10.000000
G00 Z15.000000

(End cutting path id: path3018)


(Start cutting path id: path3022)
(Change tool to Default tool)

G00 Z15.000000
G00 X80.615335 Y-17.376054

G01 Z10.000000 F100.0(Penetrate)
G01 X84.023641 Y-17.376054 Z10.000000 F400.000000
G01 X83.741026 Y-18.216083 Z10.000000
G01 X81.641604 Y-18.216083 Z10.000000
G01 X81.641604 Y-20.101917 Z10.000000
G01 X83.721491 Y-20.101917 Z10.000000
G01 X83.721491 Y-20.940644 Z10.000000
G01 X81.641604 Y-20.940644 Z10.000000
G01 X81.641604 Y-22.973645 Z10.000000
G01 X84.053596 Y-22.973645 Z10.000000
G01 X84.053596 Y-23.813675 Z10.000000
G01 X80.615335 Y-23.813675 Z10.000000
G01 X80.615335 Y-17.376054 Z10.000000
G01 X80.615335 Y-17.376054 Z10.000000
G00 Z15.000000

(End cutting path id: path3022)


(Start cutting path id: path11973)
(Change tool to Default tool)

G00 Z15.000000
G00 X88.952222 Y-11.784177

G01 Z10.000000 F100.0(Penetrate)
G02 X87.990521 Y-10.577731 Z10.000000 I0.895757 J1.700567 F400.000000
G02 X88.240168 Y-9.107489 Z10.000000 I1.735385 J0.461647
G03 X88.990982 Y-7.903477 Z10.000000 I-15.131552 J10.272041
G03 X89.046029 Y-7.696043 Z10.000000 I-0.363314 J0.207434
G03 X88.941282 Y-7.571104 Z10.000000 I-0.126885 J-0.000000
G03 X87.250987 Y-7.377972 Z10.000000 I-2.410676 J-13.604920
G01 X85.455944 Y-7.284256 Z10.000000
G01 X85.361583 Y-5.643695 Z10.000000
G01 X85.267222 Y-4.003137 Z10.000000
G01 X87.156626 Y-4.003137 Z10.000000
G03 X88.969190 Y-3.926294 Z10.000000 I0.000000 J21.415786
G03 X89.046029 Y-3.842651 Z10.000000 I-0.007105 J0.083643
G03 X88.903380 Y-3.310245 Z10.000000 I-1.064870 J0.000000
G03 X87.837487 Y-1.749240 Z10.000000 I-10.845813 J-6.261381
G02 X87.725135 Y-0.846158 Z10.000000 I0.678866 J0.542987
G02 X88.801410 Y0.368732 Z10.000000 I2.516742 J-1.145406
G02 X90.243907 Y0.719121 Z10.000000 I1.268801 J-2.079000
G02 X90.918383 Y0.217373 Z10.000000 I-0.055703 J-0.779087
G03 X91.257483 Y-0.539948 Z10.000000 I6.692084 J2.541885
G03 X91.740426 Y-1.365548 Z10.000000 I8.440232 J4.383147
G01 X92.266471 Y-2.169179 Z10.000000
G01 X93.179470 Y-0.586258 Z10.000000
G02 X94.131268 Y0.929509 Z10.000000 I20.656100 J-11.913897
G02 X94.258332 Y0.996677 Z10.000000 I0.127064 J-0.086602
G02 X96.226659 Y0.372769 Z10.000000 I-0.000000 J-3.416828
G02 X96.850564 Y-0.830211 Z10.000000 I-0.847807 J-1.202980
G02 X96.759289 Y-1.267314 Z10.000000 I-1.092251 J-0.000000
G02 X96.056952 Y-2.647595 Z10.000000 I-12.040299 J5.257716
G01 X95.263339 Y-4.003123 Z10.000000
G01 X97.149589 Y-4.003123 Z10.000000
G01 X99.035835 Y-4.003123 Z10.000000
G01 X99.035835 Y-5.721803 Z10.000000
G01 X99.035835 Y-7.440487 Z10.000000
G01 X97.318838 Y-7.440487 Z10.000000
G03 X96.200208 Y-8.023235 Z10.000000 I0.000000 J-1.365023
G03 X96.226204 Y-9.002922 Z10.000000 I0.675330 J-0.472269
G02 X96.518344 Y-10.475246 Z10.000000 I-1.312377 J-1.025548
G02 X95.464041 Y-11.740086 Z10.000000 I-1.930878 J0.537650
G01 X94.077519 Y-12.414368 Z10.000000
G01 X93.145875 Y-10.799119 Z10.000000
G01 X92.214228 Y-9.183862 Z10.000000
G01 X91.644717 Y-10.221322 Z10.000000
G02 X91.040910 Y-11.235683 Z10.000000 I-14.831891 J8.141924
G02 X90.606937 Y-11.833946 Z10.000000 I-5.577557 J3.589359
G02 X90.071245 Y-12.078788 Z10.000000 I-0.515696 J0.419853
G02 X88.952222 Y-11.784166 Z10.000000 I0.077183 J2.565579
G01 X88.952222 Y-11.784177 Z10.000000
G00 Z15.000000

(End cutting path id: path11973)


(Start cutting path id: path2990)
(Change tool to Default tool)

G00 Z15.000000
G00 X28.488704 Y-17.376054

G01 Z10.000000 F100.0(Penetrate)
G01 X29.494135 Y-17.376054 Z10.000000 F400.000000
G01 X32.316373 Y-21.029205 Z10.000000
G02 X32.796525 Y-21.670198 Z10.000000 I-18.751299 J-14.546463
G02 X33.108215 Y-22.123197 Z10.000000 I-9.535141 J-6.894467
G01 X33.129053 Y-22.123197 Z10.000000
G02 X33.114749 Y-21.615182 Z10.000000 I41.033778 J1.409557
G02 X33.108215 Y-21.020089 Z10.000000 I27.095179 J0.595094
G01 X33.108215 Y-17.376054 Z10.000000
G01 X34.134484 Y-17.376054 Z10.000000
G01 X34.134484 Y-23.813675 Z10.000000
G01 X33.226731 Y-23.813675 Z10.000000
G01 X30.295093 Y-20.013356 Z10.000000
G02 X29.832666 Y-19.398341 Z10.000000 I14.934566 J11.710596
G03 X29.503251 Y-18.948016 Z10.000000 I-31.794648 J-22.912273
G01 X29.483716 Y-18.948016 Z10.000000
G02 X29.504390 Y-19.366299 Z10.000000 I-10.817699 J-0.744337
G02 X29.513670 Y-19.983401 Z10.000000 I-20.513119 J-0.617102
G01 X29.513670 Y-23.813675 Z10.000000
G01 X28.488704 Y-23.813675 Z10.000000
G01 X28.488704 Y-17.376054 Z10.000000
G01 X28.488704 Y-17.376054 Z10.000000
G00 Z15.000000

(End cutting path id: path2990)


(Start cutting path id: path2986)
(Change tool to Default tool)

G00 Z15.000000
G00 X23.310868 Y-17.376054

G01 Z10.000000 F100.0(Penetrate)
G01 X26.719174 Y-17.376054 Z10.000000 F400.000000
G01 X26.436559 Y-18.216083 Z10.000000
G01 X24.337137 Y-18.216083 Z10.000000
G01 X24.337137 Y-20.101917 Z10.000000
G01 X26.415721 Y-20.101917 Z10.000000
G01 X26.415721 Y-20.940644 Z10.000000
G01 X24.337137 Y-20.940644 Z10.000000
G01 X24.337137 Y-22.973645 Z10.000000
G01 X26.749128 Y-22.973645 Z10.000000
G01 X26.749128 Y-23.813675 Z10.000000
G01 X23.310868 Y-23.813675 Z10.000000
G01 X23.310868 Y-17.376054 Z10.000000
G01 X23.310868 Y-17.376054 Z10.000000
G00 Z15.000000

(End cutting path id: path2986)


(Start cutting path id: path2982)
(Change tool to Default tool)

G00 Z15.000000
G00 X20.301219 Y-17.376442

G01 Z10.000000 F100.0(Penetrate)
G01 X21.327484 Y-17.376442 Z10.000000 F400.000000
G01 X21.327484 Y-23.814065 Z10.000000
G01 X20.301219 Y-23.814065 Z10.000000
G01 X20.301219 Y-17.376442 Z10.000000
G01 X20.301219 Y-17.376442 Z10.000000
G00 Z15.000000

(End cutting path id: path2982)


(Start cutting path id: path2980)
(Change tool to Default tool)

G00 Z15.000000
G00 X18.777444 Y-23.422312

G01 Z10.000000 F100.0(Penetrate)
G02 X17.724998 Y-23.814469 Z10.000000 I-1.856775 J3.374769 F400.000000
G02 X16.813468 Y-23.910701 Z10.000000 I-0.911529 J4.268985
G02 X14.487452 Y-22.890515 Z10.000000 I0.000000 J3.161741
G02 X13.620054 Y-20.667797 Z10.000000 I2.414171 J2.222718
G02 X14.530856 Y-18.367990 Z10.000000 I3.358946 J-0.000000
G02 X16.960636 Y-17.316795 Z10.000000 I2.429780 J-2.282555
G02 X18.017687 Y-17.434695 Z10.000000 I-0.000000 J-4.797557
G02 X18.610741 Y-17.639784 Z10.000000 I-0.625250 J-2.768040
G01 X18.610741 Y-18.597026 Z10.000000
G03 X17.884750 Y-18.308644 Z10.000000 I-1.665108 J-3.133820
G03 X16.980172 Y-18.186779 Z10.000000 I-0.904578 J-3.296338
G03 X15.315434 Y-18.966828 Z10.000000 I0.000000 J-2.166423
G03 X14.714046 Y-20.628726 Z10.000000 I1.995582 J-1.661898
G03 X15.365910 Y-22.339955 Z10.000000 I2.572033 J0.000000
G03 X16.931984 Y-23.042020 Z10.000000 I1.566074 J1.395665
G03 X17.814482 Y-22.907087 Z10.000000 I-0.000000 J2.953369
G03 X18.494830 Y-22.612237 Z10.000000 I-1.051998 J3.359769
G01 X18.777444 Y-23.422312 Z10.000000
G01 X18.777444 Y-23.422312 Z10.000000
G00 Z15.000000

(End cutting path id: path2980)


(Start cutting path id: path2976)
(Change tool to Default tool)

G00 Z15.000000
G00 X8.559169 Y-22.592050

G01 Z10.000000 F100.0(Penetrate)
G03 X9.125403 Y-22.883589 Z10.000000 I1.573066 J2.359598 F400.000000
G03 X9.985265 Y-23.041368 Z10.000000 I0.859863 J2.264146
G03 X10.760135 Y-22.838610 Z10.000000 I0.000000 J1.582020
G03 X11.139166 Y-22.190919 Z10.000000 I-0.363873 J0.647691
G03 X9.986593 Y-20.902371 Z10.000000 I-1.296569 J0.000000
G02 X8.335161 Y-19.056111 Z10.000000 I0.206320 J1.846260
G02 X8.814668 Y-17.937932 Z10.000000 I1.543515 J0.000000
G02 X10.366860 Y-17.317446 Z10.000000 I1.552192 J-1.631219
G02 X11.339327 Y-17.434403 Z10.000000 I-0.000000 J-4.101362
G02 X11.881518 Y-17.640434 Z10.000000 I-0.557060 J-2.282393
G01 X11.881518 Y-18.567722 Z10.000000
G03 X11.139243 Y-18.283239 Z10.000000 I-1.704033 J-3.335555
G03 X10.395512 Y-18.186127 Z10.000000 I-0.743731 J-2.799386
G03 X9.770525 Y-18.358028 Z10.000000 I0.000000 J-1.222097
G03 X9.429153 Y-18.958434 Z10.000000 I0.357310 J-0.600405
G03 X10.507011 Y-20.171966 Z10.000000 I1.222071 J0.000000
G02 X12.222739 Y-22.103660 Z10.000000 I-0.229558 J-1.931694
G02 X11.607048 Y-23.362224 Z10.000000 I-1.594192 J0.000000
G02 X10.006103 Y-23.911352 Z10.000000 I-1.600945 J2.059162
G02 X8.896515 Y-23.744604 Z10.000000 I-0.000000 J3.775142
G02 X8.148922 Y-23.373472 Z10.000000 I0.758312 J2.466040
G01 X8.559169 Y-22.592050 Z10.000000
G01 X8.559169 Y-22.592050 Z10.000000
G00 Z15.000000

(End cutting path id: path2976)


(Start cutting path id: path2972)
(Change tool to Default tool)

G00 Z15.000000
G00 X-4.541516 Y-17.376054

G01 Z10.000000 F100.0(Penetrate)
G01 X-3.046394 Y-17.376054 Z10.000000 F400.000000
G01 X-1.883376 Y-21.029205 Z10.000000
G02 X-1.751854 Y-21.476561 Z10.000000 I-10.297822 J-3.270553
G02 X-1.620297 Y-21.977331 Z10.000000 I-33.508807 J-9.070749
G01 X-1.591645 Y-21.977331 Z10.000000
G02 X-1.449493 Y-21.484740 Z10.000000 I12.174737 J-3.246597
G02 X-1.298612 Y-21.029205 Z10.000000 I12.352651 J-3.838650
G01 X-0.457280 Y-18.518233 Z10.000000
G01 X-0.867527 Y-17.376054 Z10.000000
G01 X0.460892 Y-17.376054 Z10.000000
G01 X1.681214 Y-20.931527 Z10.000000
G02 X1.864965 Y-21.460902 Z10.000000 I-18.708592 J-6.790526
G02 X2.013319 Y-21.966912 Z10.000000 I-7.186816 J-2.381798
G01 X2.043273 Y-21.966912 Z10.000000
G02 X2.162754 Y-21.468891 Z10.000000 I14.887153 J-3.308256
G02 X2.307654 Y-20.951063 Z10.000000 I12.644808 J-3.259123
G01 X3.380808 Y-17.376054 Z10.000000
G01 X4.739182 Y-17.376054 Z10.000000
G01 X2.560314 Y-23.861863 Z10.000000
G01 X1.418135 Y-23.861863 Z10.000000
G01 X0.470009 Y-21.233677 Z10.000000
G03 X0.289202 Y-20.726552 Z10.000000 I-129.826448 J-46.001497
G02 X0.147020 Y-20.267318 Z10.000000 I5.121613 J1.837309
G01 X0.128787 Y-20.267318 Z10.000000
G02 X-0.013866 Y-20.737283 Z10.000000 I-12.699893 J3.598303
G02 X-0.174665 Y-21.224561 Z10.000000 I-44.905354 J14.548342
G01 X-1.122792 Y-23.861863 Z10.000000
G01 X-2.236319 Y-23.861863 Z10.000000
G01 X-4.541516 Y-17.376054 Z10.000000
G01 X-4.541516 Y-17.376054 Z10.000000
G00 Z15.000000

(End cutting path id: path2972)


(Start cutting path id: path2968)
(Change tool to Default tool)

G00 Z15.000000
G00 X-9.240470 Y-17.376054

G01 Z10.000000 F100.0(Penetrate)
G01 X-5.518293 Y-17.376054 Z10.000000 F400.000000
G01 X-5.859514 Y-18.459627 Z10.000000
G01 X-7.901633 Y-18.459627 Z10.000000
G01 X-7.901633 Y-19.993820 Z10.000000
G01 X-5.859514 Y-19.993820 Z10.000000
G01 X-5.859514 Y-21.068276 Z10.000000
G01 X-7.901633 Y-21.068276 Z10.000000
G01 X-7.901633 Y-22.728800 Z10.000000
G01 X-5.528712 Y-22.728800 Z10.000000
G01 X-5.528712 Y-23.813675 Z10.000000
G01 X-9.240470 Y-23.813675 Z10.000000
G01 X-9.240470 Y-17.376054 Z10.000000
G01 X-9.240470 Y-17.376054 Z10.000000
G00 Z15.000000

(End cutting path id: path2968)


(Start cutting path id: path2964)
(Change tool to Default tool)

G00 Z15.000000
G00 X-17.114086 Y-17.376054

G01 Z10.000000 F100.0(Penetrate)
G01 X-15.776551 Y-17.376054 Z10.000000 F400.000000
G01 X-13.118411 Y-20.766126 Z10.000000
G02 X-12.762273 Y-21.233132 Z10.000000 I-22.289245 J-17.367037
G02 X-12.473737 Y-21.645227 Z10.000000 I-6.657624 J-4.968520
G01 X-12.454201 Y-21.645227 Z10.000000
G02 X-12.468580 Y-21.088478 Z10.000000 I50.223319 J1.575634
G02 X-12.473737 Y-20.579887 Z10.000000 I25.076861 J0.508591
G01 X-12.473737 Y-17.376054 Z10.000000
G01 X-11.134899 Y-17.376054 Z10.000000
G01 X-11.134899 Y-23.813675 Z10.000000
G01 X-12.356524 Y-23.813675 Z10.000000
G01 X-15.121458 Y-20.286853 Z10.000000
G02 X-15.461443 Y-19.828763 Z10.000000 I45.424047 J34.068035
G03 X-15.785667 Y-19.397334 Z10.000000 I-19.747919 J-14.503234
G01 X-15.805203 Y-19.397334 Z10.000000
G02 X-15.778902 Y-19.803008 Z10.000000 I-3.591412 J-0.436525
G02 X-15.776551 Y-20.354577 Z10.000000 I-64.678093 J-0.551569
G01 X-15.776551 Y-23.813675 Z10.000000
G01 X-17.114086 Y-23.813675 Z10.000000
G01 X-17.114086 Y-17.376054 Z10.000000
G01 X-17.114086 Y-17.376054 Z10.000000
G00 Z15.000000

(End cutting path id: path2964)


(Start cutting path id: path2960)
(Change tool to Default tool)

G00 Z15.000000
G00 X-24.734262 Y-17.376054

G01 Z10.000000 F100.0(Penetrate)
G01 X-21.324654 Y-17.376054 Z10.000000 F400.000000
G01 X-21.608571 Y-18.216083 Z10.000000
G01 X-23.707994 Y-18.216083 Z10.000000
G01 X-23.707994 Y-20.101917 Z10.000000
G01 X-21.628107 Y-20.101917 Z10.000000
G01 X-21.628107 Y-20.940644 Z10.000000
G01 X-23.707994 Y-20.940644 Z10.000000
G01 X-23.707994 Y-22.973645 Z10.000000
G01 X-21.296002 Y-22.973645 Z10.000000
G01 X-21.296002 Y-23.813675 Z10.000000
G01 X-24.734262 Y-23.813675 Z10.000000
G01 X-24.734262 Y-17.376054 Z10.000000
G01 X-24.734262 Y-17.376054 Z10.000000
G00 Z15.000000

(End cutting path id: path2960)


(Start cutting path id: path2956)
(Change tool to Default tool)

G00 Z15.000000
G00 X-32.031707 Y-17.376054

G01 Z10.000000 F100.0(Penetrate)
G01 X-31.005438 Y-17.376054 Z10.000000 F400.000000
G01 X-31.005438 Y-20.091498 Z10.000000
G01 X-27.742998 Y-20.091498 Z10.000000
G01 X-27.742998 Y-17.376054 Z10.000000
G01 X-26.718032 Y-17.376054 Z10.000000
G01 X-26.718032 Y-23.813675 Z10.000000
G01 X-27.742998 Y-23.813675 Z10.000000
G01 X-27.742998 Y-20.960179 Z10.000000
G01 X-31.005438 Y-20.960179 Z10.000000
G01 X-31.005438 Y-23.813675 Z10.000000
G01 X-32.031707 Y-23.813675 Z10.000000
G01 X-32.031707 Y-17.376054 Z10.000000
G01 X-32.031707 Y-17.376054 Z10.000000
G00 Z15.000000

(End cutting path id: path2956)


(Start cutting path id: path2952)
(Change tool to Default tool)

G00 Z15.000000
G00 X-36.300879 Y-18.215689

G01 Z10.000000 F100.0(Penetrate)
G01 X-38.167177 Y-18.215689 Z10.000000 F400.000000
G01 X-38.167177 Y-17.375660 Z10.000000
G01 X-33.242912 Y-17.375660 Z10.000000
G01 X-33.516410 Y-18.215689 Z10.000000
G01 X-35.274611 Y-18.215689 Z10.000000
G01 X-35.274611 Y-23.813281 Z10.000000
G01 X-36.300879 Y-23.813281 Z10.000000
G01 X-36.300879 Y-18.215689 Z10.000000
G01 X-36.300879 Y-18.215689 Z10.000000
G00 Z15.000000

(End cutting path id: path2952)


(Start cutting path id: path12023)
(Change tool to Default tool)

G00 Z15.000000
G00 X-33.960968 Y16.419285

G01 Z10.000000 F100.0(Penetrate)
G02 X-30.583977 Y15.771025 Z10.000000 I0.105533 J-8.570284 F400.000000
G02 X-27.681523 Y13.826368 Z10.000000 I-3.378063 J-8.180175
G02 X-26.136995 Y11.880344 Z10.000000 I-7.963310 J-7.906298
G02 X-25.238537 Y9.919354 Z10.000000 I-7.031499 J-4.407906
G02 X-24.710305 Y7.789447 Z10.000000 I-18.667931 J-5.760237
G02 X-24.585898 Y6.462132 Z10.000000 I-7.018467 J-1.327314
G02 X-25.522388 Y1.865471 Z10.000000 I-11.749350 J0.000000
G02 X-27.857912 Y-1.237243 Z10.000000 I-7.418151 J3.153535
G03 X-28.483162 Y-1.755313 Z10.000000 I26.495904 J-32.613751
G03 X-29.233745 Y-2.401409 Z10.000000 I34.982614 J-41.399080
G02 X-30.041305 Y-2.951572 Z10.000000 I-2.650755 J3.023158
G02 X-31.112287 Y-3.371548 Z10.000000 I-2.576761 J4.995453
G02 X-35.776341 Y-3.675744 Z10.000000 I-3.059638 J11.003952
G02 X-38.485343 Y-2.322034 Z10.000000 I0.671183 J4.730591
G03 X-39.061110 Y-1.806952 Z10.000000 I-4.876143 J-4.871287
G03 X-39.737704 Y-1.316618 Z10.000000 I-5.591610 J-7.003684
G02 X-40.314559 Y-0.749529 Z10.000000 I1.136894 J1.733413
G02 X-41.483954 Y1.241021 Z10.000000 I14.380641 J9.787012
G02 X-42.227919 Y3.412661 Z10.000000 I7.640321 J3.830693
G02 X-42.542287 Y6.620882 Z10.000000 I16.213249 J3.208222
G02 X-42.249313 Y9.820906 Z10.000000 I17.622647 J-0.000000
G02 X-41.660343 Y11.401021 Z10.000000 I4.784193 J-0.883429
G02 X-38.058279 Y15.174687 Z10.000000 I9.817469 J-5.765068
G02 X-33.960968 Y16.419285 Z10.000000 I4.191816 J-6.433147
G01 X-33.960968 Y16.419285 Z10.000000
G00 Z15.000000

(End cutting path id: path12023)


(Start cutting path id: path12023)
(Change tool to Default tool)

G00 Z15.000000
G00 X-32.020690 Y25.644424

G01 Z10.000000 F100.0(Penetrate)
G03 X-32.591560 Y25.629216 Z10.000000 I0.361277 J-24.283181 F400.000000
G03 X-33.246593 Y25.600327 Z10.000000 I2.214219 J-57.646062
G03 X-38.163034 Y24.682894 Z10.000000 I0.925705 J-18.592880
G03 X-41.501593 Y22.866299 Z10.000000 I3.347761 J-10.128669
G02 X-42.691913 Y22.017918 Z10.000000 I-7.875321 J9.790227
G02 X-42.992079 Y21.931438 Z10.000000 I-0.300166 J0.477689
G02 X-43.176011 Y22.078137 Z10.000000 I0.000000 J0.188657
G02 X-43.318399 Y23.342549 Z10.000000 I5.542852 J1.264412
G01 X-43.318399 Y24.744841 Z10.000000
G01 X-48.001524 Y24.744841 Z10.000000
G01 X-52.684649 Y24.744841 Z10.000000
G01 X-52.684649 Y0.367896 Z10.000000
G01 X-52.684649 Y-24.000229 Z10.000000
G01 X-47.842774 Y-24.000229 Z10.000000
G01 X-43.009718 Y-24.000229 Z10.000000
G01 X-43.009718 Y-16.503701 Z10.000000
G02 X-42.911573 Y-9.100548 Z10.000000 I279.263133 J0.000000
G02 X-42.815690 Y-9.007173 Z10.000000 I0.095883 J-0.002543
G02 X-42.645485 Y-9.059618 Z10.000000 I0.000000 J-0.302415
G02 X-41.457496 Y-9.933215 Z10.000000 I-11.443443 J-16.806306
G03 X-38.959337 Y-11.385226 Z10.000000 I6.262093 J7.898793
G03 X-34.887009 Y-12.579048 Z10.000000 I8.137878 J20.217061
G03 X-32.384749 Y-12.819222 Z10.000000 I2.553379 J13.447474
G03 X-29.992218 Y-12.596687 Z10.000000 I0.046578 J12.471883
G03 X-25.956032 Y-11.444318 Z10.000000 I-4.447400 J23.221650
G03 X-23.024856 Y-9.915576 Z10.000000 I-5.225566 J13.593837
G03 X-16.225419 Y-1.163216 Z10.000000 I-9.992087 J14.779859
G03 X-15.369579 Y11.401021 Z10.000000 I-21.699865 J7.789401
G03 X-18.904285 Y19.097527 Z10.000000 I-18.822604 J-3.984562
G03 X-24.947495 Y23.942271 Z10.000000 I-12.810730 J-9.788332
G03 X-28.725564 Y25.268509 Z10.000000 I-8.805198 J-19.039040
G03 X-32.020690 Y25.644424 Z10.000000 I-3.103138 J-12.571044
G01 X-32.020690 Y25.644424 Z10.000000
G00 Z15.000000

(End cutting path id: path12023)


(Start cutting path id: path2940)
(Change tool to Default tool)

G00 Z15.000000
G00 X-30.529682 Y29.187890

G01 Z10.000000 F100.0(Penetrate)
G01 X-30.529682 Y43.086796 Z10.000000 F400.000000
G01 X-27.978336 Y43.086796 Z10.000000
G01 X-27.978336 Y31.340710 Z10.000000
G01 X-23.001975 Y31.340710 Z10.000000
G01 X-23.001975 Y29.187890 Z10.000000
G01 X-30.529682 Y29.187890 Z10.000000
G01 X-30.529682 Y29.187890 Z10.000000
G00 Z15.000000

(End cutting path id: path2940)


(Start cutting path id: path2912)
(Change tool to Default tool)

G00 Z15.000000
G00 X-30.529682 Y29.187900

G01 Z10.000000 F100.0(Penetrate)
G01 X-30.529682 Y43.086807 Z10.000000 F400.000000
G01 X-27.978336 Y43.086807 Z10.000000
G01 X-27.978336 Y31.340720 Z10.000000
G01 X-23.001975 Y31.340720 Z10.000000
G01 X-23.001975 Y29.187900 Z10.000000
G01 X-30.529682 Y29.187900 Z10.000000
G01 X-30.529682 Y29.187900 Z10.000000
G00 Z15.000000

(End cutting path id: path2912)


(Start cutting path id: path2908)
(Change tool to Default tool)

G00 Z15.000000
G00 X-40.761504 Y29.187900

G01 Z10.000000 F100.0(Penetrate)
G01 X-40.761504 Y43.086807 Z10.000000 F400.000000
G01 X-33.021511 Y43.086807 Z10.000000
G01 X-33.718280 Y40.954825 Z10.000000
G01 X-38.207554 Y40.954825 Z10.000000
G01 X-38.207554 Y37.349861 Z10.000000
G01 X-33.718280 Y37.349861 Z10.000000
G01 X-33.718280 Y35.220484 Z10.000000
G01 X-38.207554 Y35.220484 Z10.000000
G01 X-38.207554 Y31.318580 Z10.000000
G01 X-33.021511 Y31.318580 Z10.000000
G01 X-33.021511 Y29.187900 Z10.000000
G01 X-40.761504 Y29.187900 Z10.000000
G01 X-40.761504 Y29.187900 Z10.000000
G00 Z15.000000

(End cutting path id: path2908)


(Start cutting path id: path2936)
(Change tool to Default tool)

G00 Z15.000000
G00 X-40.761504 Y29.187890

G01 Z10.000000 F100.0(Penetrate)
G01 X-40.761504 Y43.086796 Z10.000000 F400.000000
G01 X-33.021510 Y43.086796 Z10.000000
G01 X-33.718281 Y40.954816 Z10.000000
G01 X-38.207555 Y40.954816 Z10.000000
G01 X-38.207555 Y37.349854 Z10.000000
G01 X-33.718281 Y37.349854 Z10.000000
G01 X-33.718281 Y35.220475 Z10.000000
G01 X-38.207555 Y35.220475 Z10.000000
G01 X-38.207555 Y31.318569 Z10.000000
G01 X-33.021510 Y31.318569 Z10.000000
G01 X-33.021510 Y29.187890 Z10.000000
G01 X-40.761504 Y29.187890 Z10.000000
G01 X-40.761504 Y29.187890 Z10.000000
G00 Z15.000000

(End cutting path id: path2936)


(Start cutting path id: path2932)
(Change tool to Default tool)

G00 Z15.000000
G00 X-42.825240 Y40.954293

G01 Z10.000000 F100.0(Penetrate)
G01 X-46.621651 Y40.954293 Z10.000000 F400.000000
G01 X-46.621651 Y29.187368 Z10.000000
G01 X-49.193835 Y29.187368 Z10.000000
G01 X-49.193835 Y40.954293 Z10.000000
G01 X-53.222070 Y40.954293 Z10.000000
G01 X-53.222070 Y43.087576 Z10.000000
G01 X-42.214426 Y43.087576 Z10.000000
G01 X-42.825240 Y40.954293 Z10.000000
G01 X-42.825240 Y40.954293 Z10.000000
G00 Z15.000000

(End cutting path id: path2932)


(Start cutting path id: path2904)
(Change tool to Default tool)

G00 Z15.000000
G00 X-42.825240 Y40.954308

G01 Z10.000000 F100.0(Penetrate)
G01 X-46.621652 Y40.954308 Z10.000000 F400.000000
G01 X-46.621652 Y29.187383 Z10.000000
G01 X-49.193835 Y29.187383 Z10.000000
G01 X-49.193835 Y40.954308 Z10.000000
G01 X-53.222070 Y40.954308 Z10.000000
G01 X-53.222070 Y43.087592 Z10.000000
G01 X-42.214428 Y43.087592 Z10.000000
G01 X-42.825240 Y40.954308 Z10.000000
G01 X-42.825240 Y40.954308 Z10.000000
G00 Z15.000000

(End cutting path id: path2904)


(Start cutting path id: path2900)
(Change tool to Default tool)

G00 Z15.000000
G00 X-53.222070 Y40.954696

G01 Z10.000000 F100.0(Penetrate)
G01 X-53.222070 Y43.086677 Z10.000000 F400.000000
G01 X-53.222070 Y40.954696 Z10.000000
G01 X-53.222070 Y40.954696 Z10.000000
G00 Z15.000000

(End cutting path id: path2900)


(Start cutting path id: path2944)
(Change tool to Default tool)

G00 Z15.000000
G00 X-11.477032 Y30.518130

G01 Z10.000000 F100.0(Penetrate)
G02 X-13.086974 Y29.487396 Z10.000000 I-3.139601 J3.131176 F400.000000
G02 X-15.945467 Y28.978728 Z10.000000 I-2.858493 J7.777415
G02 X-18.710072 Y29.410206 Z10.000000 I0.000000 J9.072551
G02 X-20.270643 Y30.348822 Z10.000000 I1.207559 J3.774358
G02 X-21.306614 Y32.038061 Z10.000000 I2.698348 J2.817123
G02 X-21.639435 Y34.291099 Z10.000000 I7.459602 J2.253038
G01 X-21.639435 Y43.087318 Z10.000000
G01 X-19.086787 Y43.087318 Z10.000000
G01 X-19.086787 Y34.460408 Z10.000000
G03 X-18.854661 Y33.027069 Z10.000000 I4.541363 J0.000000
G03 X-18.266293 Y32.013252 Z10.000000 I2.735405 J0.909851
G03 X-17.346214 Y31.403084 Z10.000000 I1.718162 J1.592055
G03 X-15.903793 Y31.149779 Z10.000000 I1.442421 J3.980202
G03 X-14.263047 Y31.436304 Z10.000000 I0.000000 J4.841015
G03 X-13.373283 Y32.013252 Z10.000000 I-0.789972 J2.192854
G03 X-12.833124 Y32.964426 Z10.000000 I-1.773401 J1.636053
G03 X-12.634842 Y34.332776 Z10.000000 I-4.622369 J1.368350
G01 X-12.634842 Y43.087318 Z10.000000
G01 X-10.083496 Y43.087318 Z10.000000
G01 X-10.083496 Y34.418731 Z10.000000
G02 X-10.458780 Y32.150590 Z10.000000 I-7.041738 J-0.000000
G02 X-11.477032 Y30.518130 Z10.000000 I-3.998990 J1.360584
G00 Z15.000000

(End cutting path id: path2944)


(Start cutting path id: path2924)
(Change tool to Default tool)

G00 Z15.000000
G00 X-11.477032 Y30.518130

G01 Z10.000000 F100.0(Penetrate)
G02 X-13.086973 Y29.487395 Z10.000000 I-3.139598 J3.131170 F400.000000
G02 X-15.945468 Y28.978727 Z10.000000 I-2.858494 J7.777420
G02 X-18.710070 Y29.410205 Z10.000000 I0.000000 J9.072544
G02 X-20.270643 Y30.348822 Z10.000000 I1.207561 J3.774363
G02 X-21.306614 Y32.038061 Z10.000000 I2.698355 J2.817127
G02 X-21.639435 Y34.291100 Z10.000000 I7.459590 J2.253039
G01 X-21.639435 Y43.087315 Z10.000000
G01 X-19.086787 Y43.087315 Z10.000000
G01 X-19.086787 Y34.460408 Z10.000000
G03 X-18.854661 Y33.027070 Z10.000000 I4.541371 J0.000000
G03 X-18.266294 Y32.013252 Z10.000000 I2.735394 J0.909845
G03 X-17.346213 Y31.403085 Z10.000000 I1.718163 J1.592059
G03 X-15.903792 Y31.149780 Z10.000000 I1.442421 J3.980211
G03 X-14.263046 Y31.436305 Z10.000000 I0.000000 J4.841022
G03 X-13.373285 Y32.013252 Z10.000000 I-0.789963 J2.192834
G03 X-12.833123 Y32.964428 Z10.000000 I-1.773411 J1.636062
G03 X-12.634840 Y34.332776 Z10.000000 I-4.622326 J1.368348
G01 X-12.634840 Y43.087315 Z10.000000
G01 X-10.083495 Y43.087315 Z10.000000
G01 X-10.083495 Y34.418732 Z10.000000
G02 X-10.458780 Y32.150590 Z10.000000 I-7.041723 J0.000000
G02 X-11.477032 Y30.518130 Z10.000000 I-3.999005 J1.360594
G00 Z15.000000

(End cutting path id: path2924)


(Start cutting path id: path2948)
(Change tool to Default tool)

G00 Z15.000000
G00 X-3.633762 Y28.978075

G01 Z10.000000 F100.0(Penetrate)
G02 X-6.447474 Y29.485042 Z10.000000 I0.000000 J8.061668 F400.000000
G02 X-7.913355 Y30.243980 Z10.000000 I2.382483 J6.396870
G01 X-6.880574 Y32.120697 Z10.000000
G03 X-5.651857 Y31.447735 Z10.000000 I3.798791 J5.477763
G03 X-3.740557 Y31.064474 Z10.000000 I1.911300 J4.574141
G03 X-2.217353 Y31.419705 Z10.000000 I0.000000 J3.443309
G03 X-1.440569 Y32.668995 Z10.000000 I-0.616216 J1.249291
G03 X-3.039592 Y34.760974 Z10.000000 I-2.167964 J0.000000
G02 X-6.500282 Y36.906912 Z10.000000 I1.871553 J6.881642
G02 X-7.119889 Y37.900020 Z10.000000 I2.517990 J2.260834
G02 X-7.410639 Y39.395743 Z10.000000 I3.701888 J1.495723
G02 X-6.367159 Y41.821911 Z10.000000 I3.342249 J0.000000
G02 X-2.873178 Y43.214296 Z10.000000 I3.493981 J-3.687620
G02 X-0.670922 Y42.923960 Z10.000000 I0.000000 J-8.497430
G02 X0.542942 Y42.431571 Z10.000000 I-1.381329 J-5.147767
G01 X0.498662 Y40.155026 Z10.000000
G03 X-1.131332 Y40.864742 Z10.000000 I-4.643657 J-8.438363
G03 X-2.746848 Y41.123990 Z10.000000 I-1.615516 J-4.903954
G03 X-4.197422 Y40.707868 Z10.000000 I0.000000 J-2.736366
G03 X-4.749895 Y39.710917 Z10.000000 I0.623276 J-0.996951
G03 X-2.510919 Y37.195711 Z10.000000 I2.532246 J0.000000
G02 X1.256642 Y32.963331 Z10.000000 I-0.493492 J-4.232379
G02 X-0.128299 Y30.163364 Z10.000000 I-3.522851 J0.000000
G02 X-3.633762 Y28.978075 Z10.000000 I-3.505463 J4.591019
G00 Z15.000000

(End cutting path id: path2948)


(Start cutting path id: path2928)
(Change tool to Default tool)

G00 Z15.000000
G00 X-3.633762 Y28.978075

G01 Z10.000000 F100.0(Penetrate)
G02 X-6.447474 Y29.485042 Z10.000000 I0.000000 J8.061668 F400.000000
G02 X-7.913355 Y30.243980 Z10.000000 I2.382483 J6.396870
G01 X-6.880574 Y32.120697 Z10.000000
G03 X-5.651857 Y31.447735 Z10.000000 I3.798791 J5.477763
G03 X-3.740557 Y31.064474 Z10.000000 I1.911300 J4.574141
G03 X-2.217353 Y31.419705 Z10.000000 I0.000000 J3.443309
G03 X-1.440569 Y32.668995 Z10.000000 I-0.616216 J1.249291
G03 X-3.039592 Y34.760974 Z10.000000 I-2.167964 J0.000000
G02 X-6.500282 Y36.906912 Z10.000000 I1.871553 J6.881642
G02 X-7.119889 Y37.900020 Z10.000000 I2.517990 J2.260834
G02 X-7.410639 Y39.395743 Z10.000000 I3.701888 J1.495723
G02 X-6.367159 Y41.821911 Z10.000000 I3.342249 J0.000000
G02 X-2.873178 Y43.214296 Z10.000000 I3.493981 J-3.687620
G02 X-0.670922 Y42.923960 Z10.000000 I0.000000 J-8.497430
G02 X0.542942 Y42.431571 Z10.000000 I-1.381329 J-5.147767
G01 X0.498662 Y40.155026 Z10.000000
G03 X-1.131332 Y40.864742 Z10.000000 I-4.643657 J-8.438363
G03 X-2.746848 Y41.123990 Z10.000000 I-1.615516 J-4.903954
G03 X-4.197422 Y40.707868 Z10.000000 I0.000000 J-2.736366
G03 X-4.749895 Y39.710917 Z10.000000 I0.623276 J-0.996951
G03 X-2.510919 Y37.195711 Z10.000000 I2.532246 J0.000000
G02 X1.256642 Y32.963331 Z10.000000 I-0.493492 J-4.232379
G02 X-0.128299 Y30.163364 Z10.000000 I-3.522851 J0.000000
G02 X-3.633762 Y28.978075 Z10.000000 I-3.505463 J4.591019
G00 Z15.000000

(End cutting path id: path2928)


(Start cutting path id: path11977)
(Change tool to Default tool)

G00 Z15.000000
G00 X4.562366 Y25.829632

G01 Z10.000000 F100.0(Penetrate)
G03 X-6.175499 Y22.842080 Z10.000000 I0.337413 J-22.003534 F400.000000
G03 X-11.744787 Y16.216438 Z10.000000 I6.450746 J-11.075773
G03 X-12.408801 Y14.117866 Z10.000000 I21.450619 J-7.941578
G03 X-12.190052 Y13.502645 Z10.000000 I0.559073 J-0.147715
G03 X-11.425790 Y13.241011 Z10.000000 I0.805907 J1.107081
G03 X-7.582009 Y13.182549 Z10.000000 I3.843781 J126.331070
G01 X-2.757773 Y13.182549 Z10.000000
G01 X-2.043398 Y14.443729 Z10.000000
G02 X-1.149590 Y15.513557 Z10.000000 I3.348108 J-1.888953
G02 X0.690630 Y16.710327 Z10.000000 I6.061911 J-7.307935
G02 X2.774937 Y17.447410 Z10.000000 I4.076872 J-8.212967
G02 X5.215005 Y17.715743 Z10.000000 I2.440067 J-10.960110
G02 X7.664131 Y17.467745 Z10.000000 I0.000000 J-12.217245
G02 X9.518894 Y16.833799 Z10.000000 I-1.544939 J-7.550351
G02 X11.118803 Y15.793839 Z10.000000 I-3.529386 J-7.180380
G02 X11.512088 Y15.166924 Z10.000000 I-0.766627 J-0.917751
G02 X11.285880 Y13.825265 Z10.000000 I-1.645188 J-0.412515
G02 X9.554172 Y12.177132 Z10.000000 I-4.379321 J2.867567
G02 X7.838940 Y11.537279 Z10.000000 I-2.685757 J4.580705
G02 X-0.085481 Y10.377966 Z10.000000 I-18.994940 J102.175730
G03 X-9.203213 Y7.750216 Z10.000000 I2.921386 J-27.268759
G03 X-12.776662 Y4.186716 Z10.000000 I3.423009 J-7.006028
G03 X-13.858913 Y-0.144132 Z10.000000 I9.501255 J-4.674949
G03 X-13.067704 Y-4.959048 Z10.000000 I12.560944 J-0.408394
G03 X-9.597669 Y-9.459969 Z10.000000 I9.047891 J3.387480
G03 X-2.493190 Y-12.446757 Z10.000000 I10.309904 J14.580627
G03 X-1.008386 Y-12.607458 Z10.000000 I1.846457 J10.120566
G03 X2.101741 Y-12.605507 Z10.000000 I1.527808 J43.433432
G03 X7.450538 Y-11.773492 Z10.000000 I-0.837771 J22.994793
G03 X10.630144 Y-10.224257 Z10.000000 I-2.638824 J9.453328
G02 X11.955431 Y-9.358094 Z10.000000 I8.430598 J-11.452417
G02 X12.102991 Y-9.377590 Z10.000000 I0.061077 J-0.105891
G02 X12.209671 Y-9.537415 Z10.000000 I-0.348362 J-0.348041
G02 X12.667436 Y-10.744604 Z10.000000 I-20.054539 J-8.295038
G01 X13.090769 Y-11.970507 Z10.000000
G01 X17.553408 Y-12.058701 Z10.000000
G01 X22.007227 Y-12.146896 Z10.000000
G01 X21.786741 Y-10.806340 Z10.000000
G02 X21.273189 Y-6.085150 Z10.000000 I41.224882 J6.872802
G02 X20.992991 Y4.592410 Z10.000000 I211.096485 J10.882001
G03 X20.320013 Y16.522629 Z10.000000 I-107.936519 J-0.104563
G03 X19.317297 Y19.541368 Z10.000000 I-7.618933 J-0.854831
G03 X18.425633 Y20.805978 Z10.000000 I-7.913996 J-4.633425
G03 X17.182991 Y22.081368 Z10.000000 I-9.247208 J-7.766701
G03 X14.020488 Y24.288627 Z10.000000 I-11.113974 J-12.554607
G03 X12.235283 Y24.744841 Z10.000000 I-1.809272 J-3.358904
G02 X11.782094 Y24.826499 Z10.000000 I0.008934 J1.347972
G02 X11.450352 Y25.035882 Z10.000000 I0.317946 J0.871239
G03 X11.102236 Y25.216637 Z10.000000 I-0.469156 J-0.477953
G03 X8.037227 Y25.662063 Z10.000000 I-7.483010 J-40.723165
G03 X6.251925 Y25.801347 Z10.000000 I-3.289590 J-30.653646
G03 X4.562366 Y25.829632 Z10.000000 I-1.285582 J-26.316003
G01 X4.562366 Y25.829632 Z10.000000
G00 Z15.000000

(End cutting path id: path11977)


(Start cutting path id: path11977)
(Change tool to Default tool)

G00 Z15.000000
G00 X11.706116 Y5.183313

G01 Z10.000000 F100.0(Penetrate)
G02 X11.856329 Y5.052858 Z10.000000 I0.007261 J-0.143349 F400.000000
G02 X11.926602 Y3.428243 Z10.000000 I-17.337301 J-1.563755
G02 X10.322343 Y-0.898201 Z10.000000 I-6.699186 J0.023426
G02 X5.999935 Y-3.512659 Z10.000000 I-6.104127 J5.211490
G02 X-1.454841 Y-3.420376 Z10.000000 I-3.535710 J15.530130
G02 X-3.860203 Y-1.007937 Z10.000000 I0.817571 J3.220545
G02 X-2.975850 Y1.056508 Z10.000000 I1.798874 J0.451049
G02 X3.574588 Y3.198938 Z10.000000 I8.571325 J-15.121525
G03 X9.472051 Y4.212112 Z10.000000 I-6.491818 J55.457926
G03 X11.238686 Y4.945188 Z10.000000 I-1.257294 J5.525186
G02 X11.564218 Y5.141509 Z10.000000 I5.012300 J-7.943166
G02 X11.706116 Y5.183313 Z10.000000 I0.157890 J-0.274206
G01 X11.706116 Y5.183313 Z10.000000
G00 Z15.000000

(End cutting path id: path11977)


(Start cutting path id: path11971)
(Change tool to Default tool)

G00 Z15.000000
G00 X25.288572 Y-10.963919

G01 Z10.000000 F100.0(Penetrate)
G02 X25.210915 Y-9.780131 Z10.000000 I10.753130 J1.299849 F400.000000
G02 X25.090921 Y7.480792 Z10.000000 I2292.993995 J24.571257
G01 X25.035877 Y24.745730 Z10.000000
G01 X29.725074 Y24.745730 Z10.000000
G01 X34.414277 Y24.745730 Z10.000000
G01 X34.414277 Y23.167451 Z10.000000
G01 X34.414277 Y21.589176 Z10.000000
G01 X35.428866 Y22.551290 Z10.000000
G02 X36.517715 Y23.407866 Z10.000000 I5.171850 J-5.453924
G02 X38.592626 Y24.598297 Z10.000000 I12.173399 J-18.814654
G02 X40.811813 Y25.389110 Z10.000000 I4.252416 J-8.424006
G02 X43.509484 Y25.683191 Z10.000000 I2.697672 J-12.226146
G01 X46.277170 Y25.683191 Z10.000000
G01 X46.277170 Y20.902131 Z10.000000
G01 X46.277170 Y16.121071 Z10.000000
G01 X43.676366 Y16.121071 Z10.000000
G03 X39.218898 Y15.176968 Z10.000000 I-0.000000 J-10.994745
G03 X36.649258 Y13.004537 Z10.000000 I2.431048 J-5.481495
G03 X35.679044 Y10.347074 Z10.000000 I5.076431 J-3.359195
G03 X34.946778 Y-1.665324 Z10.000000 I109.422981 J-12.698860
G01 X34.882551 Y-11.971555 Z10.000000
G01 X30.156867 Y-12.057625 Z10.000000
G01 X25.431179 Y-12.143700 Z10.000000
G01 X25.288572 Y-10.963919 Z10.000000
G01 X25.288572 Y-10.963919 Z10.000000
G00 Z15.000000

(End cutting path id: path11971)


(Start cutting path id: path11979)
(Change tool to Default tool)

G00 Z15.000000
G00 X-79.844131 Y-12.463676

G01 Z10.000000 F100.0(Penetrate)
G02 X-84.006508 Y-11.339407 Z10.000000 I6.390014 J31.925027 F400.000000
G02 X-87.020132 Y-10.005168 Z10.000000 I6.165999 J17.997575
G02 X-92.891237 Y-4.614940 Z10.000000 I8.115981 J14.732584
G02 X-95.359986 Y2.481003 Z10.000000 I12.428772 J8.301516
G01 X-95.543321 Y4.746539 Z10.000000
G01 X-90.688743 Y4.746539 Z10.000000
G01 X-85.834168 Y4.746539 Z10.000000
G01 X-85.625859 Y3.230476 Z10.000000
G03 X-84.644020 Y0.637091 Z10.000000 I6.146741 J0.844565
G03 X-82.354043 Y-1.684837 Z10.000000 I7.143412 J4.754919
G03 X-79.253218 Y-3.122268 Z10.000000 I5.812203 J8.474810
G03 X-75.021292 Y-3.690625 Z10.000000 I4.231925 J15.471055
G03 X-68.220325 Y-2.408544 Z10.000000 I0.000000 J18.679344
G03 X-65.149198 Y0.168591 Z10.000000 I-2.282298 J5.838248
G03 X-64.757056 Y3.667759 Z10.000000 I-3.563807 J2.170943
G03 X-67.259761 Y6.454639 Z10.000000 I-4.476783 J-1.503097
G02 X-68.447531 Y7.006313 Z10.000000 I77.217006 J167.805001
G02 X-69.373468 Y7.445500 Z10.000000 I48.004844 J102.404091
G03 X-70.330751 Y7.789133 Z10.000000 I-2.144433 J-4.468698
G03 X-74.901277 Y8.809149 Z10.000000 I-25.166270 J-102.016124
G02 X-88.156575 Y13.353686 Z10.000000 I10.356259 J51.810154
G02 X-92.751357 Y17.726161 Z10.000000 I4.837683 J9.684075
G02 X-93.828633 Y20.659805 Z10.000000 I8.497113 J4.784882
G02 X-94.151352 Y24.966777 Z10.000000 I18.286667 J3.535783
G02 X-93.065209 Y29.671833 Z10.000000 I13.082486 J-0.542143
G02 X-90.387202 Y33.572523 Z10.000000 I11.517827 J-5.037897
G02 X-87.254125 Y35.929862 Z10.000000 I10.257047 J-10.371653
G02 X-82.642760 Y37.906812 Z10.000000 I11.665161 J-20.843122
G02 X-80.275307 Y38.381283 Z10.000000 I3.501631 J-11.328339
G02 X-75.161409 Y38.625720 Z10.000000 I5.099226 J-53.065021
G02 X-69.024388 Y37.995935 Z10.000000 I-0.007741 J-30.291829
G02 X-64.453915 Y36.407683 Z10.000000 I-3.780540 J-18.249453
G02 X-60.648806 Y33.662400 Z10.000000 I-6.583472 J-13.134726
G02 X-57.875336 Y29.829649 Z10.000000 I-10.561603 J-10.562479
G02 X-56.527230 Y26.291605 Z10.000000 I-16.386018 J-8.269445
G02 X-56.122955 Y23.261424 Z10.000000 I-11.561384 J-3.084536
G01 X-56.118333 Y22.245840 Z10.000000
G01 X-61.113236 Y22.245840 Z10.000000
G01 X-66.108139 Y22.245840 Z10.000000
G01 X-66.108139 Y23.195751 Z10.000000
G03 X-67.024583 Y25.980647 Z10.000000 I-4.689603 J-0.000000
G03 X-70.166499 Y28.694280 Z10.000000 I-7.565799 J-5.584169
G03 X-71.315509 Y29.051233 Z10.000000 I-1.509598 J-2.831528
G03 X-75.317492 Y29.276807 Z10.000000 I-4.001983 J-35.387380
G03 X-79.306545 Y28.978697 Z10.000000 I0.000000 J-26.838102
G03 X-81.163422 Y28.398144 Z10.000000 I0.943586 J-6.277869
G03 X-84.082718 Y25.496687 Z10.000000 I2.839090 J-5.775897
G03 X-84.038966 Y22.637547 Z10.000000 I2.779335 J-1.387374
G03 X-82.122995 Y20.870058 Z10.000000 I3.520539 J1.894081
G03 X-74.537038 Y18.473630 Z10.000000 I14.945213 J34.104489
G02 X-59.140243 Y12.018488 Z10.000000 I-8.385475 J-41.590797
G02 X-54.830786 Y5.135060 Z10.000000 I-5.627349 J-8.313781
G02 X-56.127158 Y-3.459530 Z10.000000 I-14.909640 J-2.146157
G02 X-61.937311 Y-9.867514 Z10.000000 I-13.482209 J6.386351
G02 X-64.763069 Y-11.149676 Z10.000000 I-7.002334 J11.677518
G02 X-69.908230 Y-12.436336 Z10.000000 I-12.200686 J37.858040
G02 X-75.203578 Y-12.917089 Z10.000000 I-5.378779 J29.841912
G02 X-79.844124 Y-12.463676 Z10.000000 I-0.064156 J23.317401
G01 X-79.844131 Y-12.463676 Z10.000000
G00 Z15.000000

(End cutting path id: path11979)


(Footer)
M5
G00 X0.0000 Y0.0000
M2
(Using default footer. To add your own footer create file "footer" in the output dir.)
(end)
%