%
(Header)
(Generated by gcodetools from Inkscape.)
(Using default header. To add your own header create file "header" in the output dir.)
M3
(Header end.)
G21 (All units in mm)

(Start cutting path id: path11746)
(Change tool to Default tool)

G00 Z6.000000
G00 X213.548156 Y183.444446

G01 Z0.875000 F100.0(Penetrate)
G02 X213.957774 Y180.663429 Z0.875000 I-0.793579 J-1.537561 F400.000000
G02 X211.541243 Y179.556050 Z0.875000 I-2.777263 J2.870188
G02 X206.648002 Y182.175920 Z0.875000 I-0.455992 J5.027915
G02 X205.771365 Y187.458269 Z0.875000 I7.203823 J3.909434
G02 X211.040289 Y194.380633 Z0.875000 I9.245630 J-1.570877
G02 X219.568893 Y195.109633 Z0.875000 I5.254752 J-11.222827
G02 X228.591548 Y187.249152 Z0.875000 I-3.639294 J-13.285934
G02 X229.101739 Y175.416795 Z0.875000 I-15.380620 J-6.590363
G02 X218.666297 Y164.267291 Z0.875000 I-17.255676 J5.692240
G02 X203.513595 Y164.002467 Z0.875000 I-7.920492 J19.558700
G02 X190.224808 Y177.006034 Z0.875000 I7.732032 J21.193542
G02 X190.217782 Y195.485920 Z0.875000 I23.738890 J9.248970
G02 X205.786044 Y210.920780 Z0.875000 I25.114837 J-9.763063
G02 X227.596540 Y210.663215 Z0.875000 I10.577081 J-27.917915
G02 X245.181590 Y192.532206 Z0.875000 I-11.788265 J-29.026566
G02 X244.655322 Y167.389148 Z0.875000 I-32.095347 J-11.905251
G02 X223.962780 Y147.651232 Z0.875000 I-32.932309 J13.809456
G02 X195.485945 Y148.448884 Z0.875000 I-13.233608 J36.271343
G02 X173.593321 Y171.702152 Z0.875000 I15.827788 J36.834071
G02 X174.664199 Y203.513567 Z0.875000 I40.446167 J14.562180
G02 X200.477635 Y227.562220 Z0.875000 I40.733079 J-17.844041
G02 X235.624191 Y226.216798 Z0.875000 I15.890960 J-44.620044
G02 X261.829848 Y197.843598 Z0.875000 I-19.858725 J-44.630088
G02 X260.208905 Y159.361497 Z0.875000 I-48.793169 J-17.219922
G02 X229.276243 Y130.998091 Z0.875000 I-48.525617 J21.872206
G02 X187.458295 Y132.895301 Z0.875000 I-18.549047 J52.965673
G02 X156.936555 Y166.387191 Z0.875000 I23.884728 J52.420008
G02 X159.110616 Y211.541217 Z0.875000 I57.137662 J19.878305
G02 X195.161556 Y244.221752 Z0.875000 I56.313513 J-25.896493
G02 X243.651838 Y241.770381 Z0.875000 I21.207685 J-61.309250
G02 X278.491536 Y203.160534 Z0.875000 I-27.907638 J-60.206301
G02 X275.762485 Y151.333850 Z0.875000 I-65.480530 J-22.537169
G02 X234.593854 Y114.334676 Z0.875000 I-64.098544 J29.918283
G02 X179.430647 Y117.341718 Z0.875000 I-23.866741 J69.651448
G02 X140.271747 Y161.069043 Z0.875000 I31.928513 J67.990316
G02 X143.557033 Y219.568865 Z0.875000 I73.822146 J25.196389
G02 X189.842969 Y260.887701 Z0.875000 I71.881696 J-33.938383
G02 X251.679489 Y257.323964 Z0.875000 I26.526110 J-77.992656
G02 X295.158439 Y208.479484 Z0.875000 I-35.947956 J-75.772749
G02 X291.316073 Y143.306200 Z0.875000 I-82.163002 J-27.855894
G02 X239.913099 Y97.666975 Z0.875000 I-79.663539 J37.957273
G02 X171.402997 Y101.788136 Z0.875000 I-29.185714 J86.333145
G02 X123.603369 Y155.749546 Z0.875000 I39.966359 J83.554085
G02 X128.003450 Y227.596515 Z0.875000 I90.503167 J30.515588
G02 X184.523257 Y277.556662 Z0.875000 I87.444431 J-41.975254
G02 X259.707136 Y272.877547 Z0.875000 I31.845505 J-94.673078
G02 X311.827902 Y213.799377 Z0.875000 I-43.983987 J-91.334604
G02 X306.869650 Y135.278552 Z0.875000 I-98.842886 J-33.175456
G02 X245.233152 Y80.997079 Z0.875000 I-95.224621 J45.992563
G02 X163.375349 Y86.234553 Z0.875000 I-34.505442 J103.012603
G02 X106.933093 Y150.429356 Z0.875000 I48.001023 J99.114512
G02 X112.449867 Y235.624163 Z0.875000 I107.182235 J35.835456
G02 X179.202948 Y294.227273 Z0.875000 I103.004285 J-50.009362
G02 X267.734786 Y288.431130 Z0.875000 I37.165498 J-111.351795
G02 X328.498800 Y219.119800 Z0.875000 I-52.017610 J-106.893948
G02 X322.423227 Y127.250902 Z0.875000 I-115.521295 J-38.495568
G02 X250.553671 Y64.325908 Z0.875000 I-110.783485 J54.025686
G02 X155.347699 Y70.680970 Z0.875000 I-39.825652 J119.690743
G02 X90.261689 Y145.108760 Z0.875000 I56.033801 J114.673011
G02 X96.896285 Y243.651813 Z0.875000 I123.860107 J41.155756
G00 Z6.000000

(End cutting path id: path11746)


(Footer)
M5
G00 X0.0000 Y0.0000
M2
(Using default footer. To add your own footer create file "footer" in the output dir.)
(end)
%