(Generated with: DXF2GCODE, Version: PyQt4 Beta, Date: $Date:: 2013-09-15 02:41:17#$)
(Time: Thu Oct 31 19:36:47 2013)
(Created from file: C:/Users/davidbynoe/Dropbox/Science Center/Science Centre Drawing Machine/test plot300.dxf)
G21 (Unit in mm) G90 (Absolute distance mode) G64 P0.01 (Exact Path 0.001 tol.) G17 G40 (Cancel diameter comp.) G49 (Cancel length comp.)
G0 Z  15.000 

(*** LAYER: Default ***)
T1 M6
S6000

(* SHAPE Nr: 1 *)
G0 X  43.934 Y  43.934
M3 M8
G0 Z   3.000 
F400
G1 Z  -1.500
F5000
G2 X   0.000 Y 150.000 I 106.066 J 106.066
G2 X   0.251 Y 158.674 I 150.000 J   0.000
G2 X   1.003 Y 167.320 I 149.749 J  -8.674
G2 X   2.317 Y 176.265 I 148.997 J -17.320
G2 X   4.168 Y 185.115 I 147.683 J -26.265
G2 X   6.642 Y 194.141 I 145.832 J -35.115
G2 X   9.674 Y 202.995 I 143.358 J -44.141
G2 X  13.358 Y 211.878 I 140.326 J -52.995
G2 X  17.604 Y 220.507 I 136.642 J -61.878
G2 X  17.744 Y 220.769 I 132.396 J -70.507
G2 X  33.949 Y 245.038 I 132.256 J -70.769
G2 X  50.254 Y 262.030 I 116.051 J -95.038
G2 X  54.975 Y 266.061 I  99.746 J-112.030
G2 X  62.812 Y 272.058 I  95.025 J-116.061
G2 X  78.717 Y 281.980 I  87.188 J-122.058
G2 X  88.173 Y 286.665 I  71.283 J-131.980
G2 X 171.939 Y   1.613 I  61.827 J-136.665
G2 X 114.807 Y 295.813 I -21.939 J 148.387
G2 X 125.167 Y 297.930 I  35.193 J-145.813
G2 X 141.421 Y 299.754 I  24.833 J-147.930
G2 X 150.000 Y 300.000 I   8.579 J-149.754
G2 X 158.579 Y 299.754 I   0.000 J-150.000
G2 X 167.410 Y 298.986 I  -8.579 J-149.754
G2 X 176.181 Y 297.698 I -17.410 J-148.986
G2 X 193.399 Y 293.584 I -26.181 J-147.698
G2 X 203.056 Y 290.304 I -43.399 J-143.584
G2 X 214.849 Y 285.257 I -53.056 J-140.304
G2 X 237.824 Y 271.602 I -64.849 J-135.257
G2 X 253.816 Y 258.269 I -87.824 J-121.602
G2 X 266.664 Y 244.284 I-103.816 J-108.269
G2 X 277.507 Y 229.006 I-116.664 J -94.284
G2 X 286.047 Y 213.176 I-127.507 J -79.006
G2 X 292.032 Y 198.237 I-136.047 J -63.176
G2 X 298.434 Y 171.620 I-142.032 J -48.237
G2 X 299.749 Y 158.674 I-148.434 J -21.620
G2 X 300.000 Y 150.000 I-149.749 J  -8.674
G2 X 299.749 Y 141.326 I-150.000 J   0.000
G2 X 297.973 Y 125.424 I-149.749 J   8.674
G2 X 295.832 Y 114.885 I-147.973 J  24.576
G2 X 293.157 Y 105.212 I-145.832 J  35.115
G2 X 286.995 Y  88.908 I-143.157 J  44.788
G2 X 277.507 Y  70.994 I-136.995 J  61.092
G2 X 272.594 Y  63.567 I-127.507 J  79.006
G2 X 259.522 Y  47.506 I-122.594 J  86.433
G2 X 252.498 Y  40.482 I-109.522 J 102.494
G2 X 229.500 Y  22.800 I-102.498 J 109.518
G2 X 220.549 Y  17.626 I -79.500 J 127.200
G2 X 212.070 Y  13.445 I -70.549 J 132.374
G2 X 192.000 Y   6.000 I -62.070 J 136.555
G2 X 167.410 Y   1.014 I -42.000 J 144.000
G2 X 158.579 Y   0.246 I -17.410 J 148.986
G2 X 150.000 Y   0.000 I  -8.579 J 149.754
G2 X 141.421 Y   0.246 I  -0.000 J 150.000
G2 X 132.590 Y   1.014 I   8.579 J 149.754
G2 X 123.819 Y   2.302 I  17.410 J 148.986
G2 X 107.129 Y   6.257 I  26.181 J 147.698
G2 X  96.944 Y   9.696 I  42.871 J 143.743
G2 X  72.826 Y  21.376 I  53.056 J 140.304
G2 X 102.566 Y   7.698 I  77.174 J 128.624
G2 X  54.975 Y  33.939 I  47.434 J 142.302
G2 X 243.299 Y 267.453 I  95.025 J 116.061
G2 X  33.949 Y  54.962 I -93.299 J-117.453
G2 X   9.782 Y  96.717 I 116.051 J  95.038
G2 X   9.674 Y  97.005 I 140.218 J  53.283
G2 X   1.744 Y 127.191 I 140.326 J  52.995
G2 X  43.934 Y  43.934 I 148.256 J  22.809
F400
G1 Z  -3.000
F5000
G2 X   0.000 Y 150.000 I 106.066 J 106.066
G2 X   0.251 Y 158.674 I 150.000 J   0.000
G2 X   1.003 Y 167.320 I 149.749 J  -8.674
G2 X   2.317 Y 176.265 I 148.997 J -17.320
G2 X   4.168 Y 185.115 I 147.683 J -26.265
G2 X   6.642 Y 194.141 I 145.832 J -35.115
G2 X   9.674 Y 202.995 I 143.358 J -44.141
G2 X  13.358 Y 211.878 I 140.326 J -52.995
G2 X  17.604 Y 220.507 I 136.642 J -61.878
G2 X  17.744 Y 220.769 I 132.396 J -70.507
G2 X  33.949 Y 245.038 I 132.256 J -70.769
G2 X  50.254 Y 262.030 I 116.051 J -95.038
G2 X  54.975 Y 266.061 I  99.746 J-112.030
G2 X  62.812 Y 272.058 I  95.025 J-116.061
G2 X  78.717 Y 281.980 I  87.188 J-122.058
G2 X  88.173 Y 286.665 I  71.283 J-131.980
G2 X 171.939 Y   1.613 I  61.827 J-136.665
G2 X 114.807 Y 295.813 I -21.939 J 148.387
G2 X 125.167 Y 297.930 I  35.193 J-145.813
G2 X 141.421 Y 299.754 I  24.833 J-147.930
G2 X 150.000 Y 300.000 I   8.579 J-149.754
G2 X 158.579 Y 299.754 I   0.000 J-150.000
G2 X 167.410 Y 298.986 I  -8.579 J-149.754
G2 X 176.181 Y 297.698 I -17.410 J-148.986
G2 X 193.399 Y 293.584 I -26.181 J-147.698
G2 X 203.056 Y 290.304 I -43.399 J-143.584
G2 X 214.849 Y 285.257 I -53.056 J-140.304
G2 X 237.824 Y 271.602 I -64.849 J-135.257
G2 X 253.816 Y 258.269 I -87.824 J-121.602
G2 X 266.664 Y 244.284 I-103.816 J-108.269
G2 X 277.507 Y 229.006 I-116.664 J -94.284
G2 X 286.047 Y 213.176 I-127.507 J -79.006
G2 X 292.032 Y 198.237 I-136.047 J -63.176
G2 X 298.434 Y 171.620 I-142.032 J -48.237
G2 X 299.749 Y 158.674 I-148.434 J -21.620
G2 X 300.000 Y 150.000 I-149.749 J  -8.674
G2 X 299.749 Y 141.326 I-150.000 J   0.000
G2 X 297.973 Y 125.424 I-149.749 J   8.674
G2 X 295.832 Y 114.885 I-147.973 J  24.576
G2 X 293.157 Y 105.212 I-145.832 J  35.115
G2 X 286.995 Y  88.908 I-143.157 J  44.788
G2 X 277.507 Y  70.994 I-136.995 J  61.092
G2 X 272.594 Y  63.567 I-127.507 J  79.006
G2 X 259.522 Y  47.506 I-122.594 J  86.433
G2 X 252.498 Y  40.482 I-109.522 J 102.494
G2 X 229.500 Y  22.800 I-102.498 J 109.518
G2 X 220.549 Y  17.626 I -79.500 J 127.200
G2 X 212.070 Y  13.445 I -70.549 J 132.374
G2 X 192.000 Y   6.000 I -62.070 J 136.555
G2 X 167.410 Y   1.014 I -42.000 J 144.000
G2 X 158.579 Y   0.246 I -17.410 J 148.986
G2 X 150.000 Y   0.000 I  -8.579 J 149.754
G2 X 141.421 Y   0.246 I  -0.000 J 150.000
G2 X 132.590 Y   1.014 I   8.579 J 149.754
G2 X 123.819 Y   2.302 I  17.410 J 148.986
G2 X 107.129 Y   6.257 I  26.181 J 147.698
G2 X  96.944 Y   9.696 I  42.871 J 143.743
G2 X  72.826 Y  21.376 I  53.056 J 140.304
G2 X 102.566 Y   7.698 I  77.174 J 128.624
G2 X  54.975 Y  33.939 I  47.434 J 142.302
G2 X 243.299 Y 267.453 I  95.025 J 116.061
G2 X  33.949 Y  54.962 I -93.299 J-117.453
G2 X   9.782 Y  96.717 I 116.051 J  95.038
G2 X   9.674 Y  97.005 I 140.218 J  53.283
G2 X   1.744 Y 127.191 I 140.326 J  52.995
G2 X  43.934 Y  43.934 I 148.256 J  22.809
G1 Z   3.000
G0 Z  15.000 
M9 M5

(* SHAPE Nr: 3 *)
G0 X   0.000 Y 300.000
M3 M8
G0 Z   3.000 
F400
G1 Z  -1.500
F5000
G1 X 300.000 Y   0.000
F400
G1 Z  -3.000
F5000
G1 X   0.000 Y 300.000
G1 Z   3.000
G0 Z  15.000 
M9 M5

(* SHAPE Nr: 2 *)
G0 X 300.000 Y 150.000
M3 M8
G0 Z   3.000 
F400
G1 Z  -1.500
F5000
G3 X 299.822 Y 153.949 I-148.604 J  -4.730
G3 X 298.843 Y 164.409 I-150.371 J  -8.793
G3 X 296.742 Y 176.651 I-147.405 J -18.997
G3 X 289.600 Y 200.198 I-145.580 J -31.298
G3 X 276.065 Y 226.380 I-137.356 J -54.416
G3 X 257.729 Y 249.201 I-123.091 J -80.123
G3 X 234.029 Y 268.710 I-104.040 J-102.241
G3 X 206.834 Y 282.778 I -79.782 J-120.907
G3 X 177.497 Y 290.760 I -52.221 J-134.033
G3 X 147.363 Y 292.387 I -22.723 J-141.018
G3 X 117.782 Y 287.683 I   7.359 J-141.636
G3 X  90.059 Y 276.954 I  36.677 J-135.957
G3 X  65.394 Y 260.770 I  63.938 J-124.331
G3 X  44.782 Y 239.870 I  87.964 J-107.367
G3 X  32.089 Y 220.899 I 107.825 J -85.869
G3 X  23.025 Y 200.967 I 119.905 J -66.557
G3 X  16.489 Y 175.345 I 128.185 J -46.342
G3 X  15.036 Y 160.471 I 133.834 J -20.584
G3 X  14.923 Y 153.324 I 135.044 J  -5.700
G3 X  16.857 Y 131.979 I 134.729 J   1.443
G3 X  24.176 Y 105.733 I 131.873 J  22.630
G3 X  36.567 Y  81.693 I 123.633 J  48.515
G3 X  54.114 Y  60.150 I 110.415 J  72.015
G3 X  75.924 Y  42.702 I  92.156 J  92.841
G3 X 100.479 Y  30.478 I  69.794 J 109.423
G3 X 120.875 Y  24.751 I  44.909 J 120.761
G3 X 141.170 Y  22.475 I  24.379 J 125.798
G3 X 166.387 Y  24.182 I   4.058 J 127.238
G3 X 191.963 Y  31.324 I -20.990 J 124.529
G3 X 210.444 Y  40.481 I -46.217 J 116.508
G3 X 229.486 Y  54.588 I -64.313 J 106.711
G3 X 246.786 Y  73.798 I -82.687 J  91.862
G3 X 259.682 Y  96.173 I -99.174 J  72.061
G3 X 267.544 Y 120.576 I-111.148 J  49.278
G3 X 270.093 Y 145.885 I-118.023 J  24.668
G3 X 268.080 Y 167.106 I-119.602 J  -0.635
G3 X 263.586 Y 184.139 I-116.846 J -21.719
G3 X 256.330 Y 200.863 I-111.695 J -38.525
G3 X 247.093 Y 215.576 I-103.786 J -54.903
G3 X 235.438 Y 229.102 I -93.979 J -69.196
G3 X 222.053 Y 240.537 I -81.809 J -82.206
G3 X 207.388 Y 249.651 I -67.994 J -93.051
G3 X 191.213 Y 256.570 I -53.002 J-101.539
G3 X 174.982 Y 260.777 I -36.588 J-107.756
G3 X 157.221 Y 262.574 I -20.232 J-111.276
G3 X 135.508 Y 260.937 I  -2.454 J-112.245
G3 X 117.817 Y 256.333 I  19.099 J-109.686
G3 X 102.121 Y 249.430 I  36.558 J-104.419
G3 X  88.412 Y 240.723 I  51.905 J -96.863
G3 X  75.795 Y 229.734 I  65.192 J -87.590
G3 X  65.217 Y 217.226 I  77.288 J -76.089
G3 X  56.723 Y 203.403 I  87.279 J -63.155
G3 X  50.349 Y 188.283 I  95.140 J -49.007
G3 X  46.488 Y 173.041 I 100.812 J -33.652
G3 X  45.056 Y 160.641 I 104.030 J -18.297
G3 X  44.912 Y 152.688 I 104.983 J  -5.870
G3 X  46.609 Y 135.874 I 104.697 J   2.074
G3 X  50.948 Y 119.701 I 102.114 J  18.725
G3 X  57.456 Y 105.138 I  97.113 J  34.662
G3 X  65.637 Y  92.420 I  89.955 J  48.872
G3 X  75.945 Y  80.721 I  81.212 J  61.167
G3 X  87.583 Y  70.987 I  70.393 J  72.341
G3 X 100.545 Y  63.119 I  58.335 J  81.488
G3 X 114.611 Y  57.284 I  45.048 J  88.717
G3 X 128.856 Y  53.763 I  30.753 J  93.852
G3 X 143.862 Y  52.393 I  16.391 J  96.682
G3 X 158.189 Y  53.249 I   1.375 J  97.312
G3 X 172.717 Y  56.352 I -12.860 J  95.763
G3 X 186.027 Y  61.388 I -27.179 J  91.953
G3 X 198.710 Y  68.523 I -40.190 J  86.275
G3 X 209.968 Y  77.347 I -52.467 J  78.534
G3 X 219.631 Y  87.617 I -63.236 J  69.173
G3 X 227.710 Y  99.354 I -72.344 J  58.456
G3 X 233.688 Y 111.663 I -79.786 J  46.349
G3 X 237.858 Y 125.100 I -85.113 J  33.782
G3 X 239.865 Y 138.374 I -88.563 J  20.181
G3 X 239.855 Y 152.209 I -89.870 J   6.853
G3 X 237.831 Y 165.400 I -89.128 J  -6.925
G3 X 233.797 Y 178.294 I -86.408 J -19.955
G3 X 227.904 Y 190.319 I -81.701 J -32.581
G3 X 220.452 Y 201.054 I -75.178 J -44.236
G3 X 211.330 Y 210.680 I -67.176 J -54.525
G3 X 201.295 Y 218.490 I -57.559 J -63.603
G3 X 189.895 Y 224.872 I -47.136 J -70.830
G3 X 178.185 Y 229.269 I -35.426 J -76.543
G3 X 165.649 Y 231.920 I -23.518 J -80.263
G3 X 153.214 Y 232.623 I -10.886 J -82.188
G3 X 140.800 Y 231.445 I   1.536 J -82.172
G3 X 128.735 Y 228.402 I  13.828 J -80.283
G3 X 117.616 Y 223.725 I  25.660 J -76.546
G3 X 107.154 Y 217.314 I  36.457 J -71.241
G3 X  98.162 Y 209.730 I  46.487 J -64.232
G3 X  90.220 Y 200.656 I  54.987 J -56.146
G3 X  83.986 Y 190.880 I  62.341 J -46.632
G3 X  79.213 Y 180.096 I  67.949 J -36.520
G3 X  76.192 Y 168.941 I  72.035 J -25.492
G3 X  75.040 Y 160.133 I  74.385 J -14.209
G3 X  74.849 Y 154.430 I  75.060 J  -5.367
G3 X  76.131 Y 140.970 I  74.815 J   0.334
G3 X  80.678 Y 125.874 I  72.475 J  13.596
G3 X  86.303 Y 115.146 I  67.068 J  28.328
G3 X  92.974 Y 106.250 I  60.840 J  38.673
G3 X 100.605 Y  98.772 I  53.618 J  47.086
G3 X 109.350 Y  92.477 I  45.527 J  54.017
G3 X 118.821 Y  87.647 I  36.404 J  59.692
G3 X 128.711 Y  84.369 I  26.652 J  63.850
G3 X 139.045 Y  82.615 I  16.590 J  66.437
G3 X 149.151 Y  82.446 I   6.189 J  67.459
G3 X 159.338 Y  83.825 I  -3.877 J  66.924
G3 X 168.824 Y  86.614 I -13.909 J  64.826
G3 X 177.923 Y  90.868 I -23.145 J  61.373
G3 X 186.038 Y  96.293 I -31.885 J  56.483
G3 X 193.240 Y 102.878 I -39.557 J  50.492
G3 X 199.308 Y 110.418 I -46.232 J  43.412
G3 X 204.039 Y 118.568 I -51.697 J  35.459
G3 X 207.508 Y 127.406 I -55.788 J  26.999
G3 X 209.528 Y 136.331 I -58.555 J  17.946
G3 X 210.188 Y 145.589 I -59.875 J   8.917
G3 X 209.467 Y 154.515 I -59.802 J  -0.337
G3 X 207.388 Y 163.312 I -58.377 J  -9.153
G3 X 204.074 Y 171.502 I -55.603 J -17.729
G3 X 199.605 Y 179.024 I -51.642 J -25.598
G3 X 194.072 Y 185.746 I -46.583 J -32.705
G3 X 187.782 Y 191.379 I -40.523 J -38.920
G3 X 180.660 Y 196.029 I -33.799 J -43.990
G3 X 173.195 Y 199.423 I -26.325 J -47.996
G3 X 165.221 Y 201.672 I -18.615 J -50.724
G3 X 157.261 Y 202.656 I -10.496 J -52.256
G3 X 149.225 Y 202.424 I  -2.503 J -52.524
G3 X 141.460 Y 200.997 I   5.456 J -51.568
G3 X 134.138 Y 198.459 I  13.037 J -49.440
G3 X 127.309 Y 194.850 I  20.073 J -46.243
G3 X 121.304 Y 190.395 I  26.511 J -42.014
G3 X 116.015 Y 185.054 I  32.051 J -37.022
G3 X 111.751 Y 179.186 I  36.780 J -31.207
G3 X 108.409 Y 172.706 I  40.437 J -24.963
G3 X 106.156 Y 165.993 I  43.107 J -18.199
G3 X 104.983 Y 159.351 I  44.667 J -11.311
G3 X 104.755 Y 155.450 I  45.227 J  -4.606
G3 X 104.760 Y 153.760 I  45.183 J  -0.702
G3 X 105.726 Y 145.435 I  44.813 J   0.981
G3 X 108.049 Y 137.904 I  42.816 J   9.087
G3 X 111.047 Y 131.957 I  39.816 J  16.340
G3 X 114.810 Y 126.696 I  36.196 J  21.910
G3 X 119.235 Y 122.165 I  31.876 J  26.704
G3 X 124.257 Y 118.394 I  26.975 J  30.695
G3 X 129.618 Y 115.525 I  21.560 J  33.848
G3 X 135.342 Y 113.510 I  15.911 J  36.062
G3 X 141.102 Y 112.429 I   9.997 J  37.369
G3 X 146.946 Y 112.238 I   4.158 J  37.738
G3 X 152.579 Y 112.921 I  -1.654 J  37.199
G3 X 157.980 Y 114.439 I  -7.145 J  35.807
G3 X 162.989 Y 116.722 I -12.296 J  33.607
G3 X 167.466 Y 119.663 I -16.952 J  30.685
G3 X 171.399 Y 123.218 I -20.989 J  27.174
G3 X 174.629 Y 127.193 I -24.390 J  23.114
G3 X 177.194 Y 131.586 I -27.029 J  18.730
G3 X 178.992 Y 136.158 I -28.935 J  14.017
G3 X 180.057 Y 140.905 I -30.044 J   9.234
G3 X 180.370 Y 145.618 I -30.385 J   4.383
G3 X 179.962 Y 150.231 I -29.971 J  -0.323
G3 X 178.870 Y 154.635 I -28.847 J  -4.816
G3 X 177.169 Y 158.683 I -27.060 J  -8.989
G3 X 174.897 Y 162.365 I -24.716 J -12.707
G3 X 172.187 Y 165.533 I -21.851 J -15.956
G3 X 169.062 Y 168.206 I -18.630 J -18.613
G3 X 165.687 Y 170.285 I -15.073 J -20.693
G3 X 162.098 Y 171.786 I -11.367 J -22.126
G3 X 158.435 Y 172.682 I  -7.549 J -22.932
G3 X 154.786 Y 172.987 I  -3.767 J -23.106
G3 X 151.225 Y 172.724 I  -0.115 J -22.682
G3 X 147.880 Y 171.938 I   3.335 J -21.692
G3 X 144.771 Y 170.665 I   6.458 J -20.214
G3 X 142.018 Y 168.991 I   9.235 J -18.284
G3 X 139.622 Y 166.953 I  11.563 J -16.020
G3 X 137.661 Y 164.657 I  13.438 J -13.461
G3 X 136.138 Y 162.156 I  14.807 J -10.736
G3 X 135.074 Y 159.542 I  15.675 J  -7.904
G3 X 134.468 Y 156.902 I  16.037 J  -5.068
G3 X 134.302 Y 154.886 I  15.963 J  -2.330
G3 X 134.330 Y 153.605 I  15.639 J  -0.304
G3 X 134.560 Y 151.751 I  15.281 J   0.956
G3 X 135.177 Y 149.480 I  14.368 J   2.684
G3 X 136.126 Y 147.401 I  13.060 J   4.704
G3 X 137.357 Y 145.579 I  11.473 J   6.426
G3 X 138.800 Y 144.068 I   9.669 J   7.788
G3 X 140.399 Y 142.880 I   7.742 J   8.751
G3 X 142.089 Y 142.028 I   5.759 J   9.318
G3 X 143.799 Y 141.512 I   3.798 J   9.493
G3 X 145.482 Y 141.315 I   1.940 J   9.303
G3 X 147.067 Y 141.416 I   0.238 J   8.779
G3 X 148.522 Y 141.782 I  -1.239 J   7.979
G3 X 149.791 Y 142.372 I  -2.459 J   6.950
G3 X 150.853 Y 143.144 I  -3.382 J   5.770
G3 X 151.678 Y 144.043 I  -4.001 J   4.500
G3 X 152.257 Y 145.019 I  -4.312 J   3.217
G3 X 152.587 Y 146.020 I  -4.339 J   1.989
G3 X 152.677 Y 146.989 I  -4.117 J   0.871
G3 X 152.546 Y 147.885 I  -3.700 J  -0.086
G3 X 152.222 Y 148.656 I  -3.141 J  -0.865
G3 X 151.736 Y 149.278 I  -2.506 J  -1.456
G3 X 151.113 Y 149.728 I  -1.829 J  -1.881
G3 X 150.474 Y 149.953 I  -1.124 J  -2.173
G3 X 150.000 Y 150.000 I  -0.474 J  -2.341
F400
G1 Z  -3.000
F5000
G2 X 150.474 Y 149.953 I  -0.000 J  -2.389
G2 X 151.113 Y 149.728 I  -0.485 J  -2.398
G2 X 151.736 Y 149.278 I  -1.205 J  -2.330
G2 X 152.222 Y 148.656 I  -2.020 J  -2.077
G2 X 152.546 Y 147.885 I  -2.817 J  -1.636
G2 X 152.677 Y 146.989 I  -3.568 J  -0.982
G2 X 152.587 Y 146.020 I  -4.207 J  -0.098
G2 X 152.257 Y 145.019 I  -4.670 J   0.988
G2 X 151.678 Y 144.043 I  -4.891 J   2.241
G2 X 150.853 Y 143.144 I  -4.826 J   3.601
G2 X 149.791 Y 142.372 I  -4.444 J   4.999
G2 X 148.522 Y 141.782 I  -3.729 J   6.361
G2 X 147.067 Y 141.416 I  -2.694 J   7.612
G2 X 145.482 Y 141.315 I  -1.348 J   8.678
G2 X 143.799 Y 141.512 I   0.257 J   9.499
G2 X 142.089 Y 142.028 I   2.088 J  10.009
G2 X 140.399 Y 142.880 I   4.069 J  10.170
G2 X 138.800 Y 144.068 I   6.143 J   9.939
G2 X 137.357 Y 145.579 I   8.226 J   9.299
G2 X 136.126 Y 147.401 I  10.242 J   8.249
G2 X 135.177 Y 149.480 I  12.111 J   6.784
G2 X 134.560 Y 151.751 I  13.752 J   4.954
G2 X 134.330 Y 153.605 I  15.050 J   2.811
G2 X 134.302 Y 154.886 I  15.612 J   0.977
G2 X 134.468 Y 156.902 I  16.129 J  -0.313
G2 X 135.074 Y 159.542 I  16.643 J  -2.429
G2 X 136.138 Y 162.156 I  16.739 J  -5.290
G2 X 137.661 Y 164.657 I  16.331 J  -8.235
G2 X 139.622 Y 166.953 I  15.399 J -11.165
G2 X 142.018 Y 168.991 I  13.958 J -13.982
G2 X 144.771 Y 170.665 I  11.988 J -16.610
G2 X 147.880 Y 171.938 I   9.567 J -18.942
G2 X 151.225 Y 172.724 I   6.679 J -20.906
G2 X 154.786 Y 172.987 I   3.446 J -22.419
G2 X 158.435 Y 172.682 I  -0.118 J -23.411
G2 X 162.098 Y 171.786 I  -3.885 J -23.828
G2 X 165.687 Y 170.285 I  -7.778 J -23.628
G2 X 169.062 Y 168.206 I -11.698 J -22.772
G2 X 172.187 Y 165.533 I -15.506 J -21.286
G2 X 174.897 Y 162.365 I -19.141 J -19.123
G2 X 177.169 Y 158.683 I -22.444 J -16.389
G2 X 178.870 Y 154.635 I -25.359 J -13.037
G2 X 179.962 Y 150.231 I -27.755 J  -9.219
G2 X 180.370 Y 145.618 I -29.564 J  -4.936
G2 X 180.057 Y 140.905 I -30.698 J  -0.330
G2 X 178.992 Y 136.158 I -31.109 J   4.487
G2 X 177.194 Y 131.586 I -30.733 J   9.446
G2 X 174.629 Y 127.193 I -29.595 J  14.337
G2 X 171.399 Y 123.218 I -27.619 J  19.139
G2 X 167.466 Y 119.663 I -24.922 J  23.619
G2 X 162.989 Y 116.722 I -21.429 J  27.744
G2 X 157.980 Y 114.439 I -17.305 J  31.324
G2 X 152.579 Y 112.921 I -12.546 J  34.290
G2 X 146.946 Y 112.238 I  -7.286 J  36.516
G2 X 141.102 Y 112.429 I  -1.686 J  37.929
G2 X 135.342 Y 113.510 I   4.236 J  38.450
G2 X 129.618 Y 115.525 I  10.186 J  38.077
G2 X 124.257 Y 118.394 I  16.199 J  36.716
G2 X 119.235 Y 122.165 I  21.953 J  34.465
G2 X 114.810 Y 126.696 I  27.450 J  31.235
G2 X 111.047 Y 131.957 I  32.433 J  27.171
G2 X 108.049 Y 137.904 I  36.819 J  22.287
G2 X 105.726 Y 145.435 I  40.493 J  16.618
G2 X 104.760 Y 153.760 I  43.847 J   9.306
G2 X 104.755 Y 155.450 I  45.177 J   0.989
G2 X 104.983 Y 159.351 I  45.455 J  -0.706
G2 X 106.156 Y 165.993 I  45.840 J  -4.669
G2 X 108.409 Y 172.706 I  45.359 J -11.486
G2 X 111.751 Y 179.186 I  43.779 J -18.483
G2 X 116.015 Y 185.054 I  41.044 J -25.338
G2 X 121.304 Y 190.395 I  37.339 J -31.681
G2 X 127.309 Y 194.850 I  32.516 J -37.560
G2 X 134.138 Y 198.459 I  26.902 J -42.634
G2 X 141.460 Y 200.997 I  20.359 J -46.901
G2 X 149.225 Y 202.424 I  13.222 J -50.142
G2 X 157.261 Y 202.656 I   5.533 J -52.291
G2 X 165.221 Y 201.672 I  -2.537 J -53.239
G2 X 173.195 Y 199.423 I -10.641 J -52.973
G2 X 180.660 Y 196.029 I -18.859 J -51.390
G2 X 187.782 Y 191.379 I -26.678 J -48.640
G2 X 194.072 Y 185.746 I -34.232 J -44.554
G2 X 199.605 Y 179.024 I -41.051 J -39.427
G2 X 204.074 Y 171.502 I -47.173 J -33.119
G2 X 207.388 Y 163.312 I -52.290 J -25.919
G2 X 209.467 Y 154.515 I -56.297 J -17.950
G2 X 210.188 Y 145.589 I -59.081 J  -9.263
G2 X 209.528 Y 136.331 I -60.535 J  -0.342
G2 X 207.508 Y 127.406 I -60.575 J   9.021
G2 X 204.039 Y 118.568 I -59.257 J  18.161
G2 X 199.308 Y 110.418 I -56.428 J  27.309
G2 X 193.240 Y 102.878 I -52.299 J  35.872
G2 X 186.038 Y  96.293 I -46.759 J  43.907
G2 X 177.923 Y  90.868 I -40.000 J  51.058
G2 X 168.824 Y  86.614 I -32.244 J  57.119
G2 X 159.338 Y  83.825 I -23.395 J  62.036
G2 X 149.151 Y  82.446 I -14.064 J  65.544
G2 X 139.045 Y  82.615 I  -3.918 J  67.628
G2 X 128.711 Y  84.369 I   6.256 J  68.190
G2 X 118.821 Y  87.647 I  16.762 J  67.128
G2 X 109.350 Y  92.477 I  26.933 J  64.522
G2 X 100.605 Y  98.772 I  36.782 J  60.312
G2 X  92.974 Y 106.250 I  45.987 J  54.563
G2 X  86.303 Y 115.146 I  54.169 J  47.569
G2 X  80.678 Y 125.874 I  61.443 J  39.056
G2 X  76.131 Y 140.970 I  67.928 J  28.691
G2 X  74.849 Y 154.430 I  73.533 J  13.794
G2 X  75.040 Y 160.133 I  75.251 J   0.336
G2 X  76.192 Y 168.941 I  75.537 J  -5.401
G2 X  79.213 Y 180.096 I  75.055 J -14.337
G2 X  83.986 Y 190.880 I  72.722 J -25.735
G2 X  90.220 Y 200.656 I  68.575 J -36.856
G2 X  98.162 Y 209.730 I  62.929 J -47.072
G2 X 107.154 Y 217.314 I  55.479 J -56.648
G2 X 117.616 Y 223.725 I  46.919 J -64.830
G2 X 128.735 Y 228.402 I  36.778 J -71.869
G2 X 140.800 Y 231.445 I  25.893 J -77.241
G2 X 153.214 Y 232.623 I  13.950 J -80.994
G2 X 165.649 Y 231.920 I   1.550 J -82.891
G2 X 178.185 Y 229.269 I -10.982 J -82.913
G2 X 189.895 Y 224.872 I -23.716 J -80.940
G2 X 201.295 Y 218.490 I -35.735 J -77.212
G2 X 211.330 Y 210.680 I -47.524 J -71.413
G2 X 220.452 Y 201.054 I -58.054 J -64.151
G2 X 227.904 Y 190.319 I -67.725 J -54.971
G2 X 233.797 Y 178.294 I -75.807 J -44.606
G2 X 237.831 Y 165.400 I -82.374 J -32.849
G2 X 239.855 Y 152.209 I -87.104 J -20.116
G2 X 239.865 Y 138.374 I -89.860 J  -6.982
G2 X 237.858 Y 125.100 I -90.570 J   6.906
G2 X 233.688 Y 111.663 I -89.283 J  20.345
G2 X 227.710 Y  99.354 I -85.763 J  34.040
G2 X 219.631 Y  87.617 I -80.424 J  46.720
G2 X 209.968 Y  77.347 I -72.898 J  58.903
G2 X 198.710 Y  68.523 I -63.726 J  69.709
G2 X 186.027 Y  61.388 I -52.872 J  79.140
G2 X 172.717 Y  56.352 I -40.489 J  86.918
G2 X 158.189 Y  53.249 I -27.387 J  92.660
G2 X 143.862 Y  52.393 I -12.953 J  96.456
G2 X 128.856 Y  53.763 I   1.385 J  98.052
G2 X 114.611 Y  57.284 I  16.508 J  97.373
G2 X 100.545 Y  63.119 I  30.983 J  94.552
G2 X  87.583 Y  70.987 I  45.373 J  89.357
G2 X  75.945 Y  80.721 I  58.755 J  82.074
G2 X  65.637 Y  92.420 I  70.904 J  72.865
G2 X  57.456 Y 105.138 I  81.774 J  61.590
G2 X  50.948 Y 119.701 I  90.605 J  49.225
G2 X  46.609 Y 135.874 I  97.775 J  34.898
G2 X  44.912 Y 152.688 I 103.000 J  18.888
G2 X  45.056 Y 160.641 I 105.127 J   2.082
G2 X  46.488 Y 173.041 I 105.462 J  -5.897
G2 X  50.349 Y 188.283 I 104.674 J -18.410
G2 X  56.723 Y 203.403 I 101.513 J -33.886
G2 X  65.217 Y 217.226 I  95.773 J -49.333
G2 X  75.795 Y 229.734 I  87.866 J -63.580
G2 X  88.412 Y 240.723 I  77.809 J -76.601
G2 X 102.121 Y 249.430 I  65.613 J -88.156
G2 X 117.817 Y 256.333 I  52.254 J -97.515
G2 X 135.508 Y 260.937 I  36.790 J-105.083
G2 X 157.221 Y 262.574 I  19.260 J-110.608
G2 X 174.982 Y 260.777 I  -2.472 J-113.073
G2 X 191.213 Y 256.570 I -20.357 J-111.962
G2 X 207.388 Y 249.651 I -36.827 J-108.458
G2 X 222.053 Y 240.537 I -53.329 J-102.166
G2 X 235.438 Y 229.102 I -68.425 J -93.641
G2 X 247.093 Y 215.576 I -82.323 J -82.722
G2 X 256.330 Y 200.863 I -94.549 J -69.616
G2 X 263.586 Y 184.139 I-104.439 J -55.249
G2 X 268.080 Y 167.106 I-112.352 J -38.752
G2 X 270.093 Y 145.885 I-117.590 J -21.857
G2 X 267.544 Y 120.576 I-120.572 J  -0.640
G2 X 259.682 Y  96.173 I-119.010 J  24.875
G2 X 246.786 Y  73.798 I-112.069 J  49.686
G2 X 229.486 Y  54.588 I -99.988 J  72.652
G2 X 210.444 Y  40.481 I -83.354 J  92.603
G2 X 191.963 Y  31.324 I -64.699 J 107.351
G2 X 166.387 Y  24.182 I -46.566 J 117.387
G2 X 141.170 Y  22.475 I -21.159 J 125.532
G2 X 120.875 Y  24.751 I   4.085 J 128.074
G2 X 100.479 Y  30.478 I  24.513 J 126.487
G2 X  75.924 Y  42.702 I  45.239 J 121.647
G2 X  54.114 Y  60.150 I  70.346 J 110.289
G2 X  36.567 Y  81.693 I  92.868 J  93.559
G2 X  24.176 Y 105.733 I 111.242 J  72.554
G2 X  16.857 Y 131.979 I 124.554 J  48.876
G2 X  14.923 Y 153.324 I 132.796 J  22.788
G2 X  15.036 Y 160.471 I 135.156 J   1.448
G2 X  16.489 Y 175.345 I 135.288 J  -5.710
G2 X  23.025 Y 200.967 I 134.720 J -20.720
G2 X  32.089 Y 220.899 I 128.970 J -46.625
G2 X  44.782 Y 239.870 I 120.517 J -66.897
G2 X  65.394 Y 260.770 I 108.576 J -86.467
G2 X  90.059 Y 276.954 I  88.603 J-108.148
G2 X 117.782 Y 287.683 I  64.400 J-125.229
G2 X 147.363 Y 292.387 I  36.940 J-136.932
G2 X 177.497 Y 290.760 I   7.411 J-142.644
G2 X 206.834 Y 282.778 I -22.884 J-142.015
G2 X 234.029 Y 268.710 I -52.588 J-134.975
G2 X 257.729 Y 249.201 I -80.339 J-121.751
G2 X 276.065 Y 226.380 I-104.755 J-102.944
G2 X 289.600 Y 200.198 I-123.821 J -80.599
G2 X 296.742 Y 176.651 I-138.438 J -54.845
G2 X 298.843 Y 164.409 I-145.304 J -31.239
G2 X 299.822 Y 153.949 I-149.393 J -19.253
G2 X 300.000 Y 150.000 I-148.426 J  -8.679
G1 Z   3.000
G0 Z  15.000 
M9 M5

(* SHAPE Nr: 4 *)
G0 X 300.000 Y 300.000
M3 M8
G0 Z   3.000 
F400
G1 Z  -1.500
F5000
G1 X   0.000 Y   0.000
F400
G1 Z  -3.000
F5000
G1 X 300.000 Y 300.000
G1 Z   3.000
G0 Z  15.000 
M9 M5

(* SHAPE Nr: 0 *)
G0 X   0.000 Y   0.000
M3 M8
G0 Z   3.000 
F400
G1 Z  -1.500
F5000
G1 X   0.000 Y 300.000
G1 X 300.000 Y 300.000
G1 X 300.000 Y   0.000
G1 X   0.000 Y   0.000
F400
G1 Z  -3.000
F5000
G1 X   0.000 Y 300.000
G1 X 300.000 Y 300.000
G1 X 300.000 Y   0.000
G1 X   0.000 Y   0.000
G1 Z   3.000
G0 Z  15.000 
M9 M5
G0 X   0.000 Y   0.000
M2 (Program end)