%
(Header)
(Generated by gcodetools from Inkscape.)
(Using default header. To add your own header create file "header" in the output dir.)
M3
(Header end.)
G21 (All units in mm)

(Start cutting path id: polyline2869)
(Change tool to Default tool)

G00 Z6.000000
G00 X594.415266 Y6.749575

G01 Z2.000000 F100.0(Penetrate)
G01 X594.415266 Y16.077638 Z2.000000 F400.000000
G01 X585.068732 Y16.077638 Z2.000000
G01 X585.068732 Y6.749575 Z2.000000
G01 X566.375662 Y6.749575 Z2.000000
G01 X566.375662 Y16.077638 Z2.000000
G01 X575.722197 Y16.077638 Z2.000000
G01 X575.722197 Y25.405701 Z2.000000
G01 X566.375662 Y25.405701 Z2.000000
G01 X566.375662 Y34.733765 Z2.000000
G01 X585.068732 Y34.733765 Z2.000000
G01 X585.068732 Y25.405701 Z2.000000
G01 X594.415266 Y25.405701 Z2.000000
G01 X594.415266 Y44.061828 Z2.000000
G01 X585.068732 Y44.061828 Z2.000000
G01 X585.068732 Y53.389892 Z2.000000
G01 X594.415266 Y53.389892 Z2.000000
G01 X594.415266 Y72.046018 Z2.000000
G01 X585.068732 Y72.046018 Z2.000000
G01 X585.068732 Y62.717955 Z2.000000
G01 X575.722197 Y62.717955 Z2.000000
G01 X575.722197 Y72.046018 Z2.000000
G01 X566.375662 Y72.046018 Z2.000000
G01 X566.375662 Y53.389892 Z2.000000
G01 X575.722197 Y53.389892 Z2.000000
G01 X575.722197 Y44.061828 Z2.000000
G01 X547.682593 Y44.061828 Z2.000000
G01 X547.682593 Y53.389892 Z2.000000
G01 X557.029128 Y53.389892 Z2.000000
G01 X557.029128 Y72.046018 Z2.000000
G01 X547.682593 Y72.046018 Z2.000000
G01 X547.682593 Y62.717955 Z2.000000
G01 X538.336058 Y62.717955 Z2.000000
G01 X538.336058 Y72.046018 Z2.000000
G01 X528.989524 Y72.046018 Z2.000000
G01 X528.989524 Y53.389892 Z2.000000
G01 X538.336058 Y53.389892 Z2.000000
G01 X538.336058 Y44.061828 Z2.000000
G01 X528.989524 Y44.061828 Z2.000000
G01 X528.989524 Y25.405701 Z2.000000
G01 X538.336058 Y25.405701 Z2.000000
G01 X538.336058 Y34.733765 Z2.000000
G01 X557.029128 Y34.733765 Z2.000000
G01 X557.029128 Y25.405701 Z2.000000
G01 X547.682593 Y25.405701 Z2.000000
G01 X547.682593 Y16.077638 Z2.000000
G01 X557.029128 Y16.077638 Z2.000000
G01 X557.029128 Y6.749575 Z2.000000
G01 X538.336058 Y6.749575 Z2.000000
G01 X538.336058 Y16.077638 Z2.000000
G01 X528.989524 Y16.077638 Z2.000000
G01 X528.989524 Y6.749575 Z2.000000
G01 X510.296454 Y6.749575 Z2.000000
G01 X510.296454 Y16.077638 Z2.000000
G01 X519.642989 Y16.077638 Z2.000000
G01 X519.642989 Y34.733765 Z2.000000
G01 X510.296454 Y34.733765 Z2.000000
G01 X510.296454 Y25.405701 Z2.000000
G01 X500.949919 Y25.405701 Z2.000000
G01 X500.949919 Y34.733765 Z2.000000
G01 X491.603385 Y34.733765 Z2.000000
G01 X491.603385 Y16.077638 Z2.000000
G01 X500.949919 Y16.077638 Z2.000000
G01 X500.949919 Y6.749575 Z2.000000
G01 X482.256850 Y6.749575 Z2.000000
G01 X482.256850 Y16.077638 Z2.000000
G01 X472.910315 Y16.077638 Z2.000000
G01 X472.910315 Y6.749575 Z2.000000
G01 X454.217246 Y6.749575 Z2.000000
G01 X454.217246 Y16.077638 Z2.000000
G01 X463.563781 Y16.077638 Z2.000000
G01 X463.563781 Y25.405701 Z2.000000
G01 X454.217246 Y25.405701 Z2.000000
G01 X454.217246 Y34.733765 Z2.000000
G01 X472.910315 Y34.733765 Z2.000000
G01 X472.910315 Y25.405701 Z2.000000
G01 X482.256850 Y25.405701 Z2.000000
G01 X482.256850 Y53.389892 Z2.000000
G01 X472.910315 Y53.389892 Z2.000000
G01 X472.910315 Y44.061828 Z2.000000
G01 X454.217246 Y44.061828 Z2.000000
G01 X454.217246 Y53.389892 Z2.000000
G01 X463.563781 Y53.389892 Z2.000000
G01 X463.563781 Y62.717955 Z2.000000
G01 X454.217246 Y62.717955 Z2.000000
G01 X454.217246 Y72.046018 Z2.000000
G01 X472.910315 Y72.046018 Z2.000000
G01 X472.910315 Y62.717955 Z2.000000
G01 X482.256850 Y62.717955 Z2.000000
G01 X482.256850 Y72.046018 Z2.000000
G01 X500.949919 Y72.046018 Z2.000000
G01 X500.949919 Y62.717955 Z2.000000
G01 X491.603385 Y62.717955 Z2.000000
G01 X491.603385 Y44.061828 Z2.000000
G01 X500.949919 Y44.061828 Z2.000000
G01 X500.949919 Y53.389892 Z2.000000
G01 X510.296454 Y53.389892 Z2.000000
G01 X510.296454 Y44.061828 Z2.000000
G01 X519.642989 Y44.061828 Z2.000000
G01 X519.642989 Y62.717955 Z2.000000
G01 X510.296454 Y62.717955 Z2.000000
G01 X510.296454 Y72.046018 Z2.000000
G01 X519.642989 Y72.046018 Z2.000000
G01 X519.642989 Y81.374082 Z2.000000
G01 X510.296454 Y81.374082 Z2.000000
G01 X510.296454 Y90.702145 Z2.000000
G01 X519.642989 Y90.702145 Z2.000000
G01 X519.642989 Y109.358272 Z2.000000
G01 X510.296454 Y109.358272 Z2.000000
G01 X510.296454 Y100.030208 Z2.000000
G01 X500.949919 Y100.030208 Z2.000000
G01 X500.949919 Y109.358272 Z2.000000
G01 X491.603385 Y109.358272 Z2.000000
G01 X491.603385 Y90.702145 Z2.000000
G01 X500.949919 Y90.702145 Z2.000000
G01 X500.949919 Y81.374082 Z2.000000
G01 X482.256850 Y81.374082 Z2.000000
G01 X482.256850 Y90.702145 Z2.000000
G01 X472.910315 Y90.702145 Z2.000000
G01 X472.910315 Y81.374082 Z2.000000
G01 X454.217246 Y81.374082 Z2.000000
G01 X454.217246 Y90.702145 Z2.000000
G01 X463.563781 Y90.702145 Z2.000000
G01 X463.563781 Y100.030208 Z2.000000
G01 X454.217246 Y100.030208 Z2.000000
G01 X454.217246 Y109.358272 Z2.000000
G01 X472.910315 Y109.358272 Z2.000000
G01 X472.910315 Y100.030208 Z2.000000
G01 X482.256850 Y100.030208 Z2.000000
G01 X482.256850 Y128.014398 Z2.000000
G01 X472.910315 Y128.014398 Z2.000000
G01 X472.910315 Y118.686335 Z2.000000
G01 X454.217246 Y118.686335 Z2.000000
G01 X454.217246 Y128.014398 Z2.000000
G01 X463.563781 Y128.014398 Z2.000000
G01 X463.563781 Y137.342462 Z2.000000
G01 X454.217246 Y137.342462 Z2.000000
G01 X454.217246 Y146.670525 Z2.000000
G01 X472.910315 Y146.670525 Z2.000000
G01 X472.910315 Y137.342462 Z2.000000
G01 X482.256850 Y137.342462 Z2.000000
G01 X482.256850 Y146.670525 Z2.000000
G01 X500.949919 Y146.670525 Z2.000000
G01 X500.949919 Y137.342462 Z2.000000
G01 X491.603385 Y137.342462 Z2.000000
G01 X491.603385 Y118.686335 Z2.000000
G01 X500.949919 Y118.686335 Z2.000000
G01 X500.949919 Y128.014398 Z2.000000
G01 X510.296454 Y128.014398 Z2.000000
G01 X510.296454 Y118.686335 Z2.000000
G01 X519.642989 Y118.686335 Z2.000000
G01 X519.642989 Y137.342462 Z2.000000
G01 X510.296454 Y137.342462 Z2.000000
G01 X510.296454 Y146.670525 Z2.000000
G01 X528.989524 Y146.670525 Z2.000000
G01 X528.989524 Y137.342462 Z2.000000
G01 X538.336058 Y137.342462 Z2.000000
G01 X538.336058 Y146.670525 Z2.000000
G01 X557.029128 Y146.670525 Z2.000000
G01 X557.029128 Y137.342462 Z2.000000
G01 X547.682593 Y137.342462 Z2.000000
G01 X547.682593 Y128.014398 Z2.000000
G01 X557.029128 Y128.014398 Z2.000000
G01 X557.029128 Y118.686335 Z2.000000
G01 X538.336058 Y118.686335 Z2.000000
G01 X538.336058 Y128.014398 Z2.000000
G01 X528.989524 Y128.014398 Z2.000000
G01 X528.989524 Y109.358272 Z2.000000
G01 X538.336058 Y109.358272 Z2.000000
G01 X538.336058 Y100.030208 Z2.000000
G01 X528.989524 Y100.030208 Z2.000000
G01 X528.989524 Y81.374082 Z2.000000
G01 X538.336058 Y81.374082 Z2.000000
G01 X538.336058 Y90.702145 Z2.000000
G01 X547.682593 Y90.702145 Z2.000000
G01 X547.682593 Y81.374082 Z2.000000
G01 X557.029128 Y81.374082 Z2.000000
G01 X557.029128 Y100.030208 Z2.000000
G01 X547.682593 Y100.030208 Z2.000000
G01 X547.682593 Y109.358272 Z2.000000
G01 X575.722197 Y109.358272 Z2.000000
G01 X575.722197 Y100.030208 Z2.000000
G01 X566.375662 Y100.030208 Z2.000000
G01 X566.375662 Y81.374082 Z2.000000
G01 X575.722197 Y81.374082 Z2.000000
G01 X575.722197 Y90.702145 Z2.000000
G01 X585.068732 Y90.702145 Z2.000000
G01 X585.068732 Y81.374082 Z2.000000
G01 X594.415266 Y81.374082 Z2.000000
G01 X594.415266 Y100.030208 Z2.000000
G01 X585.068732 Y100.030208 Z2.000000
G01 X585.068732 Y109.358272 Z2.000000
G01 X594.415266 Y109.358272 Z2.000000
G01 X594.415266 Y128.014398 Z2.000000
G01 X585.068732 Y128.014398 Z2.000000
G01 X585.068732 Y118.686335 Z2.000000
G01 X566.375662 Y118.686335 Z2.000000
G01 X566.375662 Y128.014398 Z2.000000
G01 X575.722197 Y128.014398 Z2.000000
G01 X575.722197 Y137.342462 Z2.000000
G01 X566.375662 Y137.342462 Z2.000000
G01 X566.375662 Y146.670525 Z2.000000
G01 X585.068732 Y146.670525 Z2.000000
G01 X585.068732 Y137.342462 Z2.000000
G01 X594.415266 Y137.342462 Z2.000000
G01 X594.415266 Y155.998588 Z2.000000
G01 X585.068732 Y155.998588 Z2.000000
G01 X585.068732 Y165.326652 Z2.000000
G01 X594.415266 Y165.326652 Z2.000000
G01 X594.415266 Y183.982779 Z2.000000
G01 X585.068732 Y183.982779 Z2.000000
G01 X585.068732 Y174.654715 Z2.000000
G01 X575.722197 Y174.654715 Z2.000000
G01 X575.722197 Y183.982779 Z2.000000
G01 X566.375662 Y183.982779 Z2.000000
G01 X566.375662 Y165.326652 Z2.000000
G01 X575.722197 Y165.326652 Z2.000000
G01 X575.722197 Y155.998588 Z2.000000
G01 X557.029128 Y155.998588 Z2.000000
G01 X557.029128 Y165.326652 Z2.000000
G01 X547.682593 Y165.326652 Z2.000000
G01 X547.682593 Y155.998588 Z2.000000
G01 X528.989524 Y155.998588 Z2.000000
G01 X528.989524 Y165.326652 Z2.000000
G01 X538.336058 Y165.326652 Z2.000000
G01 X538.336058 Y174.654715 Z2.000000
G01 X528.989524 Y174.654715 Z2.000000
G01 X528.989524 Y183.982779 Z2.000000
G01 X547.682593 Y183.982779 Z2.000000
G01 X547.682593 Y174.654715 Z2.000000
G01 X557.029128 Y174.654715 Z2.000000
G01 X557.029128 Y202.638905 Z2.000000
G01 X547.682593 Y202.638905 Z2.000000
G01 X547.682593 Y193.310842 Z2.000000
G01 X528.989524 Y193.310842 Z2.000000
G01 X528.989524 Y202.638905 Z2.000000
G01 X538.336058 Y202.638905 Z2.000000
G01 X538.336058 Y211.966969 Z2.000000
G01 X528.989524 Y211.966969 Z2.000000
G01 X528.989524 Y221.295032 Z2.000000
G01 X547.682593 Y221.295032 Z2.000000
G01 X547.682593 Y211.966969 Z2.000000
G01 X557.029128 Y211.966969 Z2.000000
G01 X557.029128 Y221.295032 Z2.000000
G01 X575.722197 Y221.295032 Z2.000000
G01 X575.722197 Y211.966969 Z2.000000
G01 X566.375662 Y211.966969 Z2.000000
G01 X566.375662 Y193.310842 Z2.000000
G01 X575.722197 Y193.310842 Z2.000000
G01 X575.722197 Y202.638905 Z2.000000
G01 X585.068732 Y202.638905 Z2.000000
G01 X585.068732 Y193.310842 Z2.000000
G01 X594.415266 Y193.310842 Z2.000000
G01 X594.415266 Y211.966969 Z2.000000
G01 X585.068732 Y211.966969 Z2.000000
G01 X585.068732 Y221.295032 Z2.000000
G01 X594.415266 Y221.295032 Z2.000000
G01 X594.415266 Y239.951159 Z2.000000
G01 X585.068732 Y239.951159 Z2.000000
G01 X585.068732 Y230.623095 Z2.000000
G01 X566.375662 Y230.623095 Z2.000000
G01 X566.375662 Y239.951159 Z2.000000
G01 X575.722197 Y239.951159 Z2.000000
G01 X575.722197 Y249.279222 Z2.000000
G01 X566.375662 Y249.279222 Z2.000000
G01 X566.375662 Y258.607285 Z2.000000
G01 X585.068732 Y258.607285 Z2.000000
G01 X585.068732 Y249.279222 Z2.000000
G01 X594.415266 Y249.279222 Z2.000000
G01 X594.415266 Y267.935349 Z2.000000
G01 X585.068732 Y267.935349 Z2.000000
G01 X585.068732 Y277.263412 Z2.000000
G01 X594.415266 Y277.263412 Z2.000000
G01 X594.415266 Y295.919539 Z2.000000
G01 X585.068732 Y295.919539 Z2.000000
G01 X585.068732 Y286.591475 Z2.000000
G01 X575.722197 Y286.591475 Z2.000000
G01 X575.722197 Y295.919539 Z2.000000
G01 X566.375662 Y295.919539 Z2.000000
G01 X566.375662 Y277.263412 Z2.000000
G01 X575.722197 Y277.263412 Z2.000000
G01 X575.722197 Y267.935349 Z2.000000
G01 X547.682593 Y267.935349 Z2.000000
G01 X547.682593 Y277.263412 Z2.000000
G01 X557.029128 Y277.263412 Z2.000000
G01 X557.029128 Y295.919539 Z2.000000
G01 X547.682593 Y295.919539 Z2.000000
G01 X547.682593 Y286.591475 Z2.000000
G01 X538.336058 Y286.591475 Z2.000000
G01 X538.336058 Y295.919539 Z2.000000
G01 X528.989524 Y295.919539 Z2.000000
G01 X528.989524 Y277.263412 Z2.000000
G01 X538.336058 Y277.263412 Z2.000000
G01 X538.336058 Y267.935349 Z2.000000
G01 X528.989524 Y267.935349 Z2.000000
G01 X528.989524 Y249.279222 Z2.000000
G01 X538.336058 Y249.279222 Z2.000000
G01 X538.336058 Y258.607285 Z2.000000
G01 X557.029128 Y258.607285 Z2.000000
G01 X557.029128 Y249.279222 Z2.000000
G01 X547.682593 Y249.279222 Z2.000000
G01 X547.682593 Y239.951159 Z2.000000
G01 X557.029128 Y239.951159 Z2.000000
G01 X557.029128 Y230.623095 Z2.000000
G01 X538.336058 Y230.623095 Z2.000000
G01 X538.336058 Y239.951159 Z2.000000
G01 X528.989524 Y239.951159 Z2.000000
G01 X528.989524 Y230.623095 Z2.000000
G01 X519.642989 Y230.623095 Z2.000000
G01 X519.642989 Y239.951159 Z2.000000
G01 X510.296454 Y239.951159 Z2.000000
G01 X510.296454 Y230.623095 Z2.000000
G01 X491.603385 Y230.623095 Z2.000000
G01 X491.603385 Y239.951159 Z2.000000
G01 X500.949919 Y239.951159 Z2.000000
G01 X500.949919 Y249.279222 Z2.000000
G01 X491.603385 Y249.279222 Z2.000000
G01 X491.603385 Y258.607285 Z2.000000
G01 X510.296454 Y258.607285 Z2.000000
G01 X510.296454 Y249.279222 Z2.000000
G01 X519.642989 Y249.279222 Z2.000000
G01 X519.642989 Y267.935349 Z2.000000
G01 X510.296454 Y267.935349 Z2.000000
G01 X510.296454 Y277.263412 Z2.000000
G01 X519.642989 Y277.263412 Z2.000000
G01 X519.642989 Y295.919539 Z2.000000
G01 X510.296454 Y295.919539 Z2.000000
G01 X510.296454 Y286.591475 Z2.000000
G01 X500.949919 Y286.591475 Z2.000000
G01 X500.949919 Y295.919539 Z2.000000
G01 X491.603385 Y295.919539 Z2.000000
G01 X491.603385 Y277.263412 Z2.000000
G01 X500.949919 Y277.263412 Z2.000000
G01 X500.949919 Y267.935349 Z2.000000
G01 X472.910315 Y267.935349 Z2.000000
G01 X472.910315 Y277.263412 Z2.000000
G01 X482.256850 Y277.263412 Z2.000000
G01 X482.256850 Y295.919539 Z2.000000
G01 X472.910315 Y295.919539 Z2.000000
G01 X472.910315 Y286.591475 Z2.000000
G01 X463.563781 Y286.591475 Z2.000000
G01 X463.563781 Y295.919539 Z2.000000
G01 X454.217246 Y295.919539 Z2.000000
G01 X454.217246 Y277.263412 Z2.000000
G01 X463.563781 Y277.263412 Z2.000000
G01 X463.563781 Y267.935349 Z2.000000
G01 X454.217246 Y267.935349 Z2.000000
G01 X454.217246 Y249.279222 Z2.000000
G01 X463.563781 Y249.279222 Z2.000000
G01 X463.563781 Y258.607285 Z2.000000
G01 X482.256850 Y258.607285 Z2.000000
G01 X482.256850 Y249.279222 Z2.000000
G01 X472.910315 Y249.279222 Z2.000000
G01 X472.910315 Y239.951159 Z2.000000
G01 X482.256850 Y239.951159 Z2.000000
G01 X482.256850 Y230.623095 Z2.000000
G01 X463.563781 Y230.623095 Z2.000000
G01 X463.563781 Y239.951159 Z2.000000
G01 X454.217246 Y239.951159 Z2.000000
G01 X454.217246 Y230.623095 Z2.000000
G01 X454.217246 Y221.295032 Z2.000000
G01 X463.563781 Y221.295032 Z2.000000
G01 X463.563781 Y211.966969 Z2.000000
G01 X454.217246 Y211.966969 Z2.000000
G01 X454.217246 Y193.310842 Z2.000000
G01 X463.563781 Y193.310842 Z2.000000
G01 X463.563781 Y202.638905 Z2.000000
G01 X472.910315 Y202.638905 Z2.000000
G01 X472.910315 Y193.310842 Z2.000000
G01 X482.256850 Y193.310842 Z2.000000
G01 X482.256850 Y211.966969 Z2.000000
G01 X472.910315 Y211.966969 Z2.000000
G01 X472.910315 Y221.295032 Z2.000000
G01 X491.603385 Y221.295032 Z2.000000
G01 X491.603385 Y211.966969 Z2.000000
G01 X500.949919 Y211.966969 Z2.000000
G01 X500.949919 Y221.295032 Z2.000000
G01 X519.642989 Y221.295032 Z2.000000
G01 X519.642989 Y211.966969 Z2.000000
G01 X510.296454 Y211.966969 Z2.000000
G01 X510.296454 Y202.638905 Z2.000000
G01 X519.642989 Y202.638905 Z2.000000
G01 X519.642989 Y193.310842 Z2.000000
G01 X500.949919 Y193.310842 Z2.000000
G01 X500.949919 Y202.638905 Z2.000000
G01 X491.603385 Y202.638905 Z2.000000
G01 X491.603385 Y174.654715 Z2.000000
G01 X500.949919 Y174.654715 Z2.000000
G01 X500.949919 Y183.982779 Z2.000000
G01 X519.642989 Y183.982779 Z2.000000
G01 X519.642989 Y174.654715 Z2.000000
G01 X510.296454 Y174.654715 Z2.000000
G01 X510.296454 Y165.326652 Z2.000000
G01 X519.642989 Y165.326652 Z2.000000
G01 X519.642989 Y155.998588 Z2.000000
G01 X500.949919 Y155.998588 Z2.000000
G01 X500.949919 Y165.326652 Z2.000000
G01 X491.603385 Y165.326652 Z2.000000
G01 X491.603385 Y155.998588 Z2.000000
G01 X472.910315 Y155.998588 Z2.000000
G01 X472.910315 Y165.326652 Z2.000000
G01 X482.256850 Y165.326652 Z2.000000
G01 X482.256850 Y183.982779 Z2.000000
G01 X472.910315 Y183.982779 Z2.000000
G01 X472.910315 Y174.654715 Z2.000000
G01 X463.563781 Y174.654715 Z2.000000
G01 X463.563781 Y183.982779 Z2.000000
G01 X454.217246 Y183.982779 Z2.000000
G01 X454.217246 Y165.326652 Z2.000000
G01 X463.563781 Y165.326652 Z2.000000
G01 X463.563781 Y155.998588 Z2.000000
G01 X435.524177 Y155.998588 Z2.000000
G01 X435.524177 Y165.326652 Z2.000000
G01 X444.870711 Y165.326652 Z2.000000
G01 X444.870711 Y183.982779 Z2.000000
G01 X435.524177 Y183.982779 Z2.000000
G01 X435.524177 Y174.654715 Z2.000000
G01 X426.177642 Y174.654715 Z2.000000
G01 X426.177642 Y183.982779 Z2.000000
G01 X416.831107 Y183.982779 Z2.000000
G01 X416.831107 Y165.326652 Z2.000000
G01 X426.177642 Y165.326652 Z2.000000
G01 X426.177642 Y155.998588 Z2.000000
G01 X407.484573 Y155.998588 Z2.000000
G01 X407.484573 Y165.326652 Z2.000000
G01 X398.138038 Y165.326652 Z2.000000
G01 X398.138038 Y155.998588 Z2.000000
G01 X379.444969 Y155.998588 Z2.000000
G01 X379.444969 Y165.326652 Z2.000000
G01 X388.791503 Y165.326652 Z2.000000
G01 X388.791503 Y174.654715 Z2.000000
G01 X379.444969 Y174.654715 Z2.000000
G01 X379.444969 Y183.982779 Z2.000000
G01 X398.138038 Y183.982779 Z2.000000
G01 X398.138038 Y174.654715 Z2.000000
G01 X407.484573 Y174.654715 Z2.000000
G01 X407.484573 Y202.638905 Z2.000000
G01 X398.138038 Y202.638905 Z2.000000
G01 X398.138038 Y193.310842 Z2.000000
G01 X379.444969 Y193.310842 Z2.000000
G01 X379.444969 Y202.638905 Z2.000000
G01 X388.791503 Y202.638905 Z2.000000
G01 X388.791503 Y211.966969 Z2.000000
G01 X379.444969 Y211.966969 Z2.000000
G01 X379.444969 Y221.295032 Z2.000000
G01 X398.138038 Y221.295032 Z2.000000
G01 X398.138038 Y211.966969 Z2.000000
G01 X407.484573 Y211.966969 Z2.000000
G01 X407.484573 Y221.295032 Z2.000000
G01 X426.177642 Y221.295032 Z2.000000
G01 X426.177642 Y211.966969 Z2.000000
G01 X416.831107 Y211.966969 Z2.000000
G01 X416.831107 Y193.310842 Z2.000000
G01 X426.177642 Y193.310842 Z2.000000
G01 X426.177642 Y202.638905 Z2.000000
G01 X435.524177 Y202.638905 Z2.000000
G01 X435.524177 Y193.310842 Z2.000000
G01 X444.870711 Y193.310842 Z2.000000
G01 X444.870711 Y211.966969 Z2.000000
G01 X435.524177 Y211.966969 Z2.000000
G01 X435.524177 Y221.295032 Z2.000000
G01 X444.870711 Y221.295032 Z2.000000
G01 X444.870711 Y230.623095 Z2.000000
G01 X444.870711 Y239.951159 Z2.000000
G01 X435.524177 Y239.951159 Z2.000000
G01 X435.524177 Y230.623095 Z2.000000
G01 X416.831107 Y230.623095 Z2.000000
G01 X416.831107 Y239.951159 Z2.000000
G01 X426.177642 Y239.951159 Z2.000000
G01 X426.177642 Y249.279222 Z2.000000
G01 X416.831107 Y249.279222 Z2.000000
G01 X416.831107 Y258.607285 Z2.000000
G01 X435.524177 Y258.607285 Z2.000000
G01 X435.524177 Y249.279222 Z2.000000
G01 X444.870711 Y249.279222 Z2.000000
G01 X444.870711 Y267.935349 Z2.000000
G01 X435.524177 Y267.935349 Z2.000000
G01 X435.524177 Y277.263412 Z2.000000
G01 X444.870711 Y277.263412 Z2.000000
G01 X444.870711 Y295.919539 Z2.000000
G01 X435.524177 Y295.919539 Z2.000000
G01 X435.524177 Y286.591475 Z2.000000
G01 X426.177642 Y286.591475 Z2.000000
G01 X426.177642 Y295.919539 Z2.000000
G01 X416.831107 Y295.919539 Z2.000000
G01 X416.831107 Y277.263412 Z2.000000
G01 X426.177642 Y277.263412 Z2.000000
G01 X426.177642 Y267.935349 Z2.000000
G01 X398.138038 Y267.935349 Z2.000000
G01 X398.138038 Y277.263412 Z2.000000
G01 X407.484573 Y277.263412 Z2.000000
G01 X407.484573 Y295.919539 Z2.000000
G01 X398.138038 Y295.919539 Z2.000000
G01 X398.138038 Y286.591475 Z2.000000
G01 X388.791503 Y286.591475 Z2.000000
G01 X388.791503 Y295.919539 Z2.000000
G01 X379.444969 Y295.919539 Z2.000000
G01 X379.444969 Y277.263412 Z2.000000
G01 X388.791503 Y277.263412 Z2.000000
G01 X388.791503 Y267.935349 Z2.000000
G01 X379.444969 Y267.935349 Z2.000000
G01 X379.444969 Y249.279222 Z2.000000
G01 X388.791503 Y249.279222 Z2.000000
G01 X388.791503 Y258.607285 Z2.000000
G01 X407.484573 Y258.607285 Z2.000000
G01 X407.484573 Y249.279222 Z2.000000
G01 X398.138038 Y249.279222 Z2.000000
G01 X398.138038 Y239.951159 Z2.000000
G01 X407.484573 Y239.951159 Z2.000000
G01 X407.484573 Y230.623095 Z2.000000
G01 X388.791503 Y230.623095 Z2.000000
G01 X388.791503 Y239.951159 Z2.000000
G01 X379.444969 Y239.951159 Z2.000000
G01 X379.444969 Y230.623095 Z2.000000
G01 X370.098434 Y230.623095 Z2.000000
G01 X370.098434 Y239.951159 Z2.000000
G01 X360.751899 Y239.951159 Z2.000000
G01 X360.751899 Y230.623095 Z2.000000
G01 X342.058830 Y230.623095 Z2.000000
G01 X342.058830 Y239.951159 Z2.000000
G01 X351.405364 Y239.951159 Z2.000000
G01 X351.405364 Y249.279222 Z2.000000
G01 X342.058830 Y249.279222 Z2.000000
G01 X342.058830 Y258.607285 Z2.000000
G01 X360.751899 Y258.607285 Z2.000000
G01 X360.751899 Y249.279222 Z2.000000
G01 X370.098434 Y249.279222 Z2.000000
G01 X370.098434 Y267.935349 Z2.000000
G01 X360.751899 Y267.935349 Z2.000000
G01 X360.751899 Y277.263412 Z2.000000
G01 X370.098434 Y277.263412 Z2.000000
G01 X370.098434 Y295.919539 Z2.000000
G01 X360.751899 Y295.919539 Z2.000000
G01 X360.751899 Y286.591475 Z2.000000
G01 X351.405364 Y286.591475 Z2.000000
G01 X351.405364 Y295.919539 Z2.000000
G01 X342.058830 Y295.919539 Z2.000000
G01 X342.058830 Y277.263412 Z2.000000
G01 X351.405364 Y277.263412 Z2.000000
G01 X351.405364 Y267.935349 Z2.000000
G01 X323.365760 Y267.935349 Z2.000000
G01 X323.365760 Y277.263412 Z2.000000
G01 X332.712295 Y277.263412 Z2.000000
G01 X332.712295 Y295.919539 Z2.000000
G01 X323.365760 Y295.919539 Z2.000000
G01 X323.365760 Y286.591475 Z2.000000
G01 X314.019226 Y286.591475 Z2.000000
G01 X314.019226 Y295.919539 Z2.000000
G01 X304.672691 Y295.919539 Z2.000000
G01 X304.672691 Y277.263412 Z2.000000
G01 X314.019226 Y277.263412 Z2.000000
G01 X314.019226 Y267.935349 Z2.000000
G01 X304.672691 Y267.935349 Z2.000000
G01 X304.672691 Y249.279222 Z2.000000
G01 X314.019226 Y249.279222 Z2.000000
G01 X314.019226 Y258.607285 Z2.000000
G01 X332.712295 Y258.607285 Z2.000000
G01 X332.712295 Y249.279222 Z2.000000
G01 X323.365760 Y249.279222 Z2.000000
G01 X323.365760 Y239.951159 Z2.000000
G01 X332.712295 Y239.951159 Z2.000000
G01 X332.712295 Y230.623095 Z2.000000
G01 X314.019226 Y230.623095 Z2.000000
G01 X314.019226 Y239.951159 Z2.000000
G01 X304.672691 Y239.951159 Z2.000000
G01 X304.672691 Y221.295032 Z2.000000
G01 X314.019226 Y221.295032 Z2.000000
G01 X314.019226 Y211.966969 Z2.000000
G01 X304.672691 Y211.966969 Z2.000000
G01 X304.672691 Y193.310842 Z2.000000
G01 X314.019226 Y193.310842 Z2.000000
G01 X314.019226 Y202.638905 Z2.000000
G01 X323.365760 Y202.638905 Z2.000000
G01 X323.365760 Y193.310842 Z2.000000
G01 X332.712295 Y193.310842 Z2.000000
G01 X332.712295 Y211.966969 Z2.000000
G01 X323.365760 Y211.966969 Z2.000000
G01 X323.365760 Y221.295032 Z2.000000
G01 X342.058830 Y221.295032 Z2.000000
G01 X342.058830 Y211.966969 Z2.000000
G01 X351.405364 Y211.966969 Z2.000000
G01 X351.405364 Y221.295032 Z2.000000
G01 X370.098434 Y221.295032 Z2.000000
G01 X370.098434 Y211.966969 Z2.000000
G01 X360.751899 Y211.966969 Z2.000000
G01 X360.751899 Y202.638905 Z2.000000
G01 X370.098434 Y202.638905 Z2.000000
G01 X370.098434 Y193.310842 Z2.000000
G01 X351.405364 Y193.310842 Z2.000000
G01 X351.405364 Y202.638905 Z2.000000
G01 X342.058830 Y202.638905 Z2.000000
G01 X342.058830 Y174.654715 Z2.000000
G01 X351.405364 Y174.654715 Z2.000000
G01 X351.405364 Y183.982779 Z2.000000
G01 X370.098434 Y183.982779 Z2.000000
G01 X370.098434 Y174.654715 Z2.000000
G01 X360.751899 Y174.654715 Z2.000000
G01 X360.751899 Y165.326652 Z2.000000
G01 X370.098434 Y165.326652 Z2.000000
G01 X370.098434 Y155.998588 Z2.000000
G01 X351.405364 Y155.998588 Z2.000000
G01 X351.405364 Y165.326652 Z2.000000
G01 X342.058830 Y165.326652 Z2.000000
G01 X342.058830 Y155.998588 Z2.000000
G01 X323.365760 Y155.998588 Z2.000000
G01 X323.365760 Y165.326652 Z2.000000
G01 X332.712295 Y165.326652 Z2.000000
G01 X332.712295 Y183.982779 Z2.000000
G01 X323.365760 Y183.982779 Z2.000000
G01 X323.365760 Y174.654715 Z2.000000
G01 X314.019226 Y174.654715 Z2.000000
G01 X314.019226 Y183.982779 Z2.000000
G01 X304.672691 Y183.982779 Z2.000000
G01 X304.672691 Y165.326652 Z2.000000
G01 X314.019226 Y165.326652 Z2.000000
G01 X314.019226 Y155.998588 Z2.000000
G01 X304.672691 Y155.998588 Z2.000000
G01 X304.672691 Y137.342462 Z2.000000
G01 X314.019226 Y137.342462 Z2.000000
G01 X314.019226 Y146.670525 Z2.000000
G01 X332.712295 Y146.670525 Z2.000000
G01 X332.712295 Y137.342462 Z2.000000
G01 X323.365760 Y137.342462 Z2.000000
G01 X323.365760 Y128.014398 Z2.000000
G01 X332.712295 Y128.014398 Z2.000000
G01 X332.712295 Y118.686335 Z2.000000
G01 X314.019226 Y118.686335 Z2.000000
G01 X314.019226 Y128.014398 Z2.000000
G01 X304.672691 Y128.014398 Z2.000000
G01 X304.672691 Y109.358272 Z2.000000
G01 X314.019226 Y109.358272 Z2.000000
G01 X314.019226 Y100.030208 Z2.000000
G01 X304.672691 Y100.030208 Z2.000000
G01 X304.672691 Y81.374082 Z2.000000
G01 X314.019226 Y81.374082 Z2.000000
G01 X314.019226 Y90.702145 Z2.000000
G01 X323.365760 Y90.702145 Z2.000000
G01 X323.365760 Y81.374082 Z2.000000
G01 X332.712295 Y81.374082 Z2.000000
G01 X332.712295 Y100.030208 Z2.000000
G01 X323.365760 Y100.030208 Z2.000000
G01 X323.365760 Y109.358272 Z2.000000
G01 X351.405364 Y109.358272 Z2.000000
G01 X351.405364 Y100.030208 Z2.000000
G01 X342.058830 Y100.030208 Z2.000000
G01 X342.058830 Y81.374082 Z2.000000
G01 X351.405364 Y81.374082 Z2.000000
G01 X351.405364 Y90.702145 Z2.000000
G01 X360.751899 Y90.702145 Z2.000000
G01 X360.751899 Y81.374082 Z2.000000
G01 X370.098434 Y81.374082 Z2.000000
G01 X370.098434 Y100.030208 Z2.000000
G01 X360.751899 Y100.030208 Z2.000000
G01 X360.751899 Y109.358272 Z2.000000
G01 X370.098434 Y109.358272 Z2.000000
G01 X370.098434 Y128.014398 Z2.000000
G01 X360.751899 Y128.014398 Z2.000000
G01 X360.751899 Y118.686335 Z2.000000
G01 X342.058830 Y118.686335 Z2.000000
G01 X342.058830 Y128.014398 Z2.000000
G01 X351.405364 Y128.014398 Z2.000000
G01 X351.405364 Y137.342462 Z2.000000
G01 X342.058830 Y137.342462 Z2.000000
G01 X342.058830 Y146.670525 Z2.000000
G01 X360.751899 Y146.670525 Z2.000000
G01 X360.751899 Y137.342462 Z2.000000
G01 X370.098434 Y137.342462 Z2.000000
G01 X370.098434 Y146.670525 Z2.000000
G01 X388.791503 Y146.670525 Z2.000000
G01 X388.791503 Y137.342462 Z2.000000
G01 X379.444969 Y137.342462 Z2.000000
G01 X379.444969 Y118.686335 Z2.000000
G01 X388.791503 Y118.686335 Z2.000000
G01 X388.791503 Y128.014398 Z2.000000
G01 X398.138038 Y128.014398 Z2.000000
G01 X398.138038 Y118.686335 Z2.000000
G01 X407.484573 Y118.686335 Z2.000000
G01 X407.484573 Y137.342462 Z2.000000
G01 X398.138038 Y137.342462 Z2.000000
G01 X398.138038 Y146.670525 Z2.000000
G01 X416.831107 Y146.670525 Z2.000000
G01 X416.831107 Y137.342462 Z2.000000
G01 X426.177642 Y137.342462 Z2.000000
G01 X426.177642 Y146.670525 Z2.000000
G01 X444.870711 Y146.670525 Z2.000000
G01 X444.870711 Y137.342462 Z2.000000
G01 X435.524177 Y137.342462 Z2.000000
G01 X435.524177 Y128.014398 Z2.000000
G01 X444.870711 Y128.014398 Z2.000000
G01 X444.870711 Y118.686335 Z2.000000
G01 X426.177642 Y118.686335 Z2.000000
G01 X426.177642 Y128.014398 Z2.000000
G01 X416.831107 Y128.014398 Z2.000000
G01 X416.831107 Y100.030208 Z2.000000
G01 X426.177642 Y100.030208 Z2.000000
G01 X426.177642 Y109.358272 Z2.000000
G01 X444.870711 Y109.358272 Z2.000000
G01 X444.870711 Y100.030208 Z2.000000
G01 X435.524177 Y100.030208 Z2.000000
G01 X435.524177 Y90.702145 Z2.000000
G01 X444.870711 Y90.702145 Z2.000000
G01 X444.870711 Y81.374082 Z2.000000
G01 X426.177642 Y81.374082 Z2.000000
G01 X426.177642 Y90.702145 Z2.000000
G01 X416.831107 Y90.702145 Z2.000000
G01 X416.831107 Y81.374082 Z2.000000
G01 X398.138038 Y81.374082 Z2.000000
G01 X398.138038 Y90.702145 Z2.000000
G01 X407.484573 Y90.702145 Z2.000000
G01 X407.484573 Y109.358272 Z2.000000
G01 X398.138038 Y109.358272 Z2.000000
G01 X398.138038 Y100.030208 Z2.000000
G01 X388.791503 Y100.030208 Z2.000000
G01 X388.791503 Y109.358272 Z2.000000
G01 X379.444969 Y109.358272 Z2.000000
G01 X379.444969 Y90.702145 Z2.000000
G01 X388.791503 Y90.702145 Z2.000000
G01 X388.791503 Y81.374082 Z2.000000
G01 X379.444969 Y81.374082 Z2.000000
G01 X379.444969 Y72.046018 Z2.000000
G01 X388.791503 Y72.046018 Z2.000000
G01 X388.791503 Y62.717955 Z2.000000
G01 X379.444969 Y62.717955 Z2.000000
G01 X379.444969 Y44.061828 Z2.000000
G01 X388.791503 Y44.061828 Z2.000000
G01 X388.791503 Y53.389892 Z2.000000
G01 X398.138038 Y53.389892 Z2.000000
G01 X398.138038 Y44.061828 Z2.000000
G01 X407.484573 Y44.061828 Z2.000000
G01 X407.484573 Y62.717955 Z2.000000
G01 X398.138038 Y62.717955 Z2.000000
G01 X398.138038 Y72.046018 Z2.000000
G01 X416.831107 Y72.046018 Z2.000000
G01 X416.831107 Y62.717955 Z2.000000
G01 X426.177642 Y62.717955 Z2.000000
G01 X426.177642 Y72.046018 Z2.000000
G01 X444.870711 Y72.046018 Z2.000000
G01 X444.870711 Y62.717955 Z2.000000
G01 X435.524177 Y62.717955 Z2.000000
G01 X435.524177 Y53.389892 Z2.000000
G01 X444.870711 Y53.389892 Z2.000000
G01 X444.870711 Y44.061828 Z2.000000
G01 X426.177642 Y44.061828 Z2.000000
G01 X426.177642 Y53.389892 Z2.000000
G01 X416.831107 Y53.389892 Z2.000000
G01 X416.831107 Y25.405701 Z2.000000
G01 X426.177642 Y25.405701 Z2.000000
G01 X426.177642 Y34.733765 Z2.000000
G01 X444.870711 Y34.733765 Z2.000000
G01 X444.870711 Y25.405701 Z2.000000
G01 X435.524177 Y25.405701 Z2.000000
G01 X435.524177 Y16.077638 Z2.000000
G01 X444.870711 Y16.077638 Z2.000000
G01 X444.870711 Y6.749575 Z2.000000
G01 X426.177642 Y6.749575 Z2.000000
G01 X426.177642 Y16.077638 Z2.000000
G01 X416.831107 Y16.077638 Z2.000000
G01 X416.831107 Y6.749575 Z2.000000
G01 X398.138038 Y6.749575 Z2.000000
G01 X398.138038 Y16.077638 Z2.000000
G01 X407.484573 Y16.077638 Z2.000000
G01 X407.484573 Y34.733765 Z2.000000
G01 X398.138038 Y34.733765 Z2.000000
G01 X398.138038 Y25.405701 Z2.000000
G01 X388.791503 Y25.405701 Z2.000000
G01 X388.791503 Y34.733765 Z2.000000
G01 X379.444969 Y34.733765 Z2.000000
G01 X379.444969 Y16.077638 Z2.000000
G01 X388.791503 Y16.077638 Z2.000000
G01 X388.791503 Y6.749575 Z2.000000
G01 X370.098434 Y6.749575 Z2.000000
G01 X370.098434 Y16.077638 Z2.000000
G01 X360.751899 Y16.077638 Z2.000000
G01 X360.751899 Y6.749575 Z2.000000
G01 X342.058830 Y6.749575 Z2.000000
G01 X342.058830 Y16.077638 Z2.000000
G01 X351.405364 Y16.077638 Z2.000000
G01 X351.405364 Y25.405701 Z2.000000
G01 X342.058830 Y25.405701 Z2.000000
G01 X342.058830 Y34.733765 Z2.000000
G01 X360.751899 Y34.733765 Z2.000000
G01 X360.751899 Y25.405701 Z2.000000
G01 X370.098434 Y25.405701 Z2.000000
G01 X370.098434 Y44.061828 Z2.000000
G01 X360.751899 Y44.061828 Z2.000000
G01 X360.751899 Y53.389892 Z2.000000
G01 X370.098434 Y53.389892 Z2.000000
G01 X370.098434 Y72.046018 Z2.000000
G01 X360.751899 Y72.046018 Z2.000000
G01 X360.751899 Y62.717955 Z2.000000
G01 X351.405364 Y62.717955 Z2.000000
G01 X351.405364 Y72.046018 Z2.000000
G01 X342.058830 Y72.046018 Z2.000000
G01 X342.058830 Y53.389892 Z2.000000
G01 X351.405364 Y53.389892 Z2.000000
G01 X351.405364 Y44.061828 Z2.000000
G01 X323.365760 Y44.061828 Z2.000000
G01 X323.365760 Y53.389892 Z2.000000
G01 X332.712295 Y53.389892 Z2.000000
G01 X332.712295 Y72.046018 Z2.000000
G01 X323.365760 Y72.046018 Z2.000000
G01 X323.365760 Y62.717955 Z2.000000
G01 X314.019226 Y62.717955 Z2.000000
G01 X314.019226 Y72.046018 Z2.000000
G01 X304.672691 Y72.046018 Z2.000000
G01 X304.672691 Y53.389892 Z2.000000
G01 X314.019226 Y53.389892 Z2.000000
G01 X314.019226 Y44.061828 Z2.000000
G01 X304.672691 Y44.061828 Z2.000000
G01 X304.672691 Y25.405701 Z2.000000
G01 X314.019226 Y25.405701 Z2.000000
G01 X314.019226 Y34.733765 Z2.000000
G01 X332.712295 Y34.733765 Z2.000000
G01 X332.712295 Y25.405701 Z2.000000
G01 X323.365760 Y25.405701 Z2.000000
G01 X323.365760 Y16.077638 Z2.000000
G01 X332.712295 Y16.077638 Z2.000000
G01 X332.712295 Y6.749575 Z2.000000
G01 X314.019226 Y6.749575 Z2.000000
G01 X314.019226 Y16.077638 Z2.000000
G01 X304.672691 Y16.077638 Z2.000000
G01 X304.672691 Y5.583567 Z2.000000
G01 X304.672691 Y6.749575 Z2.000000
G01 X285.979622 Y6.749575 Z2.000000
G01 X285.979622 Y16.077638 Z2.000000
G01 X295.326156 Y16.077638 Z2.000000
G01 X295.326156 Y34.733765 Z2.000000
G01 X285.979622 Y34.733765 Z2.000000
G01 X285.979622 Y25.405701 Z2.000000
G01 X276.633087 Y25.405701 Z2.000000
G01 X276.633087 Y34.733765 Z2.000000
G01 X267.286552 Y34.733765 Z2.000000
G01 X267.286552 Y16.077638 Z2.000000
G01 X276.633087 Y16.077638 Z2.000000
G01 X276.633087 Y6.749575 Z2.000000
G01 X257.940018 Y6.749575 Z2.000000
G01 X257.940018 Y16.077638 Z2.000000
G01 X248.593483 Y16.077638 Z2.000000
G01 X248.593483 Y6.749575 Z2.000000
G01 X229.900414 Y6.749575 Z2.000000
G01 X229.900414 Y16.077638 Z2.000000
G01 X239.246948 Y16.077638 Z2.000000
G01 X239.246948 Y25.405701 Z2.000000
G01 X229.900414 Y25.405701 Z2.000000
G01 X229.900414 Y34.733765 Z2.000000
G01 X248.593483 Y34.733765 Z2.000000
G01 X248.593483 Y25.405701 Z2.000000
G01 X257.940018 Y25.405701 Z2.000000
G01 X257.940018 Y53.389892 Z2.000000
G01 X248.593483 Y53.389892 Z2.000000
G01 X248.593483 Y44.061828 Z2.000000
G01 X229.900414 Y44.061828 Z2.000000
G01 X229.900414 Y53.389892 Z2.000000
G01 X239.246948 Y53.389892 Z2.000000
G01 X239.246948 Y62.717955 Z2.000000
G01 X229.900414 Y62.717955 Z2.000000
G01 X229.900414 Y72.046018 Z2.000000
G01 X248.593483 Y72.046018 Z2.000000
G01 X248.593483 Y62.717955 Z2.000000
G01 X257.940018 Y62.717955 Z2.000000
G01 X257.940018 Y72.046018 Z2.000000
G01 X276.633087 Y72.046018 Z2.000000
G01 X276.633087 Y62.717955 Z2.000000
G01 X267.286552 Y62.717955 Z2.000000
G01 X267.286552 Y44.061828 Z2.000000
G01 X276.633087 Y44.061828 Z2.000000
G01 X276.633087 Y53.389892 Z2.000000
G01 X285.979622 Y53.389892 Z2.000000
G01 X285.979622 Y44.061828 Z2.000000
G01 X295.326156 Y44.061828 Z2.000000
G01 X295.326156 Y62.717955 Z2.000000
G01 X285.979622 Y62.717955 Z2.000000
G01 X285.979622 Y72.046018 Z2.000000
G01 X295.326156 Y72.046018 Z2.000000
G01 X295.326156 Y90.702145 Z2.000000
G01 X285.979622 Y90.702145 Z2.000000
G01 X285.979622 Y81.374082 Z2.000000
G01 X267.286552 Y81.374082 Z2.000000
G01 X267.286552 Y90.702145 Z2.000000
G01 X276.633087 Y90.702145 Z2.000000
G01 X276.633087 Y100.030208 Z2.000000
G01 X267.286552 Y100.030208 Z2.000000
G01 X267.286552 Y109.358272 Z2.000000
G01 X285.979622 Y109.358272 Z2.000000
G01 X285.979622 Y100.030208 Z2.000000
G01 X295.326156 Y100.030208 Z2.000000
G01 X295.326156 Y118.686335 Z2.000000
G01 X285.979622 Y118.686335 Z2.000000
G01 X285.979622 Y128.014398 Z2.000000
G01 X295.326156 Y128.014398 Z2.000000
G01 X295.326156 Y146.670525 Z2.000000
G01 X285.979622 Y146.670525 Z2.000000
G01 X285.979622 Y137.342462 Z2.000000
G01 X276.633087 Y137.342462 Z2.000000
G01 X276.633087 Y146.670525 Z2.000000
G01 X267.286552 Y146.670525 Z2.000000
G01 X267.286552 Y128.014398 Z2.000000
G01 X276.633087 Y128.014398 Z2.000000
G01 X276.633087 Y118.686335 Z2.000000
G01 X248.593483 Y118.686335 Z2.000000
G01 X248.593483 Y128.014398 Z2.000000
G01 X257.940018 Y128.014398 Z2.000000
G01 X257.940018 Y146.670525 Z2.000000
G01 X248.593483 Y146.670525 Z2.000000
G01 X248.593483 Y137.342462 Z2.000000
G01 X239.246948 Y137.342462 Z2.000000
G01 X239.246948 Y146.670525 Z2.000000
G01 X229.900414 Y146.670525 Z2.000000
G01 X229.900414 Y128.014398 Z2.000000
G01 X239.246948 Y128.014398 Z2.000000
G01 X239.246948 Y118.686335 Z2.000000
G01 X229.900414 Y118.686335 Z2.000000
G01 X229.900414 Y100.030208 Z2.000000
G01 X239.246948 Y100.030208 Z2.000000
G01 X239.246948 Y109.358272 Z2.000000
G01 X257.940018 Y109.358272 Z2.000000
G01 X257.940018 Y100.030208 Z2.000000
G01 X248.593483 Y100.030208 Z2.000000
G01 X248.593483 Y90.702145 Z2.000000
G01 X257.940018 Y90.702145 Z2.000000
G01 X257.940018 Y81.374082 Z2.000000
G01 X239.246948 Y81.374082 Z2.000000
G01 X239.246948 Y90.702145 Z2.000000
G01 X229.900414 Y90.702145 Z2.000000
G01 X229.900414 Y81.374082 Z2.000000
G01 X220.553879 Y81.374082 Z2.000000
G01 X220.553879 Y90.702145 Z2.000000
G01 X211.207344 Y90.702145 Z2.000000
G01 X211.207344 Y81.374082 Z2.000000
G01 X192.514275 Y81.374082 Z2.000000
G01 X192.514275 Y90.702145 Z2.000000
G01 X201.860809 Y90.702145 Z2.000000
G01 X201.860809 Y100.030208 Z2.000000
G01 X192.514275 Y100.030208 Z2.000000
G01 X192.514275 Y109.358272 Z2.000000
G01 X211.207344 Y109.358272 Z2.000000
G01 X211.207344 Y100.030208 Z2.000000
G01 X220.553879 Y100.030208 Z2.000000
G01 X220.553879 Y118.686335 Z2.000000
G01 X211.207344 Y118.686335 Z2.000000
G01 X211.207344 Y128.014398 Z2.000000
G01 X220.553879 Y128.014398 Z2.000000
G01 X220.553879 Y146.670525 Z2.000000
G01 X211.207344 Y146.670525 Z2.000000
G01 X211.207344 Y137.342462 Z2.000000
G01 X201.860809 Y137.342462 Z2.000000
G01 X201.860809 Y146.670525 Z2.000000
G01 X192.514275 Y146.670525 Z2.000000
G01 X192.514275 Y128.014398 Z2.000000
G01 X201.860809 Y128.014398 Z2.000000
G01 X201.860809 Y118.686335 Z2.000000
G01 X173.821205 Y118.686335 Z2.000000
G01 X173.821205 Y128.014398 Z2.000000
G01 X183.167740 Y128.014398 Z2.000000
G01 X183.167740 Y146.670525 Z2.000000
G01 X173.821205 Y146.670525 Z2.000000
G01 X173.821205 Y137.342462 Z2.000000
G01 X164.474671 Y137.342462 Z2.000000
G01 X164.474671 Y146.670525 Z2.000000
G01 X155.128136 Y146.670525 Z2.000000
G01 X155.128136 Y128.014398 Z2.000000
G01 X164.474671 Y128.014398 Z2.000000
G01 X164.474671 Y118.686335 Z2.000000
G01 X155.128136 Y118.686335 Z2.000000
G01 X155.128136 Y100.030208 Z2.000000
G01 X164.474671 Y100.030208 Z2.000000
G01 X164.474671 Y109.358272 Z2.000000
G01 X183.167740 Y109.358272 Z2.000000
G01 X183.167740 Y100.030208 Z2.000000
G01 X173.821205 Y100.030208 Z2.000000
G01 X173.821205 Y90.702145 Z2.000000
G01 X183.167740 Y90.702145 Z2.000000
G01 X183.167740 Y81.374082 Z2.000000
G01 X164.474671 Y81.374082 Z2.000000
G01 X164.474671 Y90.702145 Z2.000000
G01 X155.128136 Y90.702145 Z2.000000
G01 X155.128136 Y72.046018 Z2.000000
G01 X164.474671 Y72.046018 Z2.000000
G01 X164.474671 Y62.717955 Z2.000000
G01 X155.128136 Y62.717955 Z2.000000
G01 X155.128136 Y44.061828 Z2.000000
G01 X164.474671 Y44.061828 Z2.000000
G01 X164.474671 Y53.389892 Z2.000000
G01 X173.821205 Y53.389892 Z2.000000
G01 X173.821205 Y44.061828 Z2.000000
G01 X183.167740 Y44.061828 Z2.000000
G01 X183.167740 Y62.717955 Z2.000000
G01 X173.821205 Y62.717955 Z2.000000
G01 X173.821205 Y72.046018 Z2.000000
G01 X192.514275 Y72.046018 Z2.000000
G01 X192.514275 Y62.717955 Z2.000000
G01 X201.860809 Y62.717955 Z2.000000
G01 X201.860809 Y72.046018 Z2.000000
G01 X220.553879 Y72.046018 Z2.000000
G01 X220.553879 Y62.717955 Z2.000000
G01 X211.207344 Y62.717955 Z2.000000
G01 X211.207344 Y53.389892 Z2.000000
G01 X220.553879 Y53.389892 Z2.000000
G01 X220.553879 Y44.061828 Z2.000000
G01 X201.860809 Y44.061828 Z2.000000
G01 X201.860809 Y53.389892 Z2.000000
G01 X192.514275 Y53.389892 Z2.000000
G01 X192.514275 Y25.405701 Z2.000000
G01 X201.860809 Y25.405701 Z2.000000
G01 X201.860809 Y34.733765 Z2.000000
G01 X220.553879 Y34.733765 Z2.000000
G01 X220.553879 Y25.405701 Z2.000000
G01 X211.207344 Y25.405701 Z2.000000
G01 X211.207344 Y16.077638 Z2.000000
G01 X220.553879 Y16.077638 Z2.000000
G01 X220.553879 Y6.749575 Z2.000000
G01 X201.860809 Y6.749575 Z2.000000
G01 X201.860809 Y16.077638 Z2.000000
G01 X192.514275 Y16.077638 Z2.000000
G01 X192.514275 Y6.749575 Z2.000000
G01 X173.821205 Y6.749575 Z2.000000
G01 X173.821205 Y16.077638 Z2.000000
G01 X183.167740 Y16.077638 Z2.000000
G01 X183.167740 Y34.733765 Z2.000000
G01 X173.821205 Y34.733765 Z2.000000
G01 X173.821205 Y25.405701 Z2.000000
G01 X164.474671 Y25.405701 Z2.000000
G01 X164.474671 Y34.733765 Z2.000000
G01 X155.128136 Y34.733765 Z2.000000
G01 X155.128136 Y16.077638 Z2.000000
G01 X164.474671 Y16.077638 Z2.000000
G01 X164.474671 Y6.749575 Z2.000000
G01 X145.781601 Y6.749575 Z2.000000
G01 X145.781601 Y16.077638 Z2.000000
G01 X136.435067 Y16.077638 Z2.000000
G01 X136.435067 Y6.749575 Z2.000000
G01 X117.741997 Y6.749575 Z2.000000
G01 X117.741997 Y16.077638 Z2.000000
G01 X127.088532 Y16.077638 Z2.000000
G01 X127.088532 Y25.405701 Z2.000000
G01 X117.741997 Y25.405701 Z2.000000
G01 X117.741997 Y34.733765 Z2.000000
G01 X136.435067 Y34.733765 Z2.000000
G01 X136.435067 Y25.405701 Z2.000000
G01 X145.781601 Y25.405701 Z2.000000
G01 X145.781601 Y44.061828 Z2.000000
G01 X136.435067 Y44.061828 Z2.000000
G01 X136.435067 Y53.389892 Z2.000000
G01 X145.781601 Y53.389892 Z2.000000
G01 X145.781601 Y72.046018 Z2.000000
G01 X136.435067 Y72.046018 Z2.000000
G01 X136.435067 Y62.717955 Z2.000000
G01 X127.088532 Y62.717955 Z2.000000
G01 X127.088532 Y72.046018 Z2.000000
G01 X117.741997 Y72.046018 Z2.000000
G01 X117.741997 Y53.389892 Z2.000000
G01 X127.088532 Y53.389892 Z2.000000
G01 X127.088532 Y44.061828 Z2.000000
G01 X99.048928 Y44.061828 Z2.000000
G01 X99.048928 Y53.389892 Z2.000000
G01 X108.395463 Y53.389892 Z2.000000
G01 X108.395463 Y72.046018 Z2.000000
G01 X99.048928 Y72.046018 Z2.000000
G01 X99.048928 Y62.717955 Z2.000000
G01 X89.702393 Y62.717955 Z2.000000
G01 X89.702393 Y72.046018 Z2.000000
G01 X80.355859 Y72.046018 Z2.000000
G01 X80.355859 Y53.389892 Z2.000000
G01 X89.702393 Y53.389892 Z2.000000
G01 X89.702393 Y44.061828 Z2.000000
G01 X80.355859 Y44.061828 Z2.000000
G01 X80.355859 Y25.405701 Z2.000000
G01 X89.702393 Y25.405701 Z2.000000
G01 X89.702393 Y34.733765 Z2.000000
G01 X108.395463 Y34.733765 Z2.000000
G01 X108.395463 Y25.405701 Z2.000000
G01 X99.048928 Y25.405701 Z2.000000
G01 X99.048928 Y16.077638 Z2.000000
G01 X108.395463 Y16.077638 Z2.000000
G01 X108.395463 Y6.749575 Z2.000000
G01 X89.702393 Y6.749575 Z2.000000
G01 X89.702393 Y16.077638 Z2.000000
G01 X80.355859 Y16.077638 Z2.000000
G01 X80.355859 Y6.749575 Z2.000000
G01 X61.662789 Y6.749575 Z2.000000
G01 X61.662789 Y16.077638 Z2.000000
G01 X71.009324 Y16.077638 Z2.000000
G01 X71.009324 Y34.733765 Z2.000000
G01 X61.662789 Y34.733765 Z2.000000
G01 X61.662789 Y25.405701 Z2.000000
G01 X52.316254 Y25.405701 Z2.000000
G01 X52.316254 Y34.733765 Z2.000000
G01 X42.969720 Y34.733765 Z2.000000
G01 X42.969720 Y16.077638 Z2.000000
G01 X52.316254 Y16.077638 Z2.000000
G01 X52.316254 Y6.749575 Z2.000000
G01 X33.623185 Y6.749575 Z2.000000
G01 X33.623185 Y16.077638 Z2.000000
G01 X24.276650 Y16.077638 Z2.000000
G01 X24.276650 Y6.749575 Z2.000000
G01 X5.583581 Y6.749575 Z2.000000
G01 X5.583581 Y16.077638 Z2.000000
G01 X14.930116 Y16.077638 Z2.000000
G01 X14.930116 Y25.405701 Z2.000000
G01 X5.583581 Y25.405701 Z2.000000
G01 X5.583581 Y34.733765 Z2.000000
G01 X24.276650 Y34.733765 Z2.000000
G01 X24.276650 Y25.405701 Z2.000000
G01 X33.623185 Y25.405701 Z2.000000
G01 X33.623185 Y53.389892 Z2.000000
G01 X24.276650 Y53.389892 Z2.000000
G01 X24.276650 Y44.061828 Z2.000000
G01 X5.583581 Y44.061828 Z2.000000
G01 X5.583581 Y53.389892 Z2.000000
G01 X14.930116 Y53.389892 Z2.000000
G01 X14.930116 Y62.717955 Z2.000000
G01 X5.583581 Y62.717955 Z2.000000
G01 X5.583581 Y72.046018 Z2.000000
G01 X24.276650 Y72.046018 Z2.000000
G01 X24.276650 Y62.717955 Z2.000000
G01 X33.623185 Y62.717955 Z2.000000
G01 X33.623185 Y72.046018 Z2.000000
G01 X52.316254 Y72.046018 Z2.000000
G01 X52.316254 Y62.717955 Z2.000000
G01 X42.969720 Y62.717955 Z2.000000
G01 X42.969720 Y44.061828 Z2.000000
G01 X52.316254 Y44.061828 Z2.000000
G01 X52.316254 Y53.389892 Z2.000000
G01 X61.662789 Y53.389892 Z2.000000
G01 X61.662789 Y44.061828 Z2.000000
G01 X71.009324 Y44.061828 Z2.000000
G01 X71.009324 Y62.717955 Z2.000000
G01 X61.662789 Y62.717955 Z2.000000
G01 X61.662789 Y72.046018 Z2.000000
G01 X71.009324 Y72.046018 Z2.000000
G01 X71.009324 Y81.374082 Z2.000000
G01 X61.662789 Y81.374082 Z2.000000
G01 X61.662789 Y90.702145 Z2.000000
G01 X71.009324 Y90.702145 Z2.000000
G01 X71.009324 Y109.358272 Z2.000000
G01 X61.662789 Y109.358272 Z2.000000
G01 X61.662789 Y100.030208 Z2.000000
G01 X52.316254 Y100.030208 Z2.000000
G01 X52.316254 Y109.358272 Z2.000000
G01 X42.969720 Y109.358272 Z2.000000
G01 X42.969720 Y90.702145 Z2.000000
G01 X52.316254 Y90.702145 Z2.000000
G01 X52.316254 Y81.374082 Z2.000000
G01 X33.623185 Y81.374082 Z2.000000
G01 X33.623185 Y90.702145 Z2.000000
G01 X24.276650 Y90.702145 Z2.000000
G01 X24.276650 Y81.374082 Z2.000000
G01 X5.583581 Y81.374082 Z2.000000
G01 X5.583581 Y90.702145 Z2.000000
G01 X14.930116 Y90.702145 Z2.000000
G01 X14.930116 Y100.030208 Z2.000000
G01 X5.583581 Y100.030208 Z2.000000
G01 X5.583581 Y109.358272 Z2.000000
G01 X24.276650 Y109.358272 Z2.000000
G01 X24.276650 Y100.030208 Z2.000000
G01 X33.623185 Y100.030208 Z2.000000
G01 X33.623185 Y128.014398 Z2.000000
G01 X24.276650 Y128.014398 Z2.000000
G01 X24.276650 Y118.686335 Z2.000000
G01 X5.583581 Y118.686335 Z2.000000
G01 X5.583581 Y128.014398 Z2.000000
G01 X14.930116 Y128.014398 Z2.000000
G01 X14.930116 Y137.342462 Z2.000000
G01 X5.583581 Y137.342462 Z2.000000
G01 X5.583581 Y146.670525 Z2.000000
G01 X24.276650 Y146.670525 Z2.000000
G01 X24.276650 Y137.342462 Z2.000000
G01 X33.623185 Y137.342462 Z2.000000
G01 X33.623185 Y146.670525 Z2.000000
G01 X52.316254 Y146.670525 Z2.000000
G01 X52.316254 Y137.342462 Z2.000000
G01 X42.969720 Y137.342462 Z2.000000
G01 X42.969720 Y118.686335 Z2.000000
G01 X52.316254 Y118.686335 Z2.000000
G01 X52.316254 Y128.014398 Z2.000000
G01 X61.662789 Y128.014398 Z2.000000
G01 X61.662789 Y118.686335 Z2.000000
G01 X71.009324 Y118.686335 Z2.000000
G01 X71.009324 Y137.342462 Z2.000000
G01 X61.662789 Y137.342462 Z2.000000
G01 X61.662789 Y146.670525 Z2.000000
G01 X80.355859 Y146.670525 Z2.000000
G01 X80.355859 Y137.342462 Z2.000000
G01 X89.702393 Y137.342462 Z2.000000
G01 X89.702393 Y146.670525 Z2.000000
G01 X108.395463 Y146.670525 Z2.000000
G01 X108.395463 Y137.342462 Z2.000000
G01 X99.048928 Y137.342462 Z2.000000
G01 X99.048928 Y128.014398 Z2.000000
G01 X108.395463 Y128.014398 Z2.000000
G01 X108.395463 Y118.686335 Z2.000000
G01 X89.702393 Y118.686335 Z2.000000
G01 X89.702393 Y128.014398 Z2.000000
G01 X80.355859 Y128.014398 Z2.000000
G01 X80.355859 Y109.358272 Z2.000000
G01 X89.702393 Y109.358272 Z2.000000
G01 X89.702393 Y100.030208 Z2.000000
G01 X80.355859 Y100.030208 Z2.000000
G01 X80.355859 Y81.374082 Z2.000000
G01 X89.702393 Y81.374082 Z2.000000
G01 X89.702393 Y90.702145 Z2.000000
G01 X99.048928 Y90.702145 Z2.000000
G01 X99.048928 Y81.374082 Z2.000000
G01 X108.395463 Y81.374082 Z2.000000
G01 X108.395463 Y100.030208 Z2.000000
G01 X99.048928 Y100.030208 Z2.000000
G01 X99.048928 Y109.358272 Z2.000000
G01 X127.088532 Y109.358272 Z2.000000
G01 X127.088532 Y100.030208 Z2.000000
G01 X117.741997 Y100.030208 Z2.000000
G01 X117.741997 Y81.374082 Z2.000000
G01 X127.088532 Y81.374082 Z2.000000
G01 X127.088532 Y90.702145 Z2.000000
G01 X136.435067 Y90.702145 Z2.000000
G01 X136.435067 Y81.374082 Z2.000000
G01 X145.781601 Y81.374082 Z2.000000
G01 X145.781601 Y100.030208 Z2.000000
G01 X136.435067 Y100.030208 Z2.000000
G01 X136.435067 Y109.358272 Z2.000000
G01 X145.781601 Y109.358272 Z2.000000
G01 X145.781601 Y128.014398 Z2.000000
G01 X136.435067 Y128.014398 Z2.000000
G01 X136.435067 Y118.686335 Z2.000000
G01 X117.741997 Y118.686335 Z2.000000
G01 X117.741997 Y128.014398 Z2.000000
G01 X127.088532 Y128.014398 Z2.000000
G01 X127.088532 Y137.342462 Z2.000000
G01 X117.741997 Y137.342462 Z2.000000
G01 X117.741997 Y146.670525 Z2.000000
G01 X136.435067 Y146.670525 Z2.000000
G01 X136.435067 Y137.342462 Z2.000000
G01 X145.781601 Y137.342462 Z2.000000
G01 X145.781601 Y165.326652 Z2.000000
G01 X136.435067 Y165.326652 Z2.000000
G01 X136.435067 Y155.998588 Z2.000000
G01 X117.741997 Y155.998588 Z2.000000
G01 X117.741997 Y165.326652 Z2.000000
G01 X127.088532 Y165.326652 Z2.000000
G01 X127.088532 Y174.654715 Z2.000000
G01 X117.741997 Y174.654715 Z2.000000
G01 X117.741997 Y183.982779 Z2.000000
G01 X136.435067 Y183.982779 Z2.000000
G01 X136.435067 Y174.654715 Z2.000000
G01 X145.781601 Y174.654715 Z2.000000
G01 X145.781601 Y193.310842 Z2.000000
G01 X136.435067 Y193.310842 Z2.000000
G01 X136.435067 Y202.638905 Z2.000000
G01 X145.781601 Y202.638905 Z2.000000
G01 X145.781601 Y221.295032 Z2.000000
G01 X136.435067 Y221.295032 Z2.000000
G01 X136.435067 Y211.966969 Z2.000000
G01 X127.088532 Y211.966969 Z2.000000
G01 X127.088532 Y221.295032 Z2.000000
G01 X117.741997 Y221.295032 Z2.000000
G01 X117.741997 Y202.638905 Z2.000000
G01 X127.088532 Y202.638905 Z2.000000
G01 X127.088532 Y193.310842 Z2.000000
G01 X99.048928 Y193.310842 Z2.000000
G01 X99.048928 Y202.638905 Z2.000000
G01 X108.395463 Y202.638905 Z2.000000
G01 X108.395463 Y221.295032 Z2.000000
G01 X99.048928 Y221.295032 Z2.000000
G01 X99.048928 Y211.966969 Z2.000000
G01 X89.702393 Y211.966969 Z2.000000
G01 X89.702393 Y221.295032 Z2.000000
G01 X80.355859 Y221.295032 Z2.000000
G01 X80.355859 Y202.638905 Z2.000000
G01 X89.702393 Y202.638905 Z2.000000
G01 X89.702393 Y193.310842 Z2.000000
G01 X80.355859 Y193.310842 Z2.000000
G01 X80.355859 Y174.654715 Z2.000000
G01 X89.702393 Y174.654715 Z2.000000
G01 X89.702393 Y183.982779 Z2.000000
G01 X108.395463 Y183.982779 Z2.000000
G01 X108.395463 Y174.654715 Z2.000000
G01 X99.048928 Y174.654715 Z2.000000
G01 X99.048928 Y165.326652 Z2.000000
G01 X108.395463 Y165.326652 Z2.000000
G01 X108.395463 Y155.998588 Z2.000000
G01 X89.702393 Y155.998588 Z2.000000
G01 X89.702393 Y165.326652 Z2.000000
G01 X80.355859 Y165.326652 Z2.000000
G01 X80.355859 Y155.998588 Z2.000000
G01 X61.662789 Y155.998588 Z2.000000
G01 X61.662789 Y165.326652 Z2.000000
G01 X71.009324 Y165.326652 Z2.000000
G01 X71.009324 Y183.982779 Z2.000000
G01 X61.662789 Y183.982779 Z2.000000
G01 X61.662789 Y174.654715 Z2.000000
G01 X52.316254 Y174.654715 Z2.000000
G01 X52.316254 Y183.982779 Z2.000000
G01 X42.969720 Y183.982779 Z2.000000
G01 X42.969720 Y165.326652 Z2.000000
G01 X52.316254 Y165.326652 Z2.000000
G01 X52.316254 Y155.998588 Z2.000000
G01 X33.623185 Y155.998588 Z2.000000
G01 X33.623185 Y165.326652 Z2.000000
G01 X24.276650 Y165.326652 Z2.000000
G01 X24.276650 Y155.998588 Z2.000000
G01 X5.583581 Y155.998588 Z2.000000
G01 X5.583581 Y165.326652 Z2.000000
G01 X14.930116 Y165.326652 Z2.000000
G01 X14.930116 Y174.654715 Z2.000000
G01 X5.583581 Y174.654715 Z2.000000
G01 X5.583581 Y183.982779 Z2.000000
G01 X24.276650 Y183.982779 Z2.000000
G01 X24.276650 Y174.654715 Z2.000000
G01 X33.623185 Y174.654715 Z2.000000
G01 X33.623185 Y202.638905 Z2.000000
G01 X24.276650 Y202.638905 Z2.000000
G01 X24.276650 Y193.310842 Z2.000000
G01 X5.583581 Y193.310842 Z2.000000
G01 X5.583581 Y202.638905 Z2.000000
G01 X14.930116 Y202.638905 Z2.000000
G01 X14.930116 Y211.966969 Z2.000000
G01 X5.583581 Y211.966969 Z2.000000
G01 X5.583581 Y221.295032 Z2.000000
G01 X24.276650 Y221.295032 Z2.000000
G01 X24.276650 Y211.966969 Z2.000000
G01 X33.623185 Y211.966969 Z2.000000
G01 X33.623185 Y221.295032 Z2.000000
G01 X52.316254 Y221.295032 Z2.000000
G01 X52.316254 Y211.966969 Z2.000000
G01 X42.969720 Y211.966969 Z2.000000
G01 X42.969720 Y193.310842 Z2.000000
G01 X52.316254 Y193.310842 Z2.000000
G01 X52.316254 Y202.638905 Z2.000000
G01 X61.662789 Y202.638905 Z2.000000
G01 X61.662789 Y193.310842 Z2.000000
G01 X71.009324 Y193.310842 Z2.000000
G01 X71.009324 Y211.966969 Z2.000000
G01 X61.662789 Y211.966969 Z2.000000
G01 X61.662789 Y221.295032 Z2.000000
G01 X71.009324 Y221.295032 Z2.000000
G01 X71.009324 Y230.623095 Z2.000000
G01 X61.662789 Y230.623095 Z2.000000
G01 X61.662789 Y239.951159 Z2.000000
G01 X71.009324 Y239.951159 Z2.000000
G01 X71.009324 Y258.607285 Z2.000000
G01 X61.662789 Y258.607285 Z2.000000
G01 X61.662789 Y249.279222 Z2.000000
G01 X52.316254 Y249.279222 Z2.000000
G01 X52.316254 Y258.607285 Z2.000000
G01 X42.969720 Y258.607285 Z2.000000
G01 X42.969720 Y239.951159 Z2.000000
G01 X52.316254 Y239.951159 Z2.000000
G01 X52.316254 Y230.623095 Z2.000000
G01 X33.623185 Y230.623095 Z2.000000
G01 X33.623185 Y239.951159 Z2.000000
G01 X24.276650 Y239.951159 Z2.000000
G01 X24.276650 Y230.623095 Z2.000000
G01 X5.583581 Y230.623095 Z2.000000
G01 X5.583581 Y239.951159 Z2.000000
G01 X14.930116 Y239.951159 Z2.000000
G01 X14.930116 Y249.279222 Z2.000000
G01 X5.583581 Y249.279222 Z2.000000
G01 X5.583581 Y258.607285 Z2.000000
G01 X24.276650 Y258.607285 Z2.000000
G01 X24.276650 Y249.279222 Z2.000000
G01 X33.623185 Y249.279222 Z2.000000
G01 X33.623185 Y277.263412 Z2.000000
G01 X24.276650 Y277.263412 Z2.000000
G01 X24.276650 Y267.935349 Z2.000000
G01 X5.583581 Y267.935349 Z2.000000
G01 X5.583581 Y277.263412 Z2.000000
G01 X14.930116 Y277.263412 Z2.000000
G01 X14.930116 Y286.591475 Z2.000000
G01 X5.583581 Y286.591475 Z2.000000
G01 X5.583581 Y295.919539 Z2.000000
G01 X24.276650 Y295.919539 Z2.000000
G01 X24.276650 Y286.591475 Z2.000000
G01 X33.623185 Y286.591475 Z2.000000
G01 X33.623185 Y295.919539 Z2.000000
G01 X52.316254 Y295.919539 Z2.000000
G01 X52.316254 Y286.591475 Z2.000000
G01 X42.969720 Y286.591475 Z2.000000
G01 X42.969720 Y267.935349 Z2.000000
G01 X52.316254 Y267.935349 Z2.000000
G01 X52.316254 Y277.263412 Z2.000000
G01 X61.662789 Y277.263412 Z2.000000
G01 X61.662789 Y267.935349 Z2.000000
G01 X71.009324 Y267.935349 Z2.000000
G01 X71.009324 Y286.591475 Z2.000000
G01 X61.662789 Y286.591475 Z2.000000
G01 X61.662789 Y295.919539 Z2.000000
G01 X80.355859 Y295.919539 Z2.000000
G01 X80.355859 Y286.591475 Z2.000000
G01 X89.702393 Y286.591475 Z2.000000
G01 X89.702393 Y295.919539 Z2.000000
G01 X108.395463 Y295.919539 Z2.000000
G01 X108.395463 Y286.591475 Z2.000000
G01 X99.048928 Y286.591475 Z2.000000
G01 X99.048928 Y277.263412 Z2.000000
G01 X108.395463 Y277.263412 Z2.000000
G01 X108.395463 Y267.935349 Z2.000000
G01 X89.702393 Y267.935349 Z2.000000
G01 X89.702393 Y277.263412 Z2.000000
G01 X80.355859 Y277.263412 Z2.000000
G01 X80.355859 Y258.607285 Z2.000000
G01 X89.702393 Y258.607285 Z2.000000
G01 X89.702393 Y249.279222 Z2.000000
G01 X80.355859 Y249.279222 Z2.000000
G01 X80.355859 Y230.623095 Z2.000000
G01 X89.702393 Y230.623095 Z2.000000
G01 X89.702393 Y239.951159 Z2.000000
G01 X99.048928 Y239.951159 Z2.000000
G01 X99.048928 Y230.623095 Z2.000000
G01 X108.395463 Y230.623095 Z2.000000
G01 X108.395463 Y249.279222 Z2.000000
G01 X99.048928 Y249.279222 Z2.000000
G01 X99.048928 Y258.607285 Z2.000000
G01 X127.088532 Y258.607285 Z2.000000
G01 X127.088532 Y249.279222 Z2.000000
G01 X117.741997 Y249.279222 Z2.000000
G01 X117.741997 Y230.623095 Z2.000000
G01 X127.088532 Y230.623095 Z2.000000
G01 X127.088532 Y239.951159 Z2.000000
G01 X136.435067 Y239.951159 Z2.000000
G01 X136.435067 Y230.623095 Z2.000000
G01 X145.781601 Y230.623095 Z2.000000
G01 X145.781601 Y249.279222 Z2.000000
G01 X136.435067 Y249.279222 Z2.000000
G01 X136.435067 Y258.607285 Z2.000000
G01 X145.781601 Y258.607285 Z2.000000
G01 X145.781601 Y277.263412 Z2.000000
G01 X136.435067 Y277.263412 Z2.000000
G01 X136.435067 Y267.935349 Z2.000000
G01 X117.741997 Y267.935349 Z2.000000
G01 X117.741997 Y277.263412 Z2.000000
G01 X127.088532 Y277.263412 Z2.000000
G01 X127.088532 Y286.591475 Z2.000000
G01 X117.741997 Y286.591475 Z2.000000
G01 X117.741997 Y295.919539 Z2.000000
G01 X136.435067 Y295.919539 Z2.000000
G01 X136.435067 Y286.591475 Z2.000000
G01 X145.781601 Y286.591475 Z2.000000
G01 X145.781601 Y295.919539 Z2.000000
G01 X164.474671 Y295.919539 Z2.000000
G01 X164.474671 Y286.591475 Z2.000000
G01 X155.128136 Y286.591475 Z2.000000
G01 X155.128136 Y267.935349 Z2.000000
G01 X164.474671 Y267.935349 Z2.000000
G01 X164.474671 Y277.263412 Z2.000000
G01 X173.821205 Y277.263412 Z2.000000
G01 X173.821205 Y267.935349 Z2.000000
G01 X183.167740 Y267.935349 Z2.000000
G01 X183.167740 Y286.591475 Z2.000000
G01 X173.821205 Y286.591475 Z2.000000
G01 X173.821205 Y295.919539 Z2.000000
G01 X192.514275 Y295.919539 Z2.000000
G01 X192.514275 Y286.591475 Z2.000000
G01 X201.860809 Y286.591475 Z2.000000
G01 X201.860809 Y295.919539 Z2.000000
G01 X220.553879 Y295.919539 Z2.000000
G01 X220.553879 Y286.591475 Z2.000000
G01 X211.207344 Y286.591475 Z2.000000
G01 X211.207344 Y277.263412 Z2.000000
G01 X220.553879 Y277.263412 Z2.000000
G01 X220.553879 Y267.935349 Z2.000000
G01 X201.860809 Y267.935349 Z2.000000
G01 X201.860809 Y277.263412 Z2.000000
G01 X192.514275 Y277.263412 Z2.000000
G01 X192.514275 Y249.279222 Z2.000000
G01 X201.860809 Y249.279222 Z2.000000
G01 X201.860809 Y258.607285 Z2.000000
G01 X220.553879 Y258.607285 Z2.000000
G01 X220.553879 Y249.279222 Z2.000000
G01 X211.207344 Y249.279222 Z2.000000
G01 X211.207344 Y239.951159 Z2.000000
G01 X220.553879 Y239.951159 Z2.000000
G01 X220.553879 Y230.623095 Z2.000000
G01 X201.860809 Y230.623095 Z2.000000
G01 X201.860809 Y239.951159 Z2.000000
G01 X192.514275 Y239.951159 Z2.000000
G01 X192.514275 Y230.623095 Z2.000000
G01 X173.821205 Y230.623095 Z2.000000
G01 X173.821205 Y239.951159 Z2.000000
G01 X183.167740 Y239.951159 Z2.000000
G01 X183.167740 Y258.607285 Z2.000000
G01 X173.821205 Y258.607285 Z2.000000
G01 X173.821205 Y249.279222 Z2.000000
G01 X164.474671 Y249.279222 Z2.000000
G01 X164.474671 Y258.607285 Z2.000000
G01 X155.128136 Y258.607285 Z2.000000
G01 X155.128136 Y239.951159 Z2.000000
G01 X164.474671 Y239.951159 Z2.000000
G01 X164.474671 Y230.623095 Z2.000000
G01 X155.128136 Y230.623095 Z2.000000
G01 X155.128136 Y211.966969 Z2.000000
G01 X164.474671 Y211.966969 Z2.000000
G01 X164.474671 Y221.295032 Z2.000000
G01 X183.167740 Y221.295032 Z2.000000
G01 X183.167740 Y211.966969 Z2.000000
G01 X173.821205 Y211.966969 Z2.000000
G01 X173.821205 Y202.638905 Z2.000000
G01 X183.167740 Y202.638905 Z2.000000
G01 X183.167740 Y193.310842 Z2.000000
G01 X164.474671 Y193.310842 Z2.000000
G01 X164.474671 Y202.638905 Z2.000000
G01 X155.128136 Y202.638905 Z2.000000
G01 X155.128136 Y183.982779 Z2.000000
G01 X164.474671 Y183.982779 Z2.000000
G01 X164.474671 Y174.654715 Z2.000000
G01 X155.128136 Y174.654715 Z2.000000
G01 X155.128136 Y155.998588 Z2.000000
G01 X164.474671 Y155.998588 Z2.000000
G01 X164.474671 Y165.326652 Z2.000000
G01 X173.821205 Y165.326652 Z2.000000
G01 X173.821205 Y155.998588 Z2.000000
G01 X183.167740 Y155.998588 Z2.000000
G01 X183.167740 Y174.654715 Z2.000000
G01 X173.821205 Y174.654715 Z2.000000
G01 X173.821205 Y183.982779 Z2.000000
G01 X201.860809 Y183.982779 Z2.000000
G01 X201.860809 Y174.654715 Z2.000000
G01 X192.514275 Y174.654715 Z2.000000
G01 X192.514275 Y155.998588 Z2.000000
G01 X201.860809 Y155.998588 Z2.000000
G01 X201.860809 Y165.326652 Z2.000000
G01 X211.207344 Y165.326652 Z2.000000
G01 X211.207344 Y155.998588 Z2.000000
G01 X220.553879 Y155.998588 Z2.000000
G01 X220.553879 Y174.654715 Z2.000000
G01 X211.207344 Y174.654715 Z2.000000
G01 X211.207344 Y183.982779 Z2.000000
G01 X220.553879 Y183.982779 Z2.000000
G01 X220.553879 Y202.638905 Z2.000000
G01 X211.207344 Y202.638905 Z2.000000
G01 X211.207344 Y193.310842 Z2.000000
G01 X192.514275 Y193.310842 Z2.000000
G01 X192.514275 Y202.638905 Z2.000000
G01 X201.860809 Y202.638905 Z2.000000
G01 X201.860809 Y211.966969 Z2.000000
G01 X192.514275 Y211.966969 Z2.000000
G01 X192.514275 Y221.295032 Z2.000000
G01 X211.207344 Y221.295032 Z2.000000
G01 X211.207344 Y211.966969 Z2.000000
G01 X220.553879 Y211.966969 Z2.000000
G01 X220.553879 Y221.295032 Z2.000000
G01 X229.900414 Y221.295032 Z2.000000
G01 X229.900414 Y211.966969 Z2.000000
G01 X239.246948 Y211.966969 Z2.000000
G01 X239.246948 Y221.295032 Z2.000000
G01 X257.940018 Y221.295032 Z2.000000
G01 X257.940018 Y211.966969 Z2.000000
G01 X248.593483 Y211.966969 Z2.000000
G01 X248.593483 Y202.638905 Z2.000000
G01 X257.940018 Y202.638905 Z2.000000
G01 X257.940018 Y193.310842 Z2.000000
G01 X239.246948 Y193.310842 Z2.000000
G01 X239.246948 Y202.638905 Z2.000000
G01 X229.900414 Y202.638905 Z2.000000
G01 X229.900414 Y183.982779 Z2.000000
G01 X239.246948 Y183.982779 Z2.000000
G01 X239.246948 Y174.654715 Z2.000000
G01 X229.900414 Y174.654715 Z2.000000
G01 X229.900414 Y155.998588 Z2.000000
G01 X239.246948 Y155.998588 Z2.000000
G01 X239.246948 Y165.326652 Z2.000000
G01 X248.593483 Y165.326652 Z2.000000
G01 X248.593483 Y155.998588 Z2.000000
G01 X257.940018 Y155.998588 Z2.000000
G01 X257.940018 Y174.654715 Z2.000000
G01 X248.593483 Y174.654715 Z2.000000
G01 X248.593483 Y183.982779 Z2.000000
G01 X276.633087 Y183.982779 Z2.000000
G01 X276.633087 Y174.654715 Z2.000000
G01 X267.286552 Y174.654715 Z2.000000
G01 X267.286552 Y155.998588 Z2.000000
G01 X276.633087 Y155.998588 Z2.000000
G01 X276.633087 Y165.326652 Z2.000000
G01 X285.979622 Y165.326652 Z2.000000
G01 X285.979622 Y155.998588 Z2.000000
G01 X295.326156 Y155.998588 Z2.000000
G01 X295.326156 Y174.654715 Z2.000000
G01 X285.979622 Y174.654715 Z2.000000
G01 X285.979622 Y183.982779 Z2.000000
G01 X295.326156 Y183.982779 Z2.000000
G01 X295.326156 Y202.638905 Z2.000000
G01 X285.979622 Y202.638905 Z2.000000
G01 X285.979622 Y193.310842 Z2.000000
G01 X267.286552 Y193.310842 Z2.000000
G01 X267.286552 Y202.638905 Z2.000000
G01 X276.633087 Y202.638905 Z2.000000
G01 X276.633087 Y211.966969 Z2.000000
G01 X267.286552 Y211.966969 Z2.000000
G01 X267.286552 Y221.295032 Z2.000000
G01 X285.979622 Y221.295032 Z2.000000
G01 X285.979622 Y211.966969 Z2.000000
G01 X295.326156 Y211.966969 Z2.000000
G01 X295.326156 Y230.623095 Z2.000000
G01 X285.979622 Y230.623095 Z2.000000
G01 X285.979622 Y239.951159 Z2.000000
G01 X295.326156 Y239.951159 Z2.000000
G01 X295.326156 Y258.607285 Z2.000000
G01 X285.979622 Y258.607285 Z2.000000
G01 X285.979622 Y249.279222 Z2.000000
G01 X276.633087 Y249.279222 Z2.000000
G01 X276.633087 Y258.607285 Z2.000000
G01 X267.286552 Y258.607285 Z2.000000
G01 X267.286552 Y239.951159 Z2.000000
G01 X276.633087 Y239.951159 Z2.000000
G01 X276.633087 Y230.623095 Z2.000000
G01 X257.940018 Y230.623095 Z2.000000
G01 X257.940018 Y239.951159 Z2.000000
G01 X248.593483 Y239.951159 Z2.000000
G01 X248.593483 Y230.623095 Z2.000000
G01 X229.900414 Y230.623095 Z2.000000
G01 X229.900414 Y239.951159 Z2.000000
G01 X239.246948 Y239.951159 Z2.000000
G01 X239.246948 Y249.279222 Z2.000000
G01 X229.900414 Y249.279222 Z2.000000
G01 X229.900414 Y258.607285 Z2.000000
G01 X248.593483 Y258.607285 Z2.000000
G01 X248.593483 Y249.279222 Z2.000000
G01 X257.940018 Y249.279222 Z2.000000
G01 X257.940018 Y277.263412 Z2.000000
G01 X248.593483 Y277.263412 Z2.000000
G01 X248.593483 Y267.935349 Z2.000000
G01 X229.900414 Y267.935349 Z2.000000
G01 X229.900414 Y277.263412 Z2.000000
G01 X239.246948 Y277.263412 Z2.000000
G01 X239.246948 Y286.591475 Z2.000000
G01 X229.900414 Y286.591475 Z2.000000
G01 X229.900414 Y295.919539 Z2.000000
G01 X248.593483 Y295.919539 Z2.000000
G01 X248.593483 Y286.591475 Z2.000000
G01 X257.940018 Y286.591475 Z2.000000
G01 X257.940018 Y295.919539 Z2.000000
G01 X276.633087 Y295.919539 Z2.000000
G01 X276.633087 Y286.591475 Z2.000000
G01 X267.286552 Y286.591475 Z2.000000
G01 X267.286552 Y267.935349 Z2.000000
G01 X276.633087 Y267.935349 Z2.000000
G01 X276.633087 Y277.263412 Z2.000000
G01 X285.979622 Y277.263412 Z2.000000
G01 X285.979622 Y267.935349 Z2.000000
G01 X295.326156 Y267.935349 Z2.000000
G01 X295.326156 Y286.591475 Z2.000000
G01 X285.979622 Y286.591475 Z2.000000
G01 X285.979622 Y295.919539 Z2.000000
G01 X295.326156 Y295.919539 Z2.000000
G01 X295.326156 Y305.247602 Z2.000000
G01 X285.979622 Y305.247602 Z2.000000
G01 X285.979622 Y314.575666 Z2.000000
G01 X295.326156 Y314.575666 Z2.000000
G01 X295.326156 Y333.231792 Z2.000000
G01 X285.979622 Y333.231792 Z2.000000
G01 X285.979622 Y323.903729 Z2.000000
G01 X276.633087 Y323.903729 Z2.000000
G01 X276.633087 Y333.231792 Z2.000000
G01 X267.286552 Y333.231792 Z2.000000
G01 X267.286552 Y314.575666 Z2.000000
G01 X276.633087 Y314.575666 Z2.000000
G01 X276.633087 Y305.247602 Z2.000000
G01 X257.940018 Y305.247602 Z2.000000
G01 X257.940018 Y314.575666 Z2.000000
G01 X248.593483 Y314.575666 Z2.000000
G01 X248.593483 Y305.247602 Z2.000000
G01 X229.900414 Y305.247602 Z2.000000
G01 X229.900414 Y314.575666 Z2.000000
G01 X239.246948 Y314.575666 Z2.000000
G01 X239.246948 Y323.903729 Z2.000000
G01 X229.900414 Y323.903729 Z2.000000
G01 X229.900414 Y333.231792 Z2.000000
G01 X248.593483 Y333.231792 Z2.000000
G01 X248.593483 Y323.903729 Z2.000000
G01 X257.940018 Y323.903729 Z2.000000
G01 X257.940018 Y351.887919 Z2.000000
G01 X248.593483 Y351.887919 Z2.000000
G01 X248.593483 Y342.559856 Z2.000000
G01 X229.900414 Y342.559856 Z2.000000
G01 X229.900414 Y351.887919 Z2.000000
G01 X239.246948 Y351.887919 Z2.000000
G01 X239.246948 Y361.215982 Z2.000000
G01 X229.900414 Y361.215982 Z2.000000
G01 X229.900414 Y370.544046 Z2.000000
G01 X248.593483 Y370.544046 Z2.000000
G01 X248.593483 Y361.215982 Z2.000000
G01 X257.940018 Y361.215982 Z2.000000
G01 X257.940018 Y370.544046 Z2.000000
G01 X276.633087 Y370.544046 Z2.000000
G01 X276.633087 Y361.215982 Z2.000000
G01 X267.286552 Y361.215982 Z2.000000
G01 X267.286552 Y342.559856 Z2.000000
G01 X276.633087 Y342.559856 Z2.000000
G01 X276.633087 Y351.887919 Z2.000000
G01 X285.979622 Y351.887919 Z2.000000
G01 X285.979622 Y342.559856 Z2.000000
G01 X295.326156 Y342.559856 Z2.000000
G01 X295.326156 Y361.215982 Z2.000000
G01 X285.979622 Y361.215982 Z2.000000
G01 X285.979622 Y370.544046 Z2.000000
G01 X295.326156 Y370.544046 Z2.000000
G01 X295.326156 Y389.200172 Z2.000000
G01 X285.979622 Y389.200172 Z2.000000
G01 X285.979622 Y379.872109 Z2.000000
G01 X267.286552 Y379.872109 Z2.000000
G01 X267.286552 Y389.200172 Z2.000000
G01 X276.633087 Y389.200172 Z2.000000
G01 X276.633087 Y398.528236 Z2.000000
G01 X267.286552 Y398.528236 Z2.000000
G01 X267.286552 Y407.856299 Z2.000000
G01 X285.979622 Y407.856299 Z2.000000
G01 X285.979622 Y398.528236 Z2.000000
G01 X295.326156 Y398.528236 Z2.000000
G01 X295.326156 Y417.184362 Z2.000000
G01 X285.979622 Y417.184362 Z2.000000
G01 X285.979622 Y426.512426 Z2.000000
G01 X295.326156 Y426.512426 Z2.000000
G01 X295.326156 Y445.168552 Z2.000000
G01 X285.979622 Y445.168552 Z2.000000
G01 X285.979622 Y435.840489 Z2.000000
G01 X276.633087 Y435.840489 Z2.000000
G01 X276.633087 Y445.168552 Z2.000000
G01 X267.286552 Y445.168552 Z2.000000
G01 X267.286552 Y426.512426 Z2.000000
G01 X276.633087 Y426.512426 Z2.000000
G01 X276.633087 Y417.184362 Z2.000000
G01 X248.593483 Y417.184362 Z2.000000
G01 X248.593483 Y426.512426 Z2.000000
G01 X257.940018 Y426.512426 Z2.000000
G01 X257.940018 Y445.168552 Z2.000000
G01 X248.593483 Y445.168552 Z2.000000
G01 X248.593483 Y435.840489 Z2.000000
G01 X239.246948 Y435.840489 Z2.000000
G01 X239.246948 Y445.168552 Z2.000000
G01 X229.900414 Y445.168552 Z2.000000
G01 X229.900414 Y426.512426 Z2.000000
G01 X239.246948 Y426.512426 Z2.000000
G01 X239.246948 Y417.184362 Z2.000000
G01 X229.900414 Y417.184362 Z2.000000
G01 X229.900414 Y398.528236 Z2.000000
G01 X239.246948 Y398.528236 Z2.000000
G01 X239.246948 Y407.856299 Z2.000000
G01 X257.940018 Y407.856299 Z2.000000
G01 X257.940018 Y398.528236 Z2.000000
G01 X248.593483 Y398.528236 Z2.000000
G01 X248.593483 Y389.200172 Z2.000000
G01 X257.940018 Y389.200172 Z2.000000
G01 X257.940018 Y379.872109 Z2.000000
G01 X239.246948 Y379.872109 Z2.000000
G01 X239.246948 Y389.200172 Z2.000000
G01 X229.900414 Y389.200172 Z2.000000
G01 X229.900414 Y379.872109 Z2.000000
G01 X220.553879 Y379.872109 Z2.000000
G01 X220.553879 Y389.200172 Z2.000000
G01 X211.207344 Y389.200172 Z2.000000
G01 X211.207344 Y379.872109 Z2.000000
G01 X192.514275 Y379.872109 Z2.000000
G01 X192.514275 Y389.200172 Z2.000000
G01 X201.860809 Y389.200172 Z2.000000
G01 X201.860809 Y398.528236 Z2.000000
G01 X192.514275 Y398.528236 Z2.000000
G01 X192.514275 Y407.856299 Z2.000000
G01 X211.207344 Y407.856299 Z2.000000
G01 X211.207344 Y398.528236 Z2.000000
G01 X220.553879 Y398.528236 Z2.000000
G01 X220.553879 Y417.184362 Z2.000000
G01 X211.207344 Y417.184362 Z2.000000
G01 X211.207344 Y426.512426 Z2.000000
G01 X220.553879 Y426.512426 Z2.000000
G01 X220.553879 Y445.168552 Z2.000000
G01 X211.207344 Y445.168552 Z2.000000
G01 X211.207344 Y435.840489 Z2.000000
G01 X201.860809 Y435.840489 Z2.000000
G01 X201.860809 Y445.168552 Z2.000000
G01 X192.514275 Y445.168552 Z2.000000
G01 X192.514275 Y426.512426 Z2.000000
G01 X201.860809 Y426.512426 Z2.000000
G01 X201.860809 Y417.184362 Z2.000000
G01 X173.821205 Y417.184362 Z2.000000
G01 X173.821205 Y426.512426 Z2.000000
G01 X183.167740 Y426.512426 Z2.000000
G01 X183.167740 Y445.168552 Z2.000000
G01 X173.821205 Y445.168552 Z2.000000
G01 X173.821205 Y435.840489 Z2.000000
G01 X164.474671 Y435.840489 Z2.000000
G01 X164.474671 Y445.168552 Z2.000000
G01 X155.128136 Y445.168552 Z2.000000
G01 X155.128136 Y426.512426 Z2.000000
G01 X164.474671 Y426.512426 Z2.000000
G01 X164.474671 Y417.184362 Z2.000000
G01 X155.128136 Y417.184362 Z2.000000
G01 X155.128136 Y398.528236 Z2.000000
G01 X164.474671 Y398.528236 Z2.000000
G01 X164.474671 Y407.856299 Z2.000000
G01 X183.167740 Y407.856299 Z2.000000
G01 X183.167740 Y398.528236 Z2.000000
G01 X173.821205 Y398.528236 Z2.000000
G01 X173.821205 Y389.200172 Z2.000000
G01 X183.167740 Y389.200172 Z2.000000
G01 X183.167740 Y379.872109 Z2.000000
G01 X164.474671 Y379.872109 Z2.000000
G01 X164.474671 Y389.200172 Z2.000000
G01 X155.128136 Y389.200172 Z2.000000
G01 X155.128136 Y370.544046 Z2.000000
G01 X164.474671 Y370.544046 Z2.000000
G01 X164.474671 Y361.215982 Z2.000000
G01 X155.128136 Y361.215982 Z2.000000
G01 X155.128136 Y342.559856 Z2.000000
G01 X164.474671 Y342.559856 Z2.000000
G01 X164.474671 Y351.887919 Z2.000000
G01 X173.821205 Y351.887919 Z2.000000
G01 X173.821205 Y342.559856 Z2.000000
G01 X183.167740 Y342.559856 Z2.000000
G01 X183.167740 Y361.215982 Z2.000000
G01 X173.821205 Y361.215982 Z2.000000
G01 X173.821205 Y370.544046 Z2.000000
G01 X192.514275 Y370.544046 Z2.000000
G01 X192.514275 Y361.215982 Z2.000000
G01 X201.860809 Y361.215982 Z2.000000
G01 X201.860809 Y370.544046 Z2.000000
G01 X220.553879 Y370.544046 Z2.000000
G01 X220.553879 Y361.215982 Z2.000000
G01 X211.207344 Y361.215982 Z2.000000
G01 X211.207344 Y351.887919 Z2.000000
G01 X220.553879 Y351.887919 Z2.000000
G01 X220.553879 Y342.559856 Z2.000000
G01 X201.860809 Y342.559856 Z2.000000
G01 X201.860809 Y351.887919 Z2.000000
G01 X192.514275 Y351.887919 Z2.000000
G01 X192.514275 Y323.903729 Z2.000000
G01 X201.860809 Y323.903729 Z2.000000
G01 X201.860809 Y333.231792 Z2.000000
G01 X220.553879 Y333.231792 Z2.000000
G01 X220.553879 Y323.903729 Z2.000000
G01 X211.207344 Y323.903729 Z2.000000
G01 X211.207344 Y314.575666 Z2.000000
G01 X220.553879 Y314.575666 Z2.000000
G01 X220.553879 Y305.247602 Z2.000000
G01 X201.860809 Y305.247602 Z2.000000
G01 X201.860809 Y314.575666 Z2.000000
G01 X192.514275 Y314.575666 Z2.000000
G01 X192.514275 Y305.247602 Z2.000000
G01 X173.821205 Y305.247602 Z2.000000
G01 X173.821205 Y314.575666 Z2.000000
G01 X183.167740 Y314.575666 Z2.000000
G01 X183.167740 Y333.231792 Z2.000000
G01 X173.821205 Y333.231792 Z2.000000
G01 X173.821205 Y323.903729 Z2.000000
G01 X164.474671 Y323.903729 Z2.000000
G01 X164.474671 Y333.231792 Z2.000000
G01 X155.128136 Y333.231792 Z2.000000
G01 X155.128136 Y314.575666 Z2.000000
G01 X164.474671 Y314.575666 Z2.000000
G01 X164.474671 Y305.247602 Z2.000000
G01 X145.781601 Y305.247602 Z2.000000
G01 X145.781601 Y314.575666 Z2.000000
G01 X136.435067 Y314.575666 Z2.000000
G01 X136.435067 Y305.247602 Z2.000000
G01 X117.741997 Y305.247602 Z2.000000
G01 X117.741997 Y314.575666 Z2.000000
G01 X127.088532 Y314.575666 Z2.000000
G01 X127.088532 Y323.903729 Z2.000000
G01 X117.741997 Y323.903729 Z2.000000
G01 X117.741997 Y333.231792 Z2.000000
G01 X136.435067 Y333.231792 Z2.000000
G01 X136.435067 Y323.903729 Z2.000000
G01 X145.781601 Y323.903729 Z2.000000
G01 X145.781601 Y342.559856 Z2.000000
G01 X136.435067 Y342.559856 Z2.000000
G01 X136.435067 Y351.887919 Z2.000000
G01 X145.781601 Y351.887919 Z2.000000
G01 X145.781601 Y370.544046 Z2.000000
G01 X136.435067 Y370.544046 Z2.000000
G01 X136.435067 Y361.215982 Z2.000000
G01 X127.088532 Y361.215982 Z2.000000
G01 X127.088532 Y370.544046 Z2.000000
G01 X117.741997 Y370.544046 Z2.000000
G01 X117.741997 Y351.887919 Z2.000000
G01 X127.088532 Y351.887919 Z2.000000
G01 X127.088532 Y342.559856 Z2.000000
G01 X99.048928 Y342.559856 Z2.000000
G01 X99.048928 Y351.887919 Z2.000000
G01 X108.395463 Y351.887919 Z2.000000
G01 X108.395463 Y370.544046 Z2.000000
G01 X99.048928 Y370.544046 Z2.000000
G01 X99.048928 Y361.215982 Z2.000000
G01 X89.702393 Y361.215982 Z2.000000
G01 X89.702393 Y370.544046 Z2.000000
G01 X80.355859 Y370.544046 Z2.000000
G01 X80.355859 Y351.887919 Z2.000000
G01 X89.702393 Y351.887919 Z2.000000
G01 X89.702393 Y342.559856 Z2.000000
G01 X80.355859 Y342.559856 Z2.000000
G01 X80.355859 Y323.903729 Z2.000000
G01 X89.702393 Y323.903729 Z2.000000
G01 X89.702393 Y333.231792 Z2.000000
G01 X108.395463 Y333.231792 Z2.000000
G01 X108.395463 Y323.903729 Z2.000000
G01 X99.048928 Y323.903729 Z2.000000
G01 X99.048928 Y314.575666 Z2.000000
G01 X108.395463 Y314.575666 Z2.000000
G01 X108.395463 Y305.247602 Z2.000000
G01 X89.702393 Y305.247602 Z2.000000
G01 X89.702393 Y314.575666 Z2.000000
G01 X80.355859 Y314.575666 Z2.000000
G01 X80.355859 Y305.247602 Z2.000000
G01 X61.662789 Y305.247602 Z2.000000
G01 X61.662789 Y314.575666 Z2.000000
G01 X71.009324 Y314.575666 Z2.000000
G01 X71.009324 Y333.231792 Z2.000000
G01 X61.662789 Y333.231792 Z2.000000
G01 X61.662789 Y323.903729 Z2.000000
G01 X52.316254 Y323.903729 Z2.000000
G01 X52.316254 Y333.231792 Z2.000000
G01 X42.969720 Y333.231792 Z2.000000
G01 X42.969720 Y314.575666 Z2.000000
G01 X52.316254 Y314.575666 Z2.000000
G01 X52.316254 Y305.247602 Z2.000000
G01 X33.623185 Y305.247602 Z2.000000
G01 X33.623185 Y314.575666 Z2.000000
G01 X24.276650 Y314.575666 Z2.000000
G01 X24.276650 Y305.247602 Z2.000000
G01 X5.583581 Y305.247602 Z2.000000
G01 X5.583581 Y314.575666 Z2.000000
G01 X14.930116 Y314.575666 Z2.000000
G01 X14.930116 Y323.903729 Z2.000000
G01 X5.583581 Y323.903729 Z2.000000
G01 X5.583581 Y333.231792 Z2.000000
G01 X24.276650 Y333.231792 Z2.000000
G01 X24.276650 Y323.903729 Z2.000000
G01 X33.623185 Y323.903729 Z2.000000
G01 X33.623185 Y351.887919 Z2.000000
G01 X24.276650 Y351.887919 Z2.000000
G01 X24.276650 Y342.559856 Z2.000000
G01 X5.583581 Y342.559856 Z2.000000
G01 X5.583581 Y351.887919 Z2.000000
G01 X14.930116 Y351.887919 Z2.000000
G01 X14.930116 Y361.215982 Z2.000000
G01 X5.583581 Y361.215982 Z2.000000
G01 X5.583581 Y370.544046 Z2.000000
G01 X24.276650 Y370.544046 Z2.000000
G01 X24.276650 Y361.215982 Z2.000000
G01 X33.623185 Y361.215982 Z2.000000
G01 X33.623185 Y370.544046 Z2.000000
G01 X52.316254 Y370.544046 Z2.000000
G01 X52.316254 Y361.215982 Z2.000000
G01 X42.969720 Y361.215982 Z2.000000
G01 X42.969720 Y342.559856 Z2.000000
G01 X52.316254 Y342.559856 Z2.000000
G01 X52.316254 Y351.887919 Z2.000000
G01 X61.662789 Y351.887919 Z2.000000
G01 X61.662789 Y342.559856 Z2.000000
G01 X71.009324 Y342.559856 Z2.000000
G01 X71.009324 Y361.215982 Z2.000000
G01 X61.662789 Y361.215982 Z2.000000
G01 X61.662789 Y370.544046 Z2.000000
G01 X71.009324 Y370.544046 Z2.000000
G01 X71.009324 Y379.872109 Z2.000000
G01 X61.662789 Y379.872109 Z2.000000
G01 X61.662789 Y389.200172 Z2.000000
G01 X71.009324 Y389.200172 Z2.000000
G01 X71.009324 Y407.856299 Z2.000000
G01 X61.662789 Y407.856299 Z2.000000
G01 X61.662789 Y398.528236 Z2.000000
G01 X52.316254 Y398.528236 Z2.000000
G01 X52.316254 Y407.856299 Z2.000000
G01 X42.969720 Y407.856299 Z2.000000
G01 X42.969720 Y389.200172 Z2.000000
G01 X52.316254 Y389.200172 Z2.000000
G01 X52.316254 Y379.872109 Z2.000000
G01 X33.623185 Y379.872109 Z2.000000
G01 X33.623185 Y389.200172 Z2.000000
G01 X24.276650 Y389.200172 Z2.000000
G01 X24.276650 Y379.872109 Z2.000000
G01 X5.583581 Y379.872109 Z2.000000
G01 X5.583581 Y389.200172 Z2.000000
G01 X14.930116 Y389.200172 Z2.000000
G01 X14.930116 Y398.528236 Z2.000000
G01 X5.583581 Y398.528236 Z2.000000
G01 X5.583581 Y407.856299 Z2.000000
G01 X24.276650 Y407.856299 Z2.000000
G01 X24.276650 Y398.528236 Z2.000000
G01 X33.623185 Y398.528236 Z2.000000
G01 X33.623185 Y426.512426 Z2.000000
G01 X24.276650 Y426.512426 Z2.000000
G01 X24.276650 Y417.184362 Z2.000000
G01 X5.583581 Y417.184362 Z2.000000
G01 X5.583581 Y426.512426 Z2.000000
G01 X14.930116 Y426.512426 Z2.000000
G01 X14.930116 Y435.840489 Z2.000000
G01 X5.583581 Y435.840489 Z2.000000
G01 X5.583581 Y445.168552 Z2.000000
G01 X24.276650 Y445.168552 Z2.000000
G01 X24.276650 Y435.840489 Z2.000000
G01 X33.623185 Y435.840489 Z2.000000
G01 X33.623185 Y445.168552 Z2.000000
G01 X52.316254 Y445.168552 Z2.000000
G01 X52.316254 Y435.840489 Z2.000000
G01 X42.969720 Y435.840489 Z2.000000
G01 X42.969720 Y417.184362 Z2.000000
G01 X52.316254 Y417.184362 Z2.000000
G01 X52.316254 Y426.512426 Z2.000000
G01 X61.662789 Y426.512426 Z2.000000
G01 X61.662789 Y417.184362 Z2.000000
G01 X71.009324 Y417.184362 Z2.000000
G01 X71.009324 Y435.840489 Z2.000000
G01 X61.662789 Y435.840489 Z2.000000
G01 X61.662789 Y445.168552 Z2.000000
G01 X80.355859 Y445.168552 Z2.000000
G01 X80.355859 Y435.840489 Z2.000000
G01 X89.702393 Y435.840489 Z2.000000
G01 X89.702393 Y445.168552 Z2.000000
G01 X108.395463 Y445.168552 Z2.000000
G01 X108.395463 Y435.840489 Z2.000000
G01 X99.048928 Y435.840489 Z2.000000
G01 X99.048928 Y426.512426 Z2.000000
G01 X108.395463 Y426.512426 Z2.000000
G01 X108.395463 Y417.184362 Z2.000000
G01 X89.702393 Y417.184362 Z2.000000
G01 X89.702393 Y426.512426 Z2.000000
G01 X80.355859 Y426.512426 Z2.000000
G01 X80.355859 Y407.856299 Z2.000000
G01 X89.702393 Y407.856299 Z2.000000
G01 X89.702393 Y398.528236 Z2.000000
G01 X80.355859 Y398.528236 Z2.000000
G01 X80.355859 Y379.872109 Z2.000000
G01 X89.702393 Y379.872109 Z2.000000
G01 X89.702393 Y389.200172 Z2.000000
G01 X99.048928 Y389.200172 Z2.000000
G01 X99.048928 Y379.872109 Z2.000000
G01 X108.395463 Y379.872109 Z2.000000
G01 X108.395463 Y398.528236 Z2.000000
G01 X99.048928 Y398.528236 Z2.000000
G01 X99.048928 Y407.856299 Z2.000000
G01 X127.088532 Y407.856299 Z2.000000
G01 X127.088532 Y398.528236 Z2.000000
G01 X117.741997 Y398.528236 Z2.000000
G01 X117.741997 Y379.872109 Z2.000000
G01 X127.088532 Y379.872109 Z2.000000
G01 X127.088532 Y389.200172 Z2.000000
G01 X136.435067 Y389.200172 Z2.000000
G01 X136.435067 Y379.872109 Z2.000000
G01 X145.781601 Y379.872109 Z2.000000
G01 X145.781601 Y398.528236 Z2.000000
G01 X136.435067 Y398.528236 Z2.000000
G01 X136.435067 Y407.856299 Z2.000000
G01 X145.781601 Y407.856299 Z2.000000
G01 X145.781601 Y426.512426 Z2.000000
G01 X136.435067 Y426.512426 Z2.000000
G01 X136.435067 Y417.184362 Z2.000000
G01 X117.741997 Y417.184362 Z2.000000
G01 X117.741997 Y426.512426 Z2.000000
G01 X127.088532 Y426.512426 Z2.000000
G01 X127.088532 Y435.840489 Z2.000000
G01 X117.741997 Y435.840489 Z2.000000
G01 X117.741997 Y445.168552 Z2.000000
G01 X136.435067 Y445.168552 Z2.000000
G01 X136.435067 Y435.840489 Z2.000000
G01 X145.781601 Y435.840489 Z2.000000
G01 X145.781601 Y463.824679 Z2.000000
G01 X136.435067 Y463.824679 Z2.000000
G01 X136.435067 Y454.496616 Z2.000000
G01 X117.741997 Y454.496616 Z2.000000
G01 X117.741997 Y463.824679 Z2.000000
G01 X127.088532 Y463.824679 Z2.000000
G01 X127.088532 Y473.152743 Z2.000000
G01 X117.741997 Y473.152743 Z2.000000
G01 X117.741997 Y482.480806 Z2.000000
G01 X136.435067 Y482.480806 Z2.000000
G01 X136.435067 Y473.152743 Z2.000000
G01 X145.781601 Y473.152743 Z2.000000
G01 X145.781601 Y491.808869 Z2.000000
G01 X136.435067 Y491.808869 Z2.000000
G01 X136.435067 Y501.136933 Z2.000000
G01 X145.781601 Y501.136933 Z2.000000
G01 X145.781601 Y519.793059 Z2.000000
G01 X136.435067 Y519.793059 Z2.000000
G01 X136.435067 Y510.464996 Z2.000000
G01 X127.088532 Y510.464996 Z2.000000
G01 X127.088532 Y519.793059 Z2.000000
G01 X117.741997 Y519.793059 Z2.000000
G01 X117.741997 Y501.136933 Z2.000000
G01 X127.088532 Y501.136933 Z2.000000
G01 X127.088532 Y491.808869 Z2.000000
G01 X99.048928 Y491.808869 Z2.000000
G01 X99.048928 Y501.136933 Z2.000000
G01 X108.395463 Y501.136933 Z2.000000
G01 X108.395463 Y519.793059 Z2.000000
G01 X99.048928 Y519.793059 Z2.000000
G01 X99.048928 Y510.464996 Z2.000000
G01 X89.702393 Y510.464996 Z2.000000
G01 X89.702393 Y519.793059 Z2.000000
G01 X80.355859 Y519.793059 Z2.000000
G01 X80.355859 Y501.136933 Z2.000000
G01 X89.702393 Y501.136933 Z2.000000
G01 X89.702393 Y491.808869 Z2.000000
G01 X80.355859 Y491.808869 Z2.000000
G01 X80.355859 Y473.152743 Z2.000000
G01 X89.702393 Y473.152743 Z2.000000
G01 X89.702393 Y482.480806 Z2.000000
G01 X108.395463 Y482.480806 Z2.000000
G01 X108.395463 Y473.152743 Z2.000000
G01 X99.048928 Y473.152743 Z2.000000
G01 X99.048928 Y463.824679 Z2.000000
G01 X108.395463 Y463.824679 Z2.000000
G01 X108.395463 Y454.496616 Z2.000000
G01 X89.702393 Y454.496616 Z2.000000
G01 X89.702393 Y463.824679 Z2.000000
G01 X80.355859 Y463.824679 Z2.000000
G01 X80.355859 Y454.496616 Z2.000000
G01 X61.662789 Y454.496616 Z2.000000
G01 X61.662789 Y463.824679 Z2.000000
G01 X71.009324 Y463.824679 Z2.000000
G01 X71.009324 Y482.480806 Z2.000000
G01 X61.662789 Y482.480806 Z2.000000
G01 X61.662789 Y473.152743 Z2.000000
G01 X52.316254 Y473.152743 Z2.000000
G01 X52.316254 Y482.480806 Z2.000000
G01 X42.969720 Y482.480806 Z2.000000
G01 X42.969720 Y463.824679 Z2.000000
G01 X52.316254 Y463.824679 Z2.000000
G01 X52.316254 Y454.496616 Z2.000000
G01 X33.623185 Y454.496616 Z2.000000
G01 X33.623185 Y463.824679 Z2.000000
G01 X24.276650 Y463.824679 Z2.000000
G01 X24.276650 Y454.496616 Z2.000000
G01 X5.583581 Y454.496616 Z2.000000
G01 X5.583581 Y463.824679 Z2.000000
G01 X14.930116 Y463.824679 Z2.000000
G01 X14.930116 Y473.152743 Z2.000000
G01 X5.583581 Y473.152743 Z2.000000
G01 X5.583581 Y482.480806 Z2.000000
G01 X24.276650 Y482.480806 Z2.000000
G01 X24.276650 Y473.152743 Z2.000000
G01 X33.623185 Y473.152743 Z2.000000
G01 X33.623185 Y501.136933 Z2.000000
G01 X24.276650 Y501.136933 Z2.000000
G01 X24.276650 Y491.808869 Z2.000000
G01 X5.583581 Y491.808869 Z2.000000
G01 X5.583581 Y501.136933 Z2.000000
G01 X14.930116 Y501.136933 Z2.000000
G01 X14.930116 Y510.464996 Z2.000000
G01 X5.583581 Y510.464996 Z2.000000
G01 X5.583581 Y519.793059 Z2.000000
G01 X24.276650 Y519.793059 Z2.000000
G01 X24.276650 Y510.464996 Z2.000000
G01 X33.623185 Y510.464996 Z2.000000
G01 X33.623185 Y519.793059 Z2.000000
G01 X52.316254 Y519.793059 Z2.000000
G01 X52.316254 Y510.464996 Z2.000000
G01 X42.969720 Y510.464996 Z2.000000
G01 X42.969720 Y491.808869 Z2.000000
G01 X52.316254 Y491.808869 Z2.000000
G01 X52.316254 Y501.136933 Z2.000000
G01 X61.662789 Y501.136933 Z2.000000
G01 X61.662789 Y491.808869 Z2.000000
G01 X71.009324 Y491.808869 Z2.000000
G01 X71.009324 Y510.464996 Z2.000000
G01 X61.662789 Y510.464996 Z2.000000
G01 X61.662789 Y519.793059 Z2.000000
G01 X71.009324 Y519.793059 Z2.000000
G01 X71.009324 Y529.121123 Z2.000000
G01 X61.662789 Y529.121123 Z2.000000
G01 X61.662789 Y538.449186 Z2.000000
G01 X71.009324 Y538.449186 Z2.000000
G01 X71.009324 Y557.105313 Z2.000000
G01 X61.662789 Y557.105313 Z2.000000
G01 X61.662789 Y547.777249 Z2.000000
G01 X52.316254 Y547.777249 Z2.000000
G01 X52.316254 Y557.105313 Z2.000000
G01 X42.969720 Y557.105313 Z2.000000
G01 X42.969720 Y538.449186 Z2.000000
G01 X52.316254 Y538.449186 Z2.000000
G01 X52.316254 Y529.121123 Z2.000000
G01 X33.623185 Y529.121123 Z2.000000
G01 X33.623185 Y538.449186 Z2.000000
G01 X24.276650 Y538.449186 Z2.000000
G01 X24.276650 Y529.121123 Z2.000000
G01 X5.583581 Y529.121123 Z2.000000
G01 X5.583581 Y538.449186 Z2.000000
G01 X14.930116 Y538.449186 Z2.000000
G01 X14.930116 Y547.777249 Z2.000000
G01 X5.583581 Y547.777249 Z2.000000
G01 X5.583581 Y557.105313 Z2.000000
G01 X24.276650 Y557.105313 Z2.000000
G01 X24.276650 Y547.777249 Z2.000000
G01 X33.623185 Y547.777249 Z2.000000
G01 X33.623185 Y575.761439 Z2.000000
G01 X24.276650 Y575.761439 Z2.000000
G01 X24.276650 Y566.433376 Z2.000000
G01 X5.583581 Y566.433376 Z2.000000
G01 X5.583581 Y575.761439 Z2.000000
G01 X14.930116 Y575.761439 Z2.000000
G01 X14.930116 Y585.089503 Z2.000000
G01 X5.583581 Y585.089503 Z2.000000
G01 X5.583581 Y594.417566 Z2.000000
G01 X24.276650 Y594.417566 Z2.000000
G01 X24.276650 Y585.089503 Z2.000000
G01 X33.623185 Y585.089503 Z2.000000
G01 X33.623185 Y594.417566 Z2.000000
G01 X52.316254 Y594.417566 Z2.000000
G01 X52.316254 Y585.089503 Z2.000000
G01 X42.969720 Y585.089503 Z2.000000
G01 X42.969720 Y566.433376 Z2.000000
G01 X52.316254 Y566.433376 Z2.000000
G01 X52.316254 Y575.761439 Z2.000000
G01 X61.662789 Y575.761439 Z2.000000
G01 X61.662789 Y566.433376 Z2.000000
G01 X71.009324 Y566.433376 Z2.000000
G01 X71.009324 Y585.089503 Z2.000000
G01 X61.662789 Y585.089503 Z2.000000
G01 X61.662789 Y594.417566 Z2.000000
G01 X80.355859 Y594.417566 Z2.000000
G01 X80.355859 Y585.089503 Z2.000000
G01 X89.702393 Y585.089503 Z2.000000
G01 X89.702393 Y594.417566 Z2.000000
G01 X108.395463 Y594.417566 Z2.000000
G01 X108.395463 Y585.089503 Z2.000000
G01 X99.048928 Y585.089503 Z2.000000
G01 X99.048928 Y575.761439 Z2.000000
G01 X108.395463 Y575.761439 Z2.000000
G01 X108.395463 Y566.433376 Z2.000000
G01 X89.702393 Y566.433376 Z2.000000
G01 X89.702393 Y575.761439 Z2.000000
G01 X80.355859 Y575.761439 Z2.000000
G01 X80.355859 Y557.105313 Z2.000000
G01 X89.702393 Y557.105313 Z2.000000
G01 X89.702393 Y547.777249 Z2.000000
G01 X80.355859 Y547.777249 Z2.000000
G01 X80.355859 Y529.121123 Z2.000000
G01 X89.702393 Y529.121123 Z2.000000
G01 X89.702393 Y538.449186 Z2.000000
G01 X99.048928 Y538.449186 Z2.000000
G01 X99.048928 Y529.121123 Z2.000000
G01 X108.395463 Y529.121123 Z2.000000
G01 X108.395463 Y547.777249 Z2.000000
G01 X99.048928 Y547.777249 Z2.000000
G01 X99.048928 Y557.105313 Z2.000000
G01 X127.088532 Y557.105313 Z2.000000
G01 X127.088532 Y547.777249 Z2.000000
G01 X117.741997 Y547.777249 Z2.000000
G01 X117.741997 Y529.121123 Z2.000000
G01 X127.088532 Y529.121123 Z2.000000
G01 X127.088532 Y538.449186 Z2.000000
G01 X136.435067 Y538.449186 Z2.000000
G01 X136.435067 Y529.121123 Z2.000000
G01 X145.781601 Y529.121123 Z2.000000
G01 X145.781601 Y547.777249 Z2.000000
G01 X136.435067 Y547.777249 Z2.000000
G01 X136.435067 Y557.105313 Z2.000000
G01 X145.781601 Y557.105313 Z2.000000
G01 X145.781601 Y575.761439 Z2.000000
G01 X136.435067 Y575.761439 Z2.000000
G01 X136.435067 Y566.433376 Z2.000000
G01 X117.741997 Y566.433376 Z2.000000
G01 X117.741997 Y575.761439 Z2.000000
G01 X127.088532 Y575.761439 Z2.000000
G01 X127.088532 Y585.089503 Z2.000000
G01 X117.741997 Y585.089503 Z2.000000
G01 X117.741997 Y594.417566 Z2.000000
G01 X136.435067 Y594.417566 Z2.000000
G01 X136.435067 Y585.089503 Z2.000000
G01 X145.781601 Y585.089503 Z2.000000
G01 X145.781601 Y594.417566 Z2.000000
G01 X164.474671 Y594.417566 Z2.000000
G01 X164.474671 Y585.089503 Z2.000000
G01 X155.128136 Y585.089503 Z2.000000
G01 X155.128136 Y566.433376 Z2.000000
G01 X164.474671 Y566.433376 Z2.000000
G01 X164.474671 Y575.761439 Z2.000000
G01 X173.821205 Y575.761439 Z2.000000
G01 X173.821205 Y566.433376 Z2.000000
G01 X183.167740 Y566.433376 Z2.000000
G01 X183.167740 Y585.089503 Z2.000000
G01 X173.821205 Y585.089503 Z2.000000
G01 X173.821205 Y594.417566 Z2.000000
G01 X192.514275 Y594.417566 Z2.000000
G01 X192.514275 Y585.089503 Z2.000000
G01 X201.860809 Y585.089503 Z2.000000
G01 X201.860809 Y594.417566 Z2.000000
G01 X220.553879 Y594.417566 Z2.000000
G01 X220.553879 Y585.089503 Z2.000000
G01 X211.207344 Y585.089503 Z2.000000
G01 X211.207344 Y575.761439 Z2.000000
G01 X220.553879 Y575.761439 Z2.000000
G01 X220.553879 Y566.433376 Z2.000000
G01 X201.860809 Y566.433376 Z2.000000
G01 X201.860809 Y575.761439 Z2.000000
G01 X192.514275 Y575.761439 Z2.000000
G01 X192.514275 Y547.777249 Z2.000000
G01 X201.860809 Y547.777249 Z2.000000
G01 X201.860809 Y557.105313 Z2.000000
G01 X220.553879 Y557.105313 Z2.000000
G01 X220.553879 Y547.777249 Z2.000000
G01 X211.207344 Y547.777249 Z2.000000
G01 X211.207344 Y538.449186 Z2.000000
G01 X220.553879 Y538.449186 Z2.000000
G01 X220.553879 Y529.121123 Z2.000000
G01 X201.860809 Y529.121123 Z2.000000
G01 X201.860809 Y538.449186 Z2.000000
G01 X192.514275 Y538.449186 Z2.000000
G01 X192.514275 Y529.121123 Z2.000000
G01 X173.821205 Y529.121123 Z2.000000
G01 X173.821205 Y538.449186 Z2.000000
G01 X183.167740 Y538.449186 Z2.000000
G01 X183.167740 Y557.105313 Z2.000000
G01 X173.821205 Y557.105313 Z2.000000
G01 X173.821205 Y547.777249 Z2.000000
G01 X164.474671 Y547.777249 Z2.000000
G01 X164.474671 Y557.105313 Z2.000000
G01 X155.128136 Y557.105313 Z2.000000
G01 X155.128136 Y538.449186 Z2.000000
G01 X164.474671 Y538.449186 Z2.000000
G01 X164.474671 Y529.121123 Z2.000000
G01 X155.128136 Y529.121123 Z2.000000
G01 X155.128136 Y510.464996 Z2.000000
G01 X164.474671 Y510.464996 Z2.000000
G01 X164.474671 Y519.793059 Z2.000000
G01 X183.167740 Y519.793059 Z2.000000
G01 X183.167740 Y510.464996 Z2.000000
G01 X173.821205 Y510.464996 Z2.000000
G01 X173.821205 Y501.136933 Z2.000000
G01 X183.167740 Y501.136933 Z2.000000
G01 X183.167740 Y491.808869 Z2.000000
G01 X164.474671 Y491.808869 Z2.000000
G01 X164.474671 Y501.136933 Z2.000000
G01 X155.128136 Y501.136933 Z2.000000
G01 X155.128136 Y482.480806 Z2.000000
G01 X164.474671 Y482.480806 Z2.000000
G01 X164.474671 Y473.152743 Z2.000000
G01 X155.128136 Y473.152743 Z2.000000
G01 X155.128136 Y454.496616 Z2.000000
G01 X164.474671 Y454.496616 Z2.000000
G01 X164.474671 Y463.824679 Z2.000000
G01 X173.821205 Y463.824679 Z2.000000
G01 X173.821205 Y454.496616 Z2.000000
G01 X183.167740 Y454.496616 Z2.000000
G01 X183.167740 Y473.152743 Z2.000000
G01 X173.821205 Y473.152743 Z2.000000
G01 X173.821205 Y482.480806 Z2.000000
G01 X201.860809 Y482.480806 Z2.000000
G01 X201.860809 Y473.152743 Z2.000000
G01 X192.514275 Y473.152743 Z2.000000
G01 X192.514275 Y454.496616 Z2.000000
G01 X201.860809 Y454.496616 Z2.000000
G01 X201.860809 Y463.824679 Z2.000000
G01 X211.207344 Y463.824679 Z2.000000
G01 X211.207344 Y454.496616 Z2.000000
G01 X220.553879 Y454.496616 Z2.000000
G01 X220.553879 Y473.152743 Z2.000000
G01 X211.207344 Y473.152743 Z2.000000
G01 X211.207344 Y482.480806 Z2.000000
G01 X220.553879 Y482.480806 Z2.000000
G01 X220.553879 Y501.136933 Z2.000000
G01 X211.207344 Y501.136933 Z2.000000
G01 X211.207344 Y491.808869 Z2.000000
G01 X192.514275 Y491.808869 Z2.000000
G01 X192.514275 Y501.136933 Z2.000000
G01 X201.860809 Y501.136933 Z2.000000
G01 X201.860809 Y510.464996 Z2.000000
G01 X192.514275 Y510.464996 Z2.000000
G01 X192.514275 Y519.793059 Z2.000000
G01 X211.207344 Y519.793059 Z2.000000
G01 X211.207344 Y510.464996 Z2.000000
G01 X220.553879 Y510.464996 Z2.000000
G01 X220.553879 Y519.793059 Z2.000000
G01 X229.900414 Y519.793059 Z2.000000
G01 X229.900414 Y510.464996 Z2.000000
G01 X239.246948 Y510.464996 Z2.000000
G01 X239.246948 Y519.793059 Z2.000000
G01 X257.940018 Y519.793059 Z2.000000
G01 X257.940018 Y510.464996 Z2.000000
G01 X248.593483 Y510.464996 Z2.000000
G01 X248.593483 Y501.136933 Z2.000000
G01 X257.940018 Y501.136933 Z2.000000
G01 X257.940018 Y491.808869 Z2.000000
G01 X239.246948 Y491.808869 Z2.000000
G01 X239.246948 Y501.136933 Z2.000000
G01 X229.900414 Y501.136933 Z2.000000
G01 X229.900414 Y482.480806 Z2.000000
G01 X239.246948 Y482.480806 Z2.000000
G01 X239.246948 Y473.152743 Z2.000000
G01 X229.900414 Y473.152743 Z2.000000
G01 X229.900414 Y454.496616 Z2.000000
G01 X239.246948 Y454.496616 Z2.000000
G01 X239.246948 Y463.824679 Z2.000000
G01 X248.593483 Y463.824679 Z2.000000
G01 X248.593483 Y454.496616 Z2.000000
G01 X257.940018 Y454.496616 Z2.000000
G01 X257.940018 Y473.152743 Z2.000000
G01 X248.593483 Y473.152743 Z2.000000
G01 X248.593483 Y482.480806 Z2.000000
G01 X276.633087 Y482.480806 Z2.000000
G01 X276.633087 Y473.152743 Z2.000000
G01 X267.286552 Y473.152743 Z2.000000
G01 X267.286552 Y454.496616 Z2.000000
G01 X276.633087 Y454.496616 Z2.000000
G01 X276.633087 Y463.824679 Z2.000000
G01 X285.979622 Y463.824679 Z2.000000
G01 X285.979622 Y454.496616 Z2.000000
G01 X295.326156 Y454.496616 Z2.000000
G01 X295.326156 Y473.152743 Z2.000000
G01 X285.979622 Y473.152743 Z2.000000
G01 X285.979622 Y482.480806 Z2.000000
G01 X295.326156 Y482.480806 Z2.000000
G01 X295.326156 Y501.136933 Z2.000000
G01 X285.979622 Y501.136933 Z2.000000
G01 X285.979622 Y491.808869 Z2.000000
G01 X267.286552 Y491.808869 Z2.000000
G01 X267.286552 Y501.136933 Z2.000000
G01 X276.633087 Y501.136933 Z2.000000
G01 X276.633087 Y510.464996 Z2.000000
G01 X267.286552 Y510.464996 Z2.000000
G01 X267.286552 Y519.793059 Z2.000000
G01 X285.979622 Y519.793059 Z2.000000
G01 X285.979622 Y510.464996 Z2.000000
G01 X295.326156 Y510.464996 Z2.000000
G01 X295.326156 Y529.121123 Z2.000000
G01 X285.979622 Y529.121123 Z2.000000
G01 X285.979622 Y538.449186 Z2.000000
G01 X295.326156 Y538.449186 Z2.000000
G01 X295.326156 Y557.105313 Z2.000000
G01 X285.979622 Y557.105313 Z2.000000
G01 X285.979622 Y547.777249 Z2.000000
G01 X276.633087 Y547.777249 Z2.000000
G01 X276.633087 Y557.105313 Z2.000000
G01 X267.286552 Y557.105313 Z2.000000
G01 X267.286552 Y538.449186 Z2.000000
G01 X276.633087 Y538.449186 Z2.000000
G01 X276.633087 Y529.121123 Z2.000000
G01 X257.940018 Y529.121123 Z2.000000
G01 X257.940018 Y538.449186 Z2.000000
G01 X248.593483 Y538.449186 Z2.000000
G01 X248.593483 Y529.121123 Z2.000000
G01 X229.900414 Y529.121123 Z2.000000
G01 X229.900414 Y538.449186 Z2.000000
G01 X239.246948 Y538.449186 Z2.000000
G01 X239.246948 Y547.777249 Z2.000000
G01 X229.900414 Y547.777249 Z2.000000
G01 X229.900414 Y557.105313 Z2.000000
G01 X248.593483 Y557.105313 Z2.000000
G01 X248.593483 Y547.777249 Z2.000000
G01 X257.940018 Y547.777249 Z2.000000
G01 X257.940018 Y575.761439 Z2.000000
G01 X248.593483 Y575.761439 Z2.000000
G01 X248.593483 Y566.433376 Z2.000000
G01 X229.900414 Y566.433376 Z2.000000
G01 X229.900414 Y575.761439 Z2.000000
G01 X239.246948 Y575.761439 Z2.000000
G01 X239.246948 Y585.089503 Z2.000000
G01 X229.900414 Y585.089503 Z2.000000
G01 X229.900414 Y594.417566 Z2.000000
G01 X248.593483 Y594.417566 Z2.000000
G01 X248.593483 Y585.089503 Z2.000000
G01 X257.940018 Y585.089503 Z2.000000
G01 X257.940018 Y594.417566 Z2.000000
G01 X276.633087 Y594.417566 Z2.000000
G01 X276.633087 Y585.089503 Z2.000000
G01 X267.286552 Y585.089503 Z2.000000
G01 X267.286552 Y566.433376 Z2.000000
G01 X276.633087 Y566.433376 Z2.000000
G01 X276.633087 Y575.761439 Z2.000000
G01 X285.979622 Y575.761439 Z2.000000
G01 X285.979622 Y566.433376 Z2.000000
G01 X295.326156 Y566.433376 Z2.000000
G01 X295.326156 Y585.089503 Z2.000000
G01 X285.979622 Y585.089503 Z2.000000
G01 X285.979622 Y594.417566 Z2.000000
G01 X304.672691 Y594.417566 Z2.000000
G01 X304.672691 Y594.417566 Z2.000000
G01 X304.672691 Y585.089503 Z2.000000
G01 X314.019226 Y585.089503 Z2.000000
G01 X314.019226 Y594.417566 Z2.000000
G01 X332.712295 Y594.417566 Z2.000000
G01 X332.712295 Y585.089503 Z2.000000
G01 X323.365760 Y585.089503 Z2.000000
G01 X323.365760 Y575.761439 Z2.000000
G01 X332.712295 Y575.761439 Z2.000000
G01 X332.712295 Y566.433376 Z2.000000
G01 X314.019226 Y566.433376 Z2.000000
G01 X314.019226 Y575.761439 Z2.000000
G01 X304.672691 Y575.761439 Z2.000000
G01 X304.672691 Y557.105313 Z2.000000
G01 X314.019226 Y557.105313 Z2.000000
G01 X314.019226 Y547.777249 Z2.000000
G01 X304.672691 Y547.777249 Z2.000000
G01 X304.672691 Y529.121123 Z2.000000
G01 X314.019226 Y529.121123 Z2.000000
G01 X314.019226 Y538.449186 Z2.000000
G01 X323.365760 Y538.449186 Z2.000000
G01 X323.365760 Y529.121123 Z2.000000
G01 X332.712295 Y529.121123 Z2.000000
G01 X332.712295 Y547.777249 Z2.000000
G01 X323.365760 Y547.777249 Z2.000000
G01 X323.365760 Y557.105313 Z2.000000
G01 X351.405364 Y557.105313 Z2.000000
G01 X351.405364 Y547.777249 Z2.000000
G01 X342.058830 Y547.777249 Z2.000000
G01 X342.058830 Y529.121123 Z2.000000
G01 X351.405364 Y529.121123 Z2.000000
G01 X351.405364 Y538.449186 Z2.000000
G01 X360.751899 Y538.449186 Z2.000000
G01 X360.751899 Y529.121123 Z2.000000
G01 X370.098434 Y529.121123 Z2.000000
G01 X370.098434 Y547.777249 Z2.000000
G01 X360.751899 Y547.777249 Z2.000000
G01 X360.751899 Y557.105313 Z2.000000
G01 X370.098434 Y557.105313 Z2.000000
G01 X370.098434 Y575.761439 Z2.000000
G01 X360.751899 Y575.761439 Z2.000000
G01 X360.751899 Y566.433376 Z2.000000
G01 X342.058830 Y566.433376 Z2.000000
G01 X342.058830 Y575.761439 Z2.000000
G01 X351.405364 Y575.761439 Z2.000000
G01 X351.405364 Y585.089503 Z2.000000
G01 X342.058830 Y585.089503 Z2.000000
G01 X342.058830 Y594.417566 Z2.000000
G01 X360.751899 Y594.417566 Z2.000000
G01 X360.751899 Y585.089503 Z2.000000
G01 X370.098434 Y585.089503 Z2.000000
G01 X370.098434 Y594.417566 Z2.000000
G01 X388.791503 Y594.417566 Z2.000000
G01 X388.791503 Y585.089503 Z2.000000
G01 X379.444969 Y585.089503 Z2.000000
G01 X379.444969 Y566.433376 Z2.000000
G01 X388.791503 Y566.433376 Z2.000000
G01 X388.791503 Y575.761439 Z2.000000
G01 X398.138038 Y575.761439 Z2.000000
G01 X398.138038 Y566.433376 Z2.000000
G01 X407.484573 Y566.433376 Z2.000000
G01 X407.484573 Y585.089503 Z2.000000
G01 X398.138038 Y585.089503 Z2.000000
G01 X398.138038 Y594.417566 Z2.000000
G01 X416.831107 Y594.417566 Z2.000000
G01 X416.831107 Y585.089503 Z2.000000
G01 X426.177642 Y585.089503 Z2.000000
G01 X426.177642 Y594.417566 Z2.000000
G01 X444.870711 Y594.417566 Z2.000000
G01 X444.870711 Y585.089503 Z2.000000
G01 X435.524177 Y585.089503 Z2.000000
G01 X435.524177 Y575.761439 Z2.000000
G01 X444.870711 Y575.761439 Z2.000000
G01 X444.870711 Y566.433376 Z2.000000
G01 X426.177642 Y566.433376 Z2.000000
G01 X426.177642 Y575.761439 Z2.000000
G01 X416.831107 Y575.761439 Z2.000000
G01 X416.831107 Y547.777249 Z2.000000
G01 X426.177642 Y547.777249 Z2.000000
G01 X426.177642 Y557.105313 Z2.000000
G01 X444.870711 Y557.105313 Z2.000000
G01 X444.870711 Y547.777249 Z2.000000
G01 X435.524177 Y547.777249 Z2.000000
G01 X435.524177 Y538.449186 Z2.000000
G01 X444.870711 Y538.449186 Z2.000000
G01 X444.870711 Y529.121123 Z2.000000
G01 X426.177642 Y529.121123 Z2.000000
G01 X426.177642 Y538.449186 Z2.000000
G01 X416.831107 Y538.449186 Z2.000000
G01 X416.831107 Y529.121123 Z2.000000
G01 X398.138038 Y529.121123 Z2.000000
G01 X398.138038 Y538.449186 Z2.000000
G01 X407.484573 Y538.449186 Z2.000000
G01 X407.484573 Y557.105313 Z2.000000
G01 X398.138038 Y557.105313 Z2.000000
G01 X398.138038 Y547.777249 Z2.000000
G01 X388.791503 Y547.777249 Z2.000000
G01 X388.791503 Y557.105313 Z2.000000
G01 X379.444969 Y557.105313 Z2.000000
G01 X379.444969 Y538.449186 Z2.000000
G01 X388.791503 Y538.449186 Z2.000000
G01 X388.791503 Y529.121123 Z2.000000
G01 X379.444969 Y529.121123 Z2.000000
G01 X379.444969 Y519.793059 Z2.000000
G01 X388.791503 Y519.793059 Z2.000000
G01 X388.791503 Y510.464996 Z2.000000
G01 X379.444969 Y510.464996 Z2.000000
G01 X379.444969 Y491.808869 Z2.000000
G01 X388.791503 Y491.808869 Z2.000000
G01 X388.791503 Y501.136933 Z2.000000
G01 X398.138038 Y501.136933 Z2.000000
G01 X398.138038 Y491.808869 Z2.000000
G01 X407.484573 Y491.808869 Z2.000000
G01 X407.484573 Y510.464996 Z2.000000
G01 X398.138038 Y510.464996 Z2.000000
G01 X398.138038 Y519.793059 Z2.000000
G01 X416.831107 Y519.793059 Z2.000000
G01 X416.831107 Y510.464996 Z2.000000
G01 X426.177642 Y510.464996 Z2.000000
G01 X426.177642 Y519.793059 Z2.000000
G01 X444.870711 Y519.793059 Z2.000000
G01 X444.870711 Y510.464996 Z2.000000
G01 X435.524177 Y510.464996 Z2.000000
G01 X435.524177 Y501.136933 Z2.000000
G01 X444.870711 Y501.136933 Z2.000000
G01 X444.870711 Y491.808869 Z2.000000
G01 X426.177642 Y491.808869 Z2.000000
G01 X426.177642 Y501.136933 Z2.000000
G01 X416.831107 Y501.136933 Z2.000000
G01 X416.831107 Y473.152743 Z2.000000
G01 X426.177642 Y473.152743 Z2.000000
G01 X426.177642 Y482.480806 Z2.000000
G01 X444.870711 Y482.480806 Z2.000000
G01 X444.870711 Y473.152743 Z2.000000
G01 X435.524177 Y473.152743 Z2.000000
G01 X435.524177 Y463.824679 Z2.000000
G01 X444.870711 Y463.824679 Z2.000000
G01 X444.870711 Y454.496616 Z2.000000
G01 X426.177642 Y454.496616 Z2.000000
G01 X426.177642 Y463.824679 Z2.000000
G01 X416.831107 Y463.824679 Z2.000000
G01 X416.831107 Y454.496616 Z2.000000
G01 X398.138038 Y454.496616 Z2.000000
G01 X398.138038 Y463.824679 Z2.000000
G01 X407.484573 Y463.824679 Z2.000000
G01 X407.484573 Y482.480806 Z2.000000
G01 X398.138038 Y482.480806 Z2.000000
G01 X398.138038 Y473.152743 Z2.000000
G01 X388.791503 Y473.152743 Z2.000000
G01 X388.791503 Y482.480806 Z2.000000
G01 X379.444969 Y482.480806 Z2.000000
G01 X379.444969 Y463.824679 Z2.000000
G01 X388.791503 Y463.824679 Z2.000000
G01 X388.791503 Y454.496616 Z2.000000
G01 X370.098434 Y454.496616 Z2.000000
G01 X370.098434 Y463.824679 Z2.000000
G01 X360.751899 Y463.824679 Z2.000000
G01 X360.751899 Y454.496616 Z2.000000
G01 X342.058830 Y454.496616 Z2.000000
G01 X342.058830 Y463.824679 Z2.000000
G01 X351.405364 Y463.824679 Z2.000000
G01 X351.405364 Y473.152743 Z2.000000
G01 X342.058830 Y473.152743 Z2.000000
G01 X342.058830 Y482.480806 Z2.000000
G01 X360.751899 Y482.480806 Z2.000000
G01 X360.751899 Y473.152743 Z2.000000
G01 X370.098434 Y473.152743 Z2.000000
G01 X370.098434 Y491.808869 Z2.000000
G01 X360.751899 Y491.808869 Z2.000000
G01 X360.751899 Y501.136933 Z2.000000
G01 X370.098434 Y501.136933 Z2.000000
G01 X370.098434 Y519.793059 Z2.000000
G01 X360.751899 Y519.793059 Z2.000000
G01 X360.751899 Y510.464996 Z2.000000
G01 X351.405364 Y510.464996 Z2.000000
G01 X351.405364 Y519.793059 Z2.000000
G01 X342.058830 Y519.793059 Z2.000000
G01 X342.058830 Y501.136933 Z2.000000
G01 X351.405364 Y501.136933 Z2.000000
G01 X351.405364 Y491.808869 Z2.000000
G01 X323.365760 Y491.808869 Z2.000000
G01 X323.365760 Y501.136933 Z2.000000
G01 X332.712295 Y501.136933 Z2.000000
G01 X332.712295 Y519.793059 Z2.000000
G01 X323.365760 Y519.793059 Z2.000000
G01 X323.365760 Y510.464996 Z2.000000
G01 X314.019226 Y510.464996 Z2.000000
G01 X314.019226 Y519.793059 Z2.000000
G01 X304.672691 Y519.793059 Z2.000000
G01 X304.672691 Y501.136933 Z2.000000
G01 X314.019226 Y501.136933 Z2.000000
G01 X314.019226 Y491.808869 Z2.000000
G01 X304.672691 Y491.808869 Z2.000000
